(GCode created using the HeeksCNC Mach3 post processor)
(Op_Cube_1.tap)
G21
(G-code Generated with Fabex and NC library)
(Rapids: 5000.0/min)
G17 G90
G43H1
T1M06
(Tool: D = 3.0 mm  type END flutes 2)
S15000 M03
G00 Z10.0 F5000.0

G00 X0 Y0 Z10
G00 X-1000.147 Y1001.5
G01 Z-10 F500
G01 X1000.147 F1000
G01 X1000.739 Y1001.383
G01 X1001.383 Y1000.739
G01 X1001.5 Y1000.147
G01 Y-1000.147
G01 X1001.383 Y-1000.739
G01 X1000.739 Y-1001.383
G01 X1000.147 Y-1001.5
G01 X-1000.147
G01 X-1000.739 Y-1001.383
G01 X-1001.383 Y-1000.739
G01 X-1001.5 Y-1000.147
G01 Y1000.147
G01 X-1001.383 Y1000.739
G01 X-1000.739 Y1001.383
G01 X-1000.147 Y1001.5
G01 Z-20 F500
G01 X1000.147 F1000
G01 X1000.739 Y1001.383
G01 X1001.383 Y1000.739
G01 X1001.5 Y1000.147
G01 Y-1000.147
G01 X1001.383 Y-1000.739
G01 X1000.739 Y-1001.383
G01 X1000.147 Y-1001.5
G01 X-1000.147
G01 X-1000.739 Y-1001.383
G01 X-1001.383 Y-1000.739
G01 X-1001.5 Y-1000.147
G01 Y1000.147
G01 X-1001.383 Y1000.739
G01 X-1000.739 Y1001.383
G01 X-1000.147 Y1001.5
G01 Z-29.999 F500
G01 X1000.147 F1000
G01 X1000.739 Y1001.383
G01 X1001.383 Y1000.739
G01 X1001.5 Y1000.147
G01 Y-1000.147
G01 X1001.383 Y-1000.739
G01 X1000.739 Y-1001.383
G01 X1000.147 Y-1001.5
G01 X-1000.147
G01 X-1000.739 Y-1001.383
G01 X-1001.383 Y-1000.739
G01 X-1001.5 Y-1000.147
G01 Y1000.147
G01 X-1001.383 Y1000.739
G01 X-1000.739 Y1001.383
G01 X-1000.147 Y1001.5
G01 Z-39.999 F500
G01 X1000.147 F1000
G01 X1000.739 Y1001.383
G01 X1001.383 Y1000.739
G01 X1001.5 Y1000.147
G01 Y-1000.147
G01 X1001.383 Y-1000.739
G01 X1000.739 Y-1001.383
G01 X1000.147 Y-1001.5
G01 X-1000.147
G01 X-1000.739 Y-1001.383
G01 X-1001.383 Y-1000.739
G01 X-1001.5 Y-1000.147
G01 Y1000.147
G01 X-1001.383 Y1000.739
G01 X-1000.739 Y1001.383
G01 X-1000.147 Y1001.5
G01 Z-50 F500
G01 X1000.147 F1000
G01 X1000.739 Y1001.383
G01 X1001.383 Y1000.739
G01 X1001.5 Y1000.147
G01 Y-1000.147
G01 X1001.383 Y-1000.739
G01 X1000.739 Y-1001.383
G01 X1000.147 Y-1001.5
G01 X-1000.147
G01 X-1000.739 Y-1001.383
G01 X-1001.383 Y-1000.739
G01 X-1001.5 Y-1000.147
G01 Y1000.147
G01 X-1001.383 Y1000.739
G01 X-1000.739 Y1001.383
G01 X-1000.147 Y1001.5
G01 Z-59.999 F500
G01 X1000.147 F1000
G01 X1000.739 Y1001.383
G01 X1001.383 Y1000.739
G01 X1001.5 Y1000.147
G01 Y-1000.147
G01 X1001.383 Y-1000.739
G01 X1000.739 Y-1001.383
G01 X1000.147 Y-1001.5
G01 X-1000.147
G01 X-1000.739 Y-1001.383
G01 X-1001.383 Y-1000.739
G01 X-1001.5 Y-1000.147
G01 Y1000.147
G01 X-1001.383 Y1000.739
G01 X-1000.739 Y1001.383
G01 X-1000.147 Y1001.5
G01 Z-70 F500
G01 X1000.147 F1000
G01 X1000.739 Y1001.383
G01 X1001.383 Y1000.739
G01 X1001.5 Y1000.147
G01 Y-1000.147
G01 X1001.383 Y-1000.739
G01 X1000.739 Y-1001.383
G01 X1000.147 Y-1001.5
G01 X-1000.147
G01 X-1000.739 Y-1001.383
G01 X-1001.383 Y-1000.739
G01 X-1001.5 Y-1000.147
G01 Y1000.147
G01 X-1001.383 Y1000.739
G01 X-1000.739 Y1001.383
G01 X-1000.147 Y1001.5
G01 Z-79.999 F500
G01 X1000.147 F1000
G01 X1000.739 Y1001.383
G01 X1001.383 Y1000.739
G01 X1001.5 Y1000.147
G01 Y-1000.147
G01 X1001.383 Y-1000.739
G01 X1000.739 Y-1001.383
G01 X1000.147 Y-1001.5
G01 X-1000.147
G01 X-1000.739 Y-1001.383
G01 X-1001.383 Y-1000.739
G01 X-1001.5 Y-1000.147
G01 Y1000.147
G01 X-1001.383 Y1000.739
G01 X-1000.739 Y1001.383
G01 X-1000.147 Y1001.5
G01 Z-90 F500
G01 X1000.147 F1000
G01 X1000.739 Y1001.383
G01 X1001.383 Y1000.739
G01 X1001.5 Y1000.147
G01 Y-1000.147
G01 X1001.383 Y-1000.739
G01 X1000.739 Y-1001.383
G01 X1000.147 Y-1001.5
G01 X-1000.147
G01 X-1000.739 Y-1001.383
G01 X-1001.383 Y-1000.739
G01 X-1001.5 Y-1000.147
G01 Y1000.147
G01 X-1001.383 Y1000.739
G01 X-1000.739 Y1001.383
G01 X-1000.147 Y1001.5
G01 Z-100 F500
G01 X1000.147 F1000
G01 X1000.739 Y1001.383
G01 X1001.383 Y1000.739
G01 X1001.5 Y1000.147
G01 Y-1000.147
G01 X1001.383 Y-1000.739
G01 X1000.739 Y-1001.383
G01 X1000.147 Y-1001.5
G01 X-1000.147
G01 X-1000.739 Y-1001.383
G01 X-1001.383 Y-1000.739
G01 X-1001.5 Y-1000.147
G01 Y1000.147
G01 X-1001.383 Y1000.739
G01 X-1000.739 Y1001.383
G01 X-1000.147 Y1001.5
G01 Z-109.999 F500
G01 X1000.147 F1000
G01 X1000.739 Y1001.383
G01 X1001.383 Y1000.739
G01 X1001.5 Y1000.147
G01 Y-1000.147
G01 X1001.383 Y-1000.739
G01 X1000.739 Y-1001.383
G01 X1000.147 Y-1001.5
G01 X-1000.147
G01 X-1000.739 Y-1001.383
G01 X-1001.383 Y-1000.739
G01 X-1001.5 Y-1000.147
G01 Y1000.147
G01 X-1001.383 Y1000.739
G01 X-1000.739 Y1001.383
G01 X-1000.147 Y1001.5
G01 Z-119.999 F500
G01 X1000.147 F1000
G01 X1000.739 Y1001.383
G01 X1001.383 Y1000.739
G01 X1001.5 Y1000.147
G01 Y-1000.147
G01 X1001.383 Y-1000.739
G01 X1000.739 Y-1001.383
G01 X1000.147 Y-1001.5
G01 X-1000.147
G01 X-1000.739 Y-1001.383
G01 X-1001.383 Y-1000.739
G01 X-1001.5 Y-1000.147
G01 Y1000.147
G01 X-1001.383 Y1000.739
G01 X-1000.739 Y1001.383
G01 X-1000.147 Y1001.5
G01 Z-129.999 F500
G01 X1000.147 F1000
G01 X1000.739 Y1001.383
G01 X1001.383 Y1000.739
G01 X1001.5 Y1000.147
G01 Y-1000.147
G01 X1001.383 Y-1000.739
G01 X1000.739 Y-1001.383
G01 X1000.147 Y-1001.5
G01 X-1000.147
G01 X-1000.739 Y-1001.383
G01 X-1001.383 Y-1000.739
G01 X-1001.5 Y-1000.147
G01 Y1000.147
G01 X-1001.383 Y1000.739
G01 X-1000.739 Y1001.383
G01 X-1000.147 Y1001.5
G01 Z-140 F500
G01 X1000.147 F1000
G01 X1000.739 Y1001.383
G01 X1001.383 Y1000.739
G01 X1001.5 Y1000.147
G01 Y-1000.147
G01 X1001.383 Y-1000.739
G01 X1000.739 Y-1001.383
G01 X1000.147 Y-1001.5
G01 X-1000.147
G01 X-1000.739 Y-1001.383
G01 X-1001.383 Y-1000.739
G01 X-1001.5 Y-1000.147
G01 Y1000.147
G01 X-1001.383 Y1000.739
G01 X-1000.739 Y1001.383
G01 X-1000.147 Y1001.5
G01 Z-150 F500
G01 X1000.147 F1000
G01 X1000.739 Y1001.383
G01 X1001.383 Y1000.739
G01 X1001.5 Y1000.147
G01 Y-1000.147
G01 X1001.383 Y-1000.739
G01 X1000.739 Y-1001.383
G01 X1000.147 Y-1001.5
G01 X-1000.147
G01 X-1000.739 Y-1001.383
G01 X-1001.383 Y-1000.739
G01 X-1001.5 Y-1000.147
G01 Y1000.147
G01 X-1001.383 Y1000.739
G01 X-1000.739 Y1001.383
G01 X-1000.147 Y1001.5
G01 Z-159.999 F500
G01 X1000.147 F1000
G01 X1000.739 Y1001.383
G01 X1001.383 Y1000.739
G01 X1001.5 Y1000.147
G01 Y-1000.147
G01 X1001.383 Y-1000.739
G01 X1000.739 Y-1001.383
G01 X1000.147 Y-1001.5
G01 X-1000.147
G01 X-1000.739 Y-1001.383
G01 X-1001.383 Y-1000.739
G01 X-1001.5 Y-1000.147
G01 Y1000.147
G01 X-1001.383 Y1000.739
G01 X-1000.739 Y1001.383
G01 X-1000.147 Y1001.5
G01 Z-170 F500
G01 X1000.147 F1000
G01 X1000.739 Y1001.383
G01 X1001.383 Y1000.739
G01 X1001.5 Y1000.147
G01 Y-1000.147
G01 X1001.383 Y-1000.739
G01 X1000.739 Y-1001.383
G01 X1000.147 Y-1001.5
G01 X-1000.147
G01 X-1000.739 Y-1001.383
G01 X-1001.383 Y-1000.739
G01 X-1001.5 Y-1000.147
G01 Y1000.147
G01 X-1001.383 Y1000.739
G01 X-1000.739 Y1001.383
G01 X-1000.147 Y1001.5
G01 Z-180 F500
G01 X1000.147 F1000
G01 X1000.739 Y1001.383
G01 X1001.383 Y1000.739
G01 X1001.5 Y1000.147
G01 Y-1000.147
G01 X1001.383 Y-1000.739
G01 X1000.739 Y-1001.383
G01 X1000.147 Y-1001.5
G01 X-1000.147
G01 X-1000.739 Y-1001.383
G01 X-1001.383 Y-1000.739
G01 X-1001.5 Y-1000.147
G01 Y1000.147
G01 X-1001.383 Y1000.739
G01 X-1000.739 Y1001.383
G01 X-1000.147 Y1001.5
G01 Z-189.999 F500
G01 X1000.147 F1000
G01 X1000.739 Y1001.383
G01 X1001.383 Y1000.739
G01 X1001.5 Y1000.147
G01 Y-1000.147
G01 X1001.383 Y-1000.739
G01 X1000.739 Y-1001.383
G01 X1000.147 Y-1001.5
G01 X-1000.147
G01 X-1000.739 Y-1001.383
G01 X-1001.383 Y-1000.739
G01 X-1001.5 Y-1000.147
G01 Y1000.147
G01 X-1001.383 Y1000.739
G01 X-1000.739 Y1001.383
G01 X-1000.147 Y1001.5
G01 Z-200 F500
G01 X1000.147 F1000
G01 X1000.739 Y1001.383
G01 X1001.383 Y1000.739
G01 X1001.5 Y1000.147
G01 Y-1000.147
G01 X1001.383 Y-1000.739
G01 X1000.739 Y-1001.383
G01 X1000.147 Y-1001.5
G01 X-1000.147
G01 X-1000.739 Y-1001.383
G01 X-1001.383 Y-1000.739
G01 X-1001.5 Y-1000.147
G01 Y1000.147
G01 X-1001.383 Y1000.739
G01 X-1000.739 Y1001.383
G01 X-1000.147 Y1001.5
G01 Z-209.999 F500
G01 X1000.147 F1000
G01 X1000.739 Y1001.383
G01 X1001.383 Y1000.739
G01 X1001.5 Y1000.147
G01 Y-1000.147
G01 X1001.383 Y-1000.739
G01 X1000.739 Y-1001.383
G01 X1000.147 Y-1001.5
G01 X-1000.147
G01 X-1000.739 Y-1001.383
G01 X-1001.383 Y-1000.739
G01 X-1001.5 Y-1000.147
G01 Y1000.147
G01 X-1001.383 Y1000.739
G01 X-1000.739 Y1001.383
G01 X-1000.147 Y1001.5
G01 Z-219.999 F500
G01 X1000.147 F1000
G01 X1000.739 Y1001.383
G01 X1001.383 Y1000.739
G01 X1001.5 Y1000.147
G01 Y-1000.147
G01 X1001.383 Y-1000.739
G01 X1000.739 Y-1001.383
G01 X1000.147 Y-1001.5
G01 X-1000.147
G01 X-1000.739 Y-1001.383
G01 X-1001.383 Y-1000.739
G01 X-1001.5 Y-1000.147
G01 Y1000.147
G01 X-1001.383 Y1000.739
G01 X-1000.739 Y1001.383
G01 X-1000.147 Y1001.5
G01 Z-230 F500
G01 X1000.147 F1000
G01 X1000.739 Y1001.383
G01 X1001.383 Y1000.739
G01 X1001.5 Y1000.147
G01 Y-1000.147
G01 X1001.383 Y-1000.739
G01 X1000.739 Y-1001.383
G01 X1000.147 Y-1001.5
G01 X-1000.147
G01 X-1000.739 Y-1001.383
G01 X-1001.383 Y-1000.739
G01 X-1001.5 Y-1000.147
G01 Y1000.147
G01 X-1001.383 Y1000.739
G01 X-1000.739 Y1001.383
G01 X-1000.147 Y1001.5
G01 Z-239.999 F500
G01 X1000.147 F1000
G01 X1000.739 Y1001.383
G01 X1001.383 Y1000.739
G01 X1001.5 Y1000.147
G01 Y-1000.147
G01 X1001.383 Y-1000.739
G01 X1000.739 Y-1001.383
G01 X1000.147 Y-1001.5
G01 X-1000.147
G01 X-1000.739 Y-1001.383
G01 X-1001.383 Y-1000.739
G01 X-1001.5 Y-1000.147
G01 Y1000.147
G01 X-1001.383 Y1000.739
G01 X-1000.739 Y1001.383
G01 X-1000.147 Y1001.5
G01 Z-250 F500
G01 X1000.147 F1000
G01 X1000.739 Y1001.383
G01 X1001.383 Y1000.739
G01 X1001.5 Y1000.147
G01 Y-1000.147
G01 X1001.383 Y-1000.739
G01 X1000.739 Y-1001.383
G01 X1000.147 Y-1001.5
G01 X-1000.147
G01 X-1000.739 Y-1001.383
G01 X-1001.383 Y-1000.739
G01 X-1001.5 Y-1000.147
G01 Y1000.147
G01 X-1001.383 Y1000.739
G01 X-1000.739 Y1001.383
G01 X-1000.147 Y1001.5
G01 Z-259.999 F500
G01 X1000.147 F1000
G01 X1000.739 Y1001.383
G01 X1001.383 Y1000.739
G01 X1001.5 Y1000.147
G01 Y-1000.147
G01 X1001.383 Y-1000.739
G01 X1000.739 Y-1001.383
G01 X1000.147 Y-1001.5
G01 X-1000.147
G01 X-1000.739 Y-1001.383
G01 X-1001.383 Y-1000.739
G01 X-1001.5 Y-1000.147
G01 Y1000.147
G01 X-1001.383 Y1000.739
G01 X-1000.739 Y1001.383
G01 X-1000.147 Y1001.5
G01 Z-270 F500
G01 X1000.147 F1000
G01 X1000.739 Y1001.383
G01 X1001.383 Y1000.739
G01 X1001.5 Y1000.147
G01 Y-1000.147
G01 X1001.383 Y-1000.739
G01 X1000.739 Y-1001.383
G01 X1000.147 Y-1001.5
G01 X-1000.147
G01 X-1000.739 Y-1001.383
G01 X-1001.383 Y-1000.739
G01 X-1001.5 Y-1000.147
G01 Y1000.147
G01 X-1001.383 Y1000.739
G01 X-1000.739 Y1001.383
G01 X-1000.147 Y1001.5
G01 Z-280 F500
G01 X1000.147 F1000
G01 X1000.739 Y1001.383
G01 X1001.383 Y1000.739
G01 X1001.5 Y1000.147
G01 Y-1000.147
G01 X1001.383 Y-1000.739
G01 X1000.739 Y-1001.383
G01 X1000.147 Y-1001.5
G01 X-1000.147
G01 X-1000.739 Y-1001.383
G01 X-1001.383 Y-1000.739
G01 X-1001.5 Y-1000.147
G01 Y1000.147
G01 X-1001.383 Y1000.739
G01 X-1000.739 Y1001.383
G01 X-1000.147 Y1001.5
G01 Z-289.999 F500
G01 X1000.147 F1000
G01 X1000.739 Y1001.383
G01 X1001.383 Y1000.739
G01 X1001.5 Y1000.147
G01 Y-1000.147
G01 X1001.383 Y-1000.739
G01 X1000.739 Y-1001.383
G01 X1000.147 Y-1001.5
G01 X-1000.147
G01 X-1000.739 Y-1001.383
G01 X-1001.383 Y-1000.739
G01 X-1001.5 Y-1000.147
G01 Y1000.147
G01 X-1001.383 Y1000.739
G01 X-1000.739 Y1001.383
G01 X-1000.147 Y1001.5
G01 Z-300 F500
G01 X1000.147 F1000
G01 X1000.739 Y1001.383
G01 X1001.383 Y1000.739
G01 X1001.5 Y1000.147
G01 Y-1000.147
G01 X1001.383 Y-1000.739
G01 X1000.739 Y-1001.383
G01 X1000.147 Y-1001.5
G01 X-1000.147
G01 X-1000.739 Y-1001.383
G01 X-1001.383 Y-1000.739
G01 X-1001.5 Y-1000.147
G01 Y1000.147
G01 X-1001.383 Y1000.739
G01 X-1000.739 Y1001.383
G01 X-1000.147 Y1001.5
G01 Z-310 F500
G01 X1000.147 F1000
G01 X1000.739 Y1001.383
G01 X1001.383 Y1000.739
G01 X1001.5 Y1000.147
G01 Y-1000.147
G01 X1001.383 Y-1000.739
G01 X1000.739 Y-1001.383
G01 X1000.147 Y-1001.5
G01 X-1000.147
G01 X-1000.739 Y-1001.383
G01 X-1001.383 Y-1000.739
G01 X-1001.5 Y-1000.147
G01 Y1000.147
G01 X-1001.383 Y1000.739
G01 X-1000.739 Y1001.383
G01 X-1000.147 Y1001.5
G01 Z-319.999 F500
G01 X1000.147 F1000
G01 X1000.739 Y1001.383
G01 X1001.383 Y1000.739
G01 X1001.5 Y1000.147
G01 Y-1000.147
G01 X1001.383 Y-1000.739
G01 X1000.739 Y-1001.383
G01 X1000.147 Y-1001.5
G01 X-1000.147
G01 X-1000.739 Y-1001.383
G01 X-1001.383 Y-1000.739
G01 X-1001.5 Y-1000.147
G01 Y1000.147
G01 X-1001.383 Y1000.739
G01 X-1000.739 Y1001.383
G01 X-1000.147 Y1001.5
G01 Z-330 F500
G01 X1000.147 F1000
G01 X1000.739 Y1001.383
G01 X1001.383 Y1000.739
G01 X1001.5 Y1000.147
G01 Y-1000.147
G01 X1001.383 Y-1000.739
G01 X1000.739 Y-1001.383
G01 X1000.147 Y-1001.5
G01 X-1000.147
G01 X-1000.739 Y-1001.383
G01 X-1001.383 Y-1000.739
G01 X-1001.5 Y-1000.147
G01 Y1000.147
G01 X-1001.383 Y1000.739
G01 X-1000.739 Y1001.383
G01 X-1000.147 Y1001.5
G01 Z-340 F500
G01 X1000.147 F1000
G01 X1000.739 Y1001.383
G01 X1001.383 Y1000.739
G01 X1001.5 Y1000.147
G01 Y-1000.147
G01 X1001.383 Y-1000.739
G01 X1000.739 Y-1001.383
G01 X1000.147 Y-1001.5
G01 X-1000.147
G01 X-1000.739 Y-1001.383
G01 X-1001.383 Y-1000.739
G01 X-1001.5 Y-1000.147
G01 Y1000.147
G01 X-1001.383 Y1000.739
G01 X-1000.739 Y1001.383
G01 X-1000.147 Y1001.5
G01 Z-349.999 F500
G01 X1000.147 F1000
G01 X1000.739 Y1001.383
G01 X1001.383 Y1000.739
G01 X1001.5 Y1000.147
G01 Y-1000.147
G01 X1001.383 Y-1000.739
G01 X1000.739 Y-1001.383
G01 X1000.147 Y-1001.5
G01 X-1000.147
G01 X-1000.739 Y-1001.383
G01 X-1001.383 Y-1000.739
G01 X-1001.5 Y-1000.147
G01 Y1000.147
G01 X-1001.383 Y1000.739
G01 X-1000.739 Y1001.383
G01 X-1000.147 Y1001.5
G01 Z-360 F500
G01 X1000.147 F1000
G01 X1000.739 Y1001.383
G01 X1001.383 Y1000.739
G01 X1001.5 Y1000.147
G01 Y-1000.147
G01 X1001.383 Y-1000.739
G01 X1000.739 Y-1001.383
G01 X1000.147 Y-1001.5
G01 X-1000.147
G01 X-1000.739 Y-1001.383
G01 X-1001.383 Y-1000.739
G01 X-1001.5 Y-1000.147
G01 Y1000.147
G01 X-1001.383 Y1000.739
G01 X-1000.739 Y1001.383
G01 X-1000.147 Y1001.5
G01 Z-370 F500
G01 X1000.147 F1000
G01 X1000.739 Y1001.383
G01 X1001.383 Y1000.739
G01 X1001.5 Y1000.147
G01 Y-1000.147
G01 X1001.383 Y-1000.739
G01 X1000.739 Y-1001.383
G01 X1000.147 Y-1001.5
G01 X-1000.147
G01 X-1000.739 Y-1001.383
G01 X-1001.383 Y-1000.739
G01 X-1001.5 Y-1000.147
G01 Y1000.147
G01 X-1001.383 Y1000.739
G01 X-1000.739 Y1001.383
G01 X-1000.147 Y1001.5
G01 Z-379.999 F500
G01 X1000.147 F1000
G01 X1000.739 Y1001.383
G01 X1001.383 Y1000.739
G01 X1001.5 Y1000.147
G01 Y-1000.147
G01 X1001.383 Y-1000.739
G01 X1000.739 Y-1001.383
G01 X1000.147 Y-1001.5
G01 X-1000.147
G01 X-1000.739 Y-1001.383
G01 X-1001.383 Y-1000.739
G01 X-1001.5 Y-1000.147
G01 Y1000.147
G01 X-1001.383 Y1000.739
G01 X-1000.739 Y1001.383
G01 X-1000.147 Y1001.5
G01 Z-389.999 F500
G01 X1000.147 F1000
G01 X1000.739 Y1001.383
G01 X1001.383 Y1000.739
G01 X1001.5 Y1000.147
G01 Y-1000.147
G01 X1001.383 Y-1000.739
G01 X1000.739 Y-1001.383
G01 X1000.147 Y-1001.5
G01 X-1000.147
G01 X-1000.739 Y-1001.383
G01 X-1001.383 Y-1000.739
G01 X-1001.5 Y-1000.147
G01 Y1000.147
G01 X-1001.383 Y1000.739
G01 X-1000.739 Y1001.383
G01 X-1000.147 Y1001.5
G01 Z-400 F500
G01 X1000.147 F1000
G01 X1000.739 Y1001.383
G01 X1001.383 Y1000.739
G01 X1001.5 Y1000.147
G01 Y-1000.147
G01 X1001.383 Y-1000.739
G01 X1000.739 Y-1001.383
G01 X1000.147 Y-1001.5
G01 X-1000.147
G01 X-1000.739 Y-1001.383
G01 X-1001.383 Y-1000.739
G01 X-1001.5 Y-1000.147
G01 Y1000.147
G01 X-1001.383 Y1000.739
G01 X-1000.739 Y1001.383
G01 X-1000.147 Y1001.5
G01 Z-409.999 F500
G01 X1000.147 F1000
G01 X1000.739 Y1001.383
G01 X1001.383 Y1000.739
G01 X1001.5 Y1000.147
G01 Y-1000.147
G01 X1001.383 Y-1000.739
G01 X1000.739 Y-1001.383
G01 X1000.147 Y-1001.5
G01 X-1000.147
G01 X-1000.739 Y-1001.383
G01 X-1001.383 Y-1000.739
G01 X-1001.5 Y-1000.147
G01 Y1000.147
G01 X-1001.383 Y1000.739
G01 X-1000.739 Y1001.383
G01 X-1000.147 Y1001.5
G01 Z-419.999 F500
G01 X1000.147 F1000
G01 X1000.739 Y1001.383
G01 X1001.383 Y1000.739
G01 X1001.5 Y1000.147
G01 Y-1000.147
G01 X1001.383 Y-1000.739
G01 X1000.739 Y-1001.383
G01 X1000.147 Y-1001.5
G01 X-1000.147
G01 X-1000.739 Y-1001.383
G01 X-1001.383 Y-1000.739
G01 X-1001.5 Y-1000.147
G01 Y1000.147
G01 X-1001.383 Y1000.739
G01 X-1000.739 Y1001.383
G01 X-1000.147 Y1001.5
G01 Z-430 F500
G01 X1000.147 F1000
G01 X1000.739 Y1001.383
G01 X1001.383 Y1000.739
G01 X1001.5 Y1000.147
G01 Y-1000.147
G01 X1001.383 Y-1000.739
G01 X1000.739 Y-1001.383
G01 X1000.147 Y-1001.5
G01 X-1000.147
G01 X-1000.739 Y-1001.383
G01 X-1001.383 Y-1000.739
G01 X-1001.5 Y-1000.147
G01 Y1000.147
G01 X-1001.383 Y1000.739
G01 X-1000.739 Y1001.383
G01 X-1000.147 Y1001.5
G01 Z-439.999 F500
G01 X1000.147 F1000
G01 X1000.739 Y1001.383
G01 X1001.383 Y1000.739
G01 X1001.5 Y1000.147
G01 Y-1000.147
G01 X1001.383 Y-1000.739
G01 X1000.739 Y-1001.383
G01 X1000.147 Y-1001.5
G01 X-1000.147
G01 X-1000.739 Y-1001.383
G01 X-1001.383 Y-1000.739
G01 X-1001.5 Y-1000.147
G01 Y1000.147
G01 X-1001.383 Y1000.739
G01 X-1000.739 Y1001.383
G01 X-1000.147 Y1001.5
G01 Z-449.999 F500
G01 X1000.147 F1000
G01 X1000.739 Y1001.383
G01 X1001.383 Y1000.739
G01 X1001.5 Y1000.147
G01 Y-1000.147
G01 X1001.383 Y-1000.739
G01 X1000.739 Y-1001.383
G01 X1000.147 Y-1001.5
G01 X-1000.147
G01 X-1000.739 Y-1001.383
G01 X-1001.383 Y-1000.739
G01 X-1001.5 Y-1000.147
G01 Y1000.147
G01 X-1001.383 Y1000.739
G01 X-1000.739 Y1001.383
G01 X-1000.147 Y1001.5
G01 Z-460 F500
G01 X1000.147 F1000
G01 X1000.739 Y1001.383
G01 X1001.383 Y1000.739
G01 X1001.5 Y1000.147
G01 Y-1000.147
G01 X1001.383 Y-1000.739
G01 X1000.739 Y-1001.383
G01 X1000.147 Y-1001.5
G01 X-1000.147
G01 X-1000.739 Y-1001.383
G01 X-1001.383 Y-1000.739
G01 X-1001.5 Y-1000.147
G01 Y1000.147
G01 X-1001.383 Y1000.739
G01 X-1000.739 Y1001.383
G01 X-1000.147 Y1001.5
G01 Z-469.999 F500
G01 X1000.147 F1000
G01 X1000.739 Y1001.383
G01 X1001.383 Y1000.739
G01 X1001.5 Y1000.147
G01 Y-1000.147
G01 X1001.383 Y-1000.739
G01 X1000.739 Y-1001.383
G01 X1000.147 Y-1001.5
G01 X-1000.147
G01 X-1000.739 Y-1001.383
G01 X-1001.383 Y-1000.739
G01 X-1001.5 Y-1000.147
G01 Y1000.147
G01 X-1001.383 Y1000.739
G01 X-1000.739 Y1001.383
G01 X-1000.147 Y1001.5
G01 Z-479.999 F500
G01 X1000.147 F1000
G01 X1000.739 Y1001.383
G01 X1001.383 Y1000.739
G01 X1001.5 Y1000.147
G01 Y-1000.147
G01 X1001.383 Y-1000.739
G01 X1000.739 Y-1001.383
G01 X1000.147 Y-1001.5
G01 X-1000.147
G01 X-1000.739 Y-1001.383
G01 X-1001.383 Y-1000.739
G01 X-1001.5 Y-1000.147
G01 Y1000.147
G01 X-1001.383 Y1000.739
G01 X-1000.739 Y1001.383
G01 X-1000.147 Y1001.5
G01 Z-490 F500
G01 X1000.147 F1000
G01 X1000.739 Y1001.383
G01 X1001.383 Y1000.739
G01 X1001.5 Y1000.147
G01 Y-1000.147
G01 X1001.383 Y-1000.739
G01 X1000.739 Y-1001.383
G01 X1000.147 Y-1001.5
G01 X-1000.147
G01 X-1000.739 Y-1001.383
G01 X-1001.383 Y-1000.739
G01 X-1001.5 Y-1000.147
G01 Y1000.147
G01 X-1001.383 Y1000.739
G01 X-1000.739 Y1001.383
G01 X-1000.147 Y1001.5
G01 Z-500 F500
G01 X1000.147 F1000
G01 X1000.739 Y1001.383
G01 X1001.383 Y1000.739
G01 X1001.5 Y1000.147
G01 Y-1000.147
G01 X1001.383 Y-1000.739
G01 X1000.739 Y-1001.383
G01 X1000.147 Y-1001.5
G01 X-1000.147
G01 X-1000.739 Y-1001.383
G01 X-1001.383 Y-1000.739
G01 X-1001.5 Y-1000.147
G01 Y1000.147
G01 X-1001.383 Y1000.739
G01 X-1000.739 Y1001.383
G01 X-1000.147 Y1001.5
G01 Z-509.999 F500
G01 X1000.147 F1000
G01 X1000.739 Y1001.383
G01 X1001.383 Y1000.739
G01 X1001.5 Y1000.147
G01 Y-1000.147
G01 X1001.383 Y-1000.739
G01 X1000.739 Y-1001.383
G01 X1000.147 Y-1001.5
G01 X-1000.147
G01 X-1000.739 Y-1001.383
G01 X-1001.383 Y-1000.739
G01 X-1001.5 Y-1000.147
G01 Y1000.147
G01 X-1001.383 Y1000.739
G01 X-1000.739 Y1001.383
G01 X-1000.147 Y1001.5
G01 Z-519.999 F500
G01 X1000.147 F1000
G01 X1000.739 Y1001.383
G01 X1001.383 Y1000.739
G01 X1001.5 Y1000.147
G01 Y-1000.147
G01 X1001.383 Y-1000.739
G01 X1000.739 Y-1001.383
G01 X1000.147 Y-1001.5
G01 X-1000.147
G01 X-1000.739 Y-1001.383
G01 X-1001.383 Y-1000.739
G01 X-1001.5 Y-1000.147
G01 Y1000.147
G01 X-1001.383 Y1000.739
G01 X-1000.739 Y1001.383
G01 X-1000.147 Y1001.5
G01 Z-529.999 F500
G01 X1000.147 F1000
G01 X1000.739 Y1001.383
G01 X1001.383 Y1000.739
G01 X1001.5 Y1000.147
G01 Y-1000.147
G01 X1001.383 Y-1000.739
G01 X1000.739 Y-1001.383
G01 X1000.147 Y-1001.5
G01 X-1000.147
G01 X-1000.739 Y-1001.383
G01 X-1001.383 Y-1000.739
G01 X-1001.5 Y-1000.147
G01 Y1000.147
G01 X-1001.383 Y1000.739
G01 X-1000.739 Y1001.383
G01 X-1000.147 Y1001.5
G01 Z-540 F500
G01 X1000.147 F1000
G01 X1000.739 Y1001.383
G01 X1001.383 Y1000.739
G01 X1001.5 Y1000.147
G01 Y-1000.147
G01 X1001.383 Y-1000.739
G01 X1000.739 Y-1001.383
G01 X1000.147 Y-1001.5
G01 X-1000.147
G01 X-1000.739 Y-1001.383
G01 X-1001.383 Y-1000.739
G01 X-1001.5 Y-1000.147
G01 Y1000.147
G01 X-1001.383 Y1000.739
G01 X-1000.739 Y1001.383
G01 X-1000.147 Y1001.5
G01 Z-550 F500
G01 X1000.147 F1000
G01 X1000.739 Y1001.383
G01 X1001.383 Y1000.739
G01 X1001.5 Y1000.147
G01 Y-1000.147
G01 X1001.383 Y-1000.739
G01 X1000.739 Y-1001.383
G01 X1000.147 Y-1001.5
G01 X-1000.147
G01 X-1000.739 Y-1001.383
G01 X-1001.383 Y-1000.739
G01 X-1001.5 Y-1000.147
G01 Y1000.147
G01 X-1001.383 Y1000.739
G01 X-1000.739 Y1001.383
G01 X-1000.147 Y1001.5
G01 Z-560 F500
G01 X1000.147 F1000
G01 X1000.739 Y1001.383
G01 X1001.383 Y1000.739
G01 X1001.5 Y1000.147
G01 Y-1000.147
G01 X1001.383 Y-1000.739
G01 X1000.739 Y-1001.383
G01 X1000.147 Y-1001.5
G01 X-1000.147
G01 X-1000.739 Y-1001.383
G01 X-1001.383 Y-1000.739
G01 X-1001.5 Y-1000.147
G01 Y1000.147
G01 X-1001.383 Y1000.739
G01 X-1000.739 Y1001.383
G01 X-1000.147 Y1001.5
G01 Z-569.999 F500
G01 X1000.147 F1000
G01 X1000.739 Y1001.383
G01 X1001.383 Y1000.739
G01 X1001.5 Y1000.147
G01 Y-1000.147
G01 X1001.383 Y-1000.739
G01 X1000.739 Y-1001.383
G01 X1000.147 Y-1001.5
G01 X-1000.147
G01 X-1000.739 Y-1001.383
G01 X-1001.383 Y-1000.739
G01 X-1001.5 Y-1000.147
G01 Y1000.147
G01 X-1001.383 Y1000.739
G01 X-1000.739 Y1001.383
G01 X-1000.147 Y1001.5
G01 Z-579.999 F500
G01 X1000.147 F1000
G01 X1000.739 Y1001.383
G01 X1001.383 Y1000.739
G01 X1001.5 Y1000.147
G01 Y-1000.147
G01 X1001.383 Y-1000.739
G01 X1000.739 Y-1001.383
G01 X1000.147 Y-1001.5
G01 X-1000.147
G01 X-1000.739 Y-1001.383
G01 X-1001.383 Y-1000.739
G01 X-1001.5 Y-1000.147
G01 Y1000.147
G01 X-1001.383 Y1000.739
G01 X-1000.739 Y1001.383
G01 X-1000.147 Y1001.5
G01 Z-589.999 F500
G01 X1000.147 F1000
G01 X1000.739 Y1001.383
G01 X1001.383 Y1000.739
G01 X1001.5 Y1000.147
G01 Y-1000.147
G01 X1001.383 Y-1000.739
G01 X1000.739 Y-1001.383
G01 X1000.147 Y-1001.5
G01 X-1000.147
G01 X-1000.739 Y-1001.383
G01 X-1001.383 Y-1000.739
G01 X-1001.5 Y-1000.147
G01 Y1000.147
G01 X-1001.383 Y1000.739
G01 X-1000.739 Y1001.383
G01 X-1000.147 Y1001.5
G01 Z-600 F500
G01 X1000.147 F1000
G01 X1000.739 Y1001.383
G01 X1001.383 Y1000.739
G01 X1001.5 Y1000.147
G01 Y-1000.147
G01 X1001.383 Y-1000.739
G01 X1000.739 Y-1001.383
G01 X1000.147 Y-1001.5
G01 X-1000.147
G01 X-1000.739 Y-1001.383
G01 X-1001.383 Y-1000.739
G01 X-1001.5 Y-1000.147
G01 Y1000.147
G01 X-1001.383 Y1000.739
G01 X-1000.739 Y1001.383
G01 X-1000.147 Y1001.5
G01 Z-610 F500
G01 X1000.147 F1000
G01 X1000.739 Y1001.383
G01 X1001.383 Y1000.739
G01 X1001.5 Y1000.147
G01 Y-1000.147
G01 X1001.383 Y-1000.739
G01 X1000.739 Y-1001.383
G01 X1000.147 Y-1001.5
G01 X-1000.147
G01 X-1000.739 Y-1001.383
G01 X-1001.383 Y-1000.739
G01 X-1001.5 Y-1000.147
G01 Y1000.147
G01 X-1001.383 Y1000.739
G01 X-1000.739 Y1001.383
G01 X-1000.147 Y1001.5
G01 Z-620 F500
G01 X1000.147 F1000
G01 X1000.739 Y1001.383
G01 X1001.383 Y1000.739
G01 X1001.5 Y1000.147
G01 Y-1000.147
G01 X1001.383 Y-1000.739
G01 X1000.739 Y-1001.383
G01 X1000.147 Y-1001.5
G01 X-1000.147
G01 X-1000.739 Y-1001.383
G01 X-1001.383 Y-1000.739
G01 X-1001.5 Y-1000.147
G01 Y1000.147
G01 X-1001.383 Y1000.739
G01 X-1000.739 Y1001.383
G01 X-1000.147 Y1001.5
G01 Z-629.999 F500
G01 X1000.147 F1000
G01 X1000.739 Y1001.383
G01 X1001.383 Y1000.739
G01 X1001.5 Y1000.147
G01 Y-1000.147
G01 X1001.383 Y-1000.739
G01 X1000.739 Y-1001.383
G01 X1000.147 Y-1001.5
G01 X-1000.147
G01 X-1000.739 Y-1001.383
G01 X-1001.383 Y-1000.739
G01 X-1001.5 Y-1000.147
G01 Y1000.147
G01 X-1001.383 Y1000.739
G01 X-1000.739 Y1001.383
G01 X-1000.147 Y1001.5
G01 Z-639.999 F500
G01 X1000.147 F1000
G01 X1000.739 Y1001.383
G01 X1001.383 Y1000.739
G01 X1001.5 Y1000.147
G01 Y-1000.147
G01 X1001.383 Y-1000.739
G01 X1000.739 Y-1001.383
G01 X1000.147 Y-1001.5
G01 X-1000.147
G01 X-1000.739 Y-1001.383
G01 X-1001.383 Y-1000.739
G01 X-1001.5 Y-1000.147
G01 Y1000.147
G01 X-1001.383 Y1000.739
G01 X-1000.739 Y1001.383
G01 X-1000.147 Y1001.5
G01 Z-649.999 F500
G01 X1000.147 F1000
G01 X1000.739 Y1001.383
G01 X1001.383 Y1000.739
G01 X1001.5 Y1000.147
G01 Y-1000.147
G01 X1001.383 Y-1000.739
G01 X1000.739 Y-1001.383
G01 X1000.147 Y-1001.5
G01 X-1000.147
G01 X-1000.739 Y-1001.383
G01 X-1001.383 Y-1000.739
G01 X-1001.5 Y-1000.147
G01 Y1000.147
G01 X-1001.383 Y1000.739
G01 X-1000.739 Y1001.383
G01 X-1000.147 Y1001.5
G01 Z-660 F500
G01 X1000.147 F1000
G01 X1000.739 Y1001.383
G01 X1001.383 Y1000.739
G01 X1001.5 Y1000.147
G01 Y-1000.147
G01 X1001.383 Y-1000.739
G01 X1000.739 Y-1001.383
G01 X1000.147 Y-1001.5
G01 X-1000.147
G01 X-1000.739 Y-1001.383
G01 X-1001.383 Y-1000.739
G01 X-1001.5 Y-1000.147
G01 Y1000.147
G01 X-1001.383 Y1000.739
G01 X-1000.739 Y1001.383
G01 X-1000.147 Y1001.5
G01 Z-670 F500
G01 X1000.147 F1000
G01 X1000.739 Y1001.383
G01 X1001.383 Y1000.739
G01 X1001.5 Y1000.147
G01 Y-1000.147
G01 X1001.383 Y-1000.739
G01 X1000.739 Y-1001.383
G01 X1000.147 Y-1001.5
G01 X-1000.147
G01 X-1000.739 Y-1001.383
G01 X-1001.383 Y-1000.739
G01 X-1001.5 Y-1000.147
G01 Y1000.147
G01 X-1001.383 Y1000.739
G01 X-1000.739 Y1001.383
G01 X-1000.147 Y1001.5
G01 Z-680 F500
G01 X1000.147 F1000
G01 X1000.739 Y1001.383
G01 X1001.383 Y1000.739
G01 X1001.5 Y1000.147
G01 Y-1000.147
G01 X1001.383 Y-1000.739
G01 X1000.739 Y-1001.383
G01 X1000.147 Y-1001.5
G01 X-1000.147
G01 X-1000.739 Y-1001.383
G01 X-1001.383 Y-1000.739
G01 X-1001.5 Y-1000.147
G01 Y1000.147
G01 X-1001.383 Y1000.739
G01 X-1000.739 Y1001.383
G01 X-1000.147 Y1001.5
G01 Z-689.999 F500
G01 X1000.147 F1000
G01 X1000.739 Y1001.383
G01 X1001.383 Y1000.739
G01 X1001.5 Y1000.147
G01 Y-1000.147
G01 X1001.383 Y-1000.739
G01 X1000.739 Y-1001.383
G01 X1000.147 Y-1001.5
G01 X-1000.147
G01 X-1000.739 Y-1001.383
G01 X-1001.383 Y-1000.739
G01 X-1001.5 Y-1000.147
G01 Y1000.147
G01 X-1001.383 Y1000.739
G01 X-1000.739 Y1001.383
G01 X-1000.147 Y1001.5
G01 Z-699.999 F500
G01 X1000.147 F1000
G01 X1000.739 Y1001.383
G01 X1001.383 Y1000.739
G01 X1001.5 Y1000.147
G01 Y-1000.147
G01 X1001.383 Y-1000.739
G01 X1000.739 Y-1001.383
G01 X1000.147 Y-1001.5
G01 X-1000.147
G01 X-1000.739 Y-1001.383
G01 X-1001.383 Y-1000.739
G01 X-1001.5 Y-1000.147
G01 Y1000.147
G01 X-1001.383 Y1000.739
G01 X-1000.739 Y1001.383
G01 X-1000.147 Y1001.5
G01 Z-709.999 F500
G01 X1000.147 F1000
G01 X1000.739 Y1001.383
G01 X1001.383 Y1000.739
G01 X1001.5 Y1000.147
G01 Y-1000.147
G01 X1001.383 Y-1000.739
G01 X1000.739 Y-1001.383
G01 X1000.147 Y-1001.5
G01 X-1000.147
G01 X-1000.739 Y-1001.383
G01 X-1001.383 Y-1000.739
G01 X-1001.5 Y-1000.147
G01 Y1000.147
G01 X-1001.383 Y1000.739
G01 X-1000.739 Y1001.383
G01 X-1000.147 Y1001.5
G01 Z-720 F500
G01 X1000.147 F1000
G01 X1000.739 Y1001.383
G01 X1001.383 Y1000.739
G01 X1001.5 Y1000.147
G01 Y-1000.147
G01 X1001.383 Y-1000.739
G01 X1000.739 Y-1001.383
G01 X1000.147 Y-1001.5
G01 X-1000.147
G01 X-1000.739 Y-1001.383
G01 X-1001.383 Y-1000.739
G01 X-1001.5 Y-1000.147
G01 Y1000.147
G01 X-1001.383 Y1000.739
G01 X-1000.739 Y1001.383
G01 X-1000.147 Y1001.5
G01 Z-730 F500
G01 X1000.147 F1000
G01 X1000.739 Y1001.383
G01 X1001.383 Y1000.739
G01 X1001.5 Y1000.147
G01 Y-1000.147
G01 X1001.383 Y-1000.739
G01 X1000.739 Y-1001.383
G01 X1000.147 Y-1001.5
G01 X-1000.147
G01 X-1000.739 Y-1001.383
G01 X-1001.383 Y-1000.739
G01 X-1001.5 Y-1000.147
G01 Y1000.147
G01 X-1001.383 Y1000.739
G01 X-1000.739 Y1001.383
G01 X-1000.147 Y1001.5
G01 Z-740 F500
G01 X1000.147 F1000
G01 X1000.739 Y1001.383
G01 X1001.383 Y1000.739
G01 X1001.5 Y1000.147
G01 Y-1000.147
G01 X1001.383 Y-1000.739
G01 X1000.739 Y-1001.383
G01 X1000.147 Y-1001.5
G01 X-1000.147
G01 X-1000.739 Y-1001.383
G01 X-1001.383 Y-1000.739
G01 X-1001.5 Y-1000.147
G01 Y1000.147
G01 X-1001.383 Y1000.739
G01 X-1000.739 Y1001.383
G01 X-1000.147 Y1001.5
G01 Z-750 F500
G01 X1000.147 F1000
G01 X1000.739 Y1001.383
G01 X1001.383 Y1000.739
G01 X1001.5 Y1000.147
G01 Y-1000.147
G01 X1001.383 Y-1000.739
G01 X1000.739 Y-1001.383
G01 X1000.147 Y-1001.5
G01 X-1000.147
G01 X-1000.739 Y-1001.383
G01 X-1001.383 Y-1000.739
G01 X-1001.5 Y-1000.147
G01 Y1000.147
G01 X-1001.383 Y1000.739
G01 X-1000.739 Y1001.383
G01 X-1000.147 Y1001.5
G01 Z-759.999 F500
G01 X1000.147 F1000
G01 X1000.739 Y1001.383
G01 X1001.383 Y1000.739
G01 X1001.5 Y1000.147
G01 Y-1000.147
G01 X1001.383 Y-1000.739
G01 X1000.739 Y-1001.383
G01 X1000.147 Y-1001.5
G01 X-1000.147
G01 X-1000.739 Y-1001.383
G01 X-1001.383 Y-1000.739
G01 X-1001.5 Y-1000.147
G01 Y1000.147
G01 X-1001.383 Y1000.739
G01 X-1000.739 Y1001.383
G01 X-1000.147 Y1001.5
G01 Z-769.999 F500
G01 X1000.147 F1000
G01 X1000.739 Y1001.383
G01 X1001.383 Y1000.739
G01 X1001.5 Y1000.147
G01 Y-1000.147
G01 X1001.383 Y-1000.739
G01 X1000.739 Y-1001.383
G01 X1000.147 Y-1001.5
G01 X-1000.147
G01 X-1000.739 Y-1001.383
G01 X-1001.383 Y-1000.739
G01 X-1001.5 Y-1000.147
G01 Y1000.147
G01 X-1001.383 Y1000.739
G01 X-1000.739 Y1001.383
G01 X-1000.147 Y1001.5
G01 Z-779.999 F500
G01 X1000.147 F1000
G01 X1000.739 Y1001.383
G01 X1001.383 Y1000.739
G01 X1001.5 Y1000.147
G01 Y-1000.147
G01 X1001.383 Y-1000.739
G01 X1000.739 Y-1001.383
G01 X1000.147 Y-1001.5
G01 X-1000.147
G01 X-1000.739 Y-1001.383
G01 X-1001.383 Y-1000.739
G01 X-1001.5 Y-1000.147
G01 Y1000.147
G01 X-1001.383 Y1000.739
G01 X-1000.739 Y1001.383
G01 X-1000.147 Y1001.5
G01 Z-790 F500
G01 X1000.147 F1000
G01 X1000.739 Y1001.383
G01 X1001.383 Y1000.739
G01 X1001.5 Y1000.147
G01 Y-1000.147
G01 X1001.383 Y-1000.739
G01 X1000.739 Y-1001.383
G01 X1000.147 Y-1001.5
G01 X-1000.147
G01 X-1000.739 Y-1001.383
G01 X-1001.383 Y-1000.739
G01 X-1001.5 Y-1000.147
G01 Y1000.147
G01 X-1001.383 Y1000.739
G01 X-1000.739 Y1001.383
G01 X-1000.147 Y1001.5
G01 Z-800 F500
G01 X1000.147 F1000
G01 X1000.739 Y1001.383
G01 X1001.383 Y1000.739
G01 X1001.5 Y1000.147
G01 Y-1000.147
G01 X1001.383 Y-1000.739
G01 X1000.739 Y-1001.383
G01 X1000.147 Y-1001.5
G01 X-1000.147
G01 X-1000.739 Y-1001.383
G01 X-1001.383 Y-1000.739
G01 X-1001.5 Y-1000.147
G01 Y1000.147
G01 X-1001.383 Y1000.739
G01 X-1000.739 Y1001.383
G01 X-1000.147 Y1001.5
G01 Z-810 F500
G01 X1000.147 F1000
G01 X1000.739 Y1001.383
G01 X1001.383 Y1000.739
G01 X1001.5 Y1000.147
G01 Y-1000.147
G01 X1001.383 Y-1000.739
G01 X1000.739 Y-1001.383
G01 X1000.147 Y-1001.5
G01 X-1000.147
G01 X-1000.739 Y-1001.383
G01 X-1001.383 Y-1000.739
G01 X-1001.5 Y-1000.147
G01 Y1000.147
G01 X-1001.383 Y1000.739
G01 X-1000.739 Y1001.383
G01 X-1000.147 Y1001.5
G01 Z-819.999 F500
G01 X1000.147 F1000
G01 X1000.739 Y1001.383
G01 X1001.383 Y1000.739
G01 X1001.5 Y1000.147
G01 Y-1000.147
G01 X1001.383 Y-1000.739
G01 X1000.739 Y-1001.383
G01 X1000.147 Y-1001.5
G01 X-1000.147
G01 X-1000.739 Y-1001.383
G01 X-1001.383 Y-1000.739
G01 X-1001.5 Y-1000.147
G01 Y1000.147
G01 X-1001.383 Y1000.739
G01 X-1000.739 Y1001.383
G01 X-1000.147 Y1001.5
G01 Z-829.999 F500
G01 X1000.147 F1000
G01 X1000.739 Y1001.383
G01 X1001.383 Y1000.739
G01 X1001.5 Y1000.147
G01 Y-1000.147
G01 X1001.383 Y-1000.739
G01 X1000.739 Y-1001.383
G01 X1000.147 Y-1001.5
G01 X-1000.147
G01 X-1000.739 Y-1001.383
G01 X-1001.383 Y-1000.739
G01 X-1001.5 Y-1000.147
G01 Y1000.147
G01 X-1001.383 Y1000.739
G01 X-1000.739 Y1001.383
G01 X-1000.147 Y1001.5
G01 Z-839.999 F500
G01 X1000.147 F1000
G01 X1000.739 Y1001.383
G01 X1001.383 Y1000.739
G01 X1001.5 Y1000.147
G01 Y-1000.147
G01 X1001.383 Y-1000.739
G01 X1000.739 Y-1001.383
G01 X1000.147 Y-1001.5
G01 X-1000.147
G01 X-1000.739 Y-1001.383
G01 X-1001.383 Y-1000.739
G01 X-1001.5 Y-1000.147
G01 Y1000.147
G01 X-1001.383 Y1000.739
G01 X-1000.739 Y1001.383
G01 X-1000.147 Y1001.5
G01 Z-850 F500
G01 X1000.147 F1000
G01 X1000.739 Y1001.383
G01 X1001.383 Y1000.739
G01 X1001.5 Y1000.147
G01 Y-1000.147
G01 X1001.383 Y-1000.739
G01 X1000.739 Y-1001.383
G01 X1000.147 Y-1001.5
G01 X-1000.147
G01 X-1000.739 Y-1001.383
G01 X-1001.383 Y-1000.739
G01 X-1001.5 Y-1000.147
G01 Y1000.147
G01 X-1001.383 Y1000.739
G01 X-1000.739 Y1001.383
G01 X-1000.147 Y1001.5
G01 Z-860 F500
G01 X1000.147 F1000
G01 X1000.739 Y1001.383
G01 X1001.383 Y1000.739
G01 X1001.5 Y1000.147
G01 Y-1000.147
G01 X1001.383 Y-1000.739
G01 X1000.739 Y-1001.383
G01 X1000.147 Y-1001.5
G01 X-1000.147
G01 X-1000.739 Y-1001.383
G01 X-1001.383 Y-1000.739
G01 X-1001.5 Y-1000.147
G01 Y1000.147
G01 X-1001.383 Y1000.739
G01 X-1000.739 Y1001.383
G01 X-1000.147 Y1001.5
G01 Z-870 F500
G01 X1000.147 F1000
G01 X1000.739 Y1001.383
G01 X1001.383 Y1000.739
G01 X1001.5 Y1000.147
G01 Y-1000.147
G01 X1001.383 Y-1000.739
G01 X1000.739 Y-1001.383
G01 X1000.147 Y-1001.5
G01 X-1000.147
G01 X-1000.739 Y-1001.383
G01 X-1001.383 Y-1000.739
G01 X-1001.5 Y-1000.147
G01 Y1000.147
G01 X-1001.383 Y1000.739
G01 X-1000.739 Y1001.383
G01 X-1000.147 Y1001.5
G01 Z-879.999 F500
G01 X1000.147 F1000
G01 X1000.739 Y1001.383
G01 X1001.383 Y1000.739
G01 X1001.5 Y1000.147
G01 Y-1000.147
G01 X1001.383 Y-1000.739
G01 X1000.739 Y-1001.383
G01 X1000.147 Y-1001.5
G01 X-1000.147
G01 X-1000.739 Y-1001.383
G01 X-1001.383 Y-1000.739
G01 X-1001.5 Y-1000.147
G01 Y1000.147
G01 X-1001.383 Y1000.739
G01 X-1000.739 Y1001.383
G01 X-1000.147 Y1001.5
G01 Z-889.999 F500
G01 X1000.147 F1000
G01 X1000.739 Y1001.383
G01 X1001.383 Y1000.739
G01 X1001.5 Y1000.147
G01 Y-1000.147
G01 X1001.383 Y-1000.739
G01 X1000.739 Y-1001.383
G01 X1000.147 Y-1001.5
G01 X-1000.147
G01 X-1000.739 Y-1001.383
G01 X-1001.383 Y-1000.739
G01 X-1001.5 Y-1000.147
G01 Y1000.147
G01 X-1001.383 Y1000.739
G01 X-1000.739 Y1001.383
G01 X-1000.147 Y1001.5
G01 Z-899.999 F500
G01 X1000.147 F1000
G01 X1000.739 Y1001.383
G01 X1001.383 Y1000.739
G01 X1001.5 Y1000.147
G01 Y-1000.147
G01 X1001.383 Y-1000.739
G01 X1000.739 Y-1001.383
G01 X1000.147 Y-1001.5
G01 X-1000.147
G01 X-1000.739 Y-1001.383
G01 X-1001.383 Y-1000.739
G01 X-1001.5 Y-1000.147
G01 Y1000.147
G01 X-1001.383 Y1000.739
G01 X-1000.739 Y1001.383
G01 X-1000.147 Y1001.5
G01 Z-910 F500
G01 X1000.147 F1000
G01 X1000.739 Y1001.383
G01 X1001.383 Y1000.739
G01 X1001.5 Y1000.147
G01 Y-1000.147
G01 X1001.383 Y-1000.739
G01 X1000.739 Y-1001.383
G01 X1000.147 Y-1001.5
G01 X-1000.147
G01 X-1000.739 Y-1001.383
G01 X-1001.383 Y-1000.739
G01 X-1001.5 Y-1000.147
G01 Y1000.147
G01 X-1001.383 Y1000.739
G01 X-1000.739 Y1001.383
G01 X-1000.147 Y1001.5
G01 Z-920 F500
G01 X1000.147 F1000
G01 X1000.739 Y1001.383
G01 X1001.383 Y1000.739
G01 X1001.5 Y1000.147
G01 Y-1000.147
G01 X1001.383 Y-1000.739
G01 X1000.739 Y-1001.383
G01 X1000.147 Y-1001.5
G01 X-1000.147
G01 X-1000.739 Y-1001.383
G01 X-1001.383 Y-1000.739
G01 X-1001.5 Y-1000.147
G01 Y1000.147
G01 X-1001.383 Y1000.739
G01 X-1000.739 Y1001.383
G01 X-1000.147 Y1001.5
G01 Z-930 F500
G01 X1000.147 F1000
G01 X1000.739 Y1001.383
G01 X1001.383 Y1000.739
G01 X1001.5 Y1000.147
G01 Y-1000.147
G01 X1001.383 Y-1000.739
G01 X1000.739 Y-1001.383
G01 X1000.147 Y-1001.5
G01 X-1000.147
G01 X-1000.739 Y-1001.383
G01 X-1001.383 Y-1000.739
G01 X-1001.5 Y-1000.147
G01 Y1000.147
G01 X-1001.383 Y1000.739
G01 X-1000.739 Y1001.383
G01 X-1000.147 Y1001.5
G01 Z-939.999 F500
G01 X1000.147 F1000
G01 X1000.739 Y1001.383
G01 X1001.383 Y1000.739
G01 X1001.5 Y1000.147
G01 Y-1000.147
G01 X1001.383 Y-1000.739
G01 X1000.739 Y-1001.383
G01 X1000.147 Y-1001.5
G01 X-1000.147
G01 X-1000.739 Y-1001.383
G01 X-1001.383 Y-1000.739
G01 X-1001.5 Y-1000.147
G01 Y1000.147
G01 X-1001.383 Y1000.739
G01 X-1000.739 Y1001.383
G01 X-1000.147 Y1001.5
G01 Z-949.999 F500
G01 X1000.147 F1000
G01 X1000.739 Y1001.383
G01 X1001.383 Y1000.739
G01 X1001.5 Y1000.147
G01 Y-1000.147
G01 X1001.383 Y-1000.739
G01 X1000.739 Y-1001.383
G01 X1000.147 Y-1001.5
G01 X-1000.147
G01 X-1000.739 Y-1001.383
G01 X-1001.383 Y-1000.739
G01 X-1001.5 Y-1000.147
G01 Y1000.147
G01 X-1001.383 Y1000.739
G01 X-1000.739 Y1001.383
G01 X-1000.147 Y1001.5
G01 Z-959.999 F500
G01 X1000.147 F1000
G01 X1000.739 Y1001.383
G01 X1001.383 Y1000.739
G01 X1001.5 Y1000.147
G01 Y-1000.147
G01 X1001.383 Y-1000.739
G01 X1000.739 Y-1001.383
G01 X1000.147 Y-1001.5
G01 X-1000.147
G01 X-1000.739 Y-1001.383
G01 X-1001.383 Y-1000.739
G01 X-1001.5 Y-1000.147
G01 Y1000.147
G01 X-1001.383 Y1000.739
G01 X-1000.739 Y1001.383
G01 X-1000.147 Y1001.5
G01 Z-970 F500
G01 X1000.147 F1000
G01 X1000.739 Y1001.383
G01 X1001.383 Y1000.739
G01 X1001.5 Y1000.147
G01 Y-1000.147
G01 X1001.383 Y-1000.739
G01 X1000.739 Y-1001.383
G01 X1000.147 Y-1001.5
G01 X-1000.147
G01 X-1000.739 Y-1001.383
G01 X-1001.383 Y-1000.739
G01 X-1001.5 Y-1000.147
G01 Y1000.147
G01 X-1001.383 Y1000.739
G01 X-1000.739 Y1001.383
G01 X-1000.147 Y1001.5
G01 Z-980 F500
G01 X1000.147 F1000
G01 X1000.739 Y1001.383
G01 X1001.383 Y1000.739
G01 X1001.5 Y1000.147
G01 Y-1000.147
G01 X1001.383 Y-1000.739
G01 X1000.739 Y-1001.383
G01 X1000.147 Y-1001.5
G01 X-1000.147
G01 X-1000.739 Y-1001.383
G01 X-1001.383 Y-1000.739
G01 X-1001.5 Y-1000.147
G01 Y1000.147
G01 X-1001.383 Y1000.739
G01 X-1000.739 Y1001.383
G01 X-1000.147 Y1001.5
G01 Z-990 F500
G01 X1000.147 F1000
G01 X1000.739 Y1001.383
G01 X1001.383 Y1000.739
G01 X1001.5 Y1000.147
G01 Y-1000.147
G01 X1001.383 Y-1000.739
G01 X1000.739 Y-1001.383
G01 X1000.147 Y-1001.5
G01 X-1000.147
G01 X-1000.739 Y-1001.383
G01 X-1001.383 Y-1000.739
G01 X-1001.5 Y-1000.147
G01 Y1000.147
G01 X-1001.383 Y1000.739
G01 X-1000.739 Y1001.383
G01 X-1000.147 Y1001.5
G01 Z-1000 F500
G01 X1000.147 F1000
G01 X1000.739 Y1001.383
G01 X1001.383 Y1000.739
G01 X1001.5 Y1000.147
G01 Y-1000.147
G01 X1001.383 Y-1000.739
G01 X1000.739 Y-1001.383
G01 X1000.147 Y-1001.5
G01 X-1000.147
G01 X-1000.739 Y-1001.383
G01 X-1001.383 Y-1000.739
G01 X-1001.5 Y-1000.147
G01 Y1000.147
G01 X-1001.383 Y1000.739
G01 X-1000.739 Y1001.383
G01 X-1000.147 Y1001.5
G00 Z10
M02
