(Created with grbl post processor 2026/03/16 16:00)
G21
(G-code Generated with Fabex and NC library)
(Rapids: 5000.0/min)
G17G90
S12000M03
G00 Z10.0 F5000.0

G0X0Y0Z10
X10.274Y9.275
G1Z-3.1F500
X10.474F1000
X11.874Y7.874
X14.674Y5.974
X17.475Y4.574
X20.374Y3.575
X23.374Y2.974
X26.175Y2.774
X32.674Y2.974
X36.274Y3.774
X38.574Y4.574
X41.375Y5.974
X44.174Y7.874
X45.574Y9.275
X45.775
X48.374Y12.174
X49.974Y14.574
X51.374Y17.375
X52.375Y20.274
X52.974Y23.274
X53.174Y26.074
X52.974Y32.775
X52.274Y36.075
X51.374Y38.674
X49.974Y41.474
X48.374Y43.874
X46.674Y45.674
Y45.874
X43.775Y48.474
X41.375Y50.074
X38.574Y51.475
X35.675Y52.474
X32.674Y53.074
X29.874Y53.274
X23.374Y53.074
X19.774Y52.274
X17.475Y51.475
X14.674Y50.074
X11.874Y48.175
X9.374Y45.874
Y45.674
X7.974Y44.274
X6.074Y41.474
X4.675Y38.674
X3.674Y35.774
X2.974Y31.574
X2.875Y26.074
X3.074Y23.274
X3.674Y20.274
X4.675Y17.375
X6.074Y14.574
X7.974Y11.774
X10.274Y9.275
G0Z10
X17.874Y17.974
G1Z-3.1F500
Y18.174F1000
X16.474Y19.575
X14.974Y21.974
X13.675Y25.274
X13.274Y27.274
Y28.774
X14.274Y32.575
X15.274Y34.674
X16.474Y36.474
X17.174Y37.074
X17.874Y38.075
X18.874Y38.774
X19.474Y39.474
X21.875Y40.974
X25.175Y42.274
X27.174Y42.675
X28.874
X32.674Y41.674
X34.775Y40.674
X36.574Y39.474
X37.974Y38.075
X38.174
X38.874Y37.074
X39.574Y36.474
X41.074Y34.074
X42.374Y30.774
X42.774Y28.674
Y27.274
X41.774Y23.474
X40.774Y21.374
X39.574Y19.575
X38.174Y18.174
Y17.974
X37.974
X36.574Y16.574
X34.174Y15.074
X30.874Y13.774
X28.874Y13.374
X27.174
X23.374Y14.374
X21.274Y15.374
X19.474Y16.574
X18.874Y17.275
X17.874Y17.974
G0Z10
X8.574Y9.275
G1Z-4.1F500
X11.475Y6.674F1000
X14.174Y4.874
X16.974Y3.474
X20.274Y2.374
X23.274Y1.774
X26.175Y1.575
X32.775Y1.774
X35.774Y2.374
X39.074Y3.474
X41.874Y4.874
X44.574Y6.674
X46.474Y8.474
X46.674
X49.275Y11.374
X51.074Y14.074
X52.474Y16.874
X53.574Y20.174
X54.174Y23.174
X54.374Y26.074
X54.174Y32.874
X53.574Y35.875
X52.474Y39.175
X51.074Y41.974
X49.275Y44.675
X47.474Y46.574
Y46.774
X44.574Y49.374
X41.874Y51.174
X39.074Y52.575
X35.774Y53.675
X32.775Y54.274
X29.874Y54.474
X23.274Y54.274
X20.274Y53.675
X16.974Y52.575
X14.174Y51.174
X11.475Y49.374
X9.574Y47.574
X9.374
X6.774Y44.675
X4.974Y41.974
X3.575Y39.175
X2.475Y35.875
X1.874Y32.874
X1.674Y26.074
X1.874Y23.174
X2.475Y20.174
X3.575Y16.874
X4.974Y14.074
X6.774Y11.374
X8.574Y9.474
Y9.275
G0Z10
X18.774Y18.774
G1Z-4.1F500
X17.375Y20.374F1000
X15.774Y23.074
X14.874Y25.474
X14.474Y27.375
X14.574Y29.174
X15.474Y32.375
X17.174Y35.374
X18.674Y36.975
Y37.175
X20.274Y38.574
X23.174Y40.275
X25.374Y41.074
X27.274Y41.474
X28.774
X32.474Y40.475
X34.874Y39.175
X37.274Y37.274
X38.674Y35.675
X40.574Y32.375
X41.575Y28.574
Y27.375
X41.274Y25.874
X40.574Y23.674
X39.474Y21.574
X37.374Y18.874
X35.774Y17.475
X33.475Y16.074
X30.675Y14.974
X28.774Y14.574
X27.274
X23.574Y15.574
X20.874Y17.074
X18.974Y18.774
X18.774
G0Z10
X7.774Y8.675
G1Z-5.1F500
X10.875Y5.874F1000
X13.574Y4.075
X16.574Y2.574
X20.174Y1.375
X23.174Y0.774
X26.175Y0.574
X32.874Y0.774
X36.274Y1.474
X38.374Y2.175
X42.475Y4.075
X45.174Y5.874
X47.075Y7.675
X47.274
X50.074Y10.774
X51.874Y13.474
X53.374Y16.474
X54.575Y20.074
X55.174Y23.074
X55.374Y26.074
X55.174Y32.974
X54.474Y36.374
X53.774Y38.474
X51.874Y42.574
X50.074Y45.274
X48.274Y47.174
Y47.374
X45.174Y50.175
X42.475Y51.974
X39.474Y53.475
X35.875Y54.674
X32.874Y55.274
X29.874Y55.474
X23.174Y55.274
X19.774Y54.575
X17.674Y53.874
X13.574Y51.974
X10.875Y50.175
X8.974Y48.374
X8.775
X5.974Y45.274
X4.174Y42.574
X2.674Y39.574
X1.575Y36.374
X0.875Y32.974
X0.674Y26.074
X0.875Y23.074
X1.575Y19.675
X2.674Y16.474
X4.174Y13.474
X5.974Y10.774
X7.774Y8.874
Y8.675
G0Z10
X20.174Y18.874
G1Z-5.1F500
X18.174Y20.974F1000
X17.174Y22.474
X16.074Y24.974
X15.474Y27.474
X15.774Y30.174
X16.375Y31.874
X17.174Y33.574
X18.774Y35.774
X20.874Y37.774
X22.374Y38.774
X24.874Y39.874
X27.375Y40.475
X29.774Y40.275
X31.974Y39.574
X33.675Y38.774
X35.875Y37.175
X37.875Y35.074
X38.874Y33.574
X40.275Y30.174
X40.574Y28.475
X40.275Y25.874
X39.674Y24.174
X38.874Y22.474
X37.274Y20.274
X35.174Y18.274
X33.675Y17.275
X31.174Y16.175
X28.674Y15.574
X26.275Y15.774
X24.075Y16.474
X22.374Y17.275
X20.174Y18.874
G0Z10
X6.974Y8.074
G1Z-6.1F500
X10.274Y5.074F1000
X13.474Y2.974
X13.774
X16.375Y1.575
X19.575Y0.475
X23.174Y-0.225
X26.175Y-0.425
X32.874Y-0.225
X36.474Y0.475
X39.674Y1.575
X42.475Y3.074
X42.774
X45.775Y5.074
X47.674Y6.874
X47.874
X50.874Y10.174
X52.874Y13.175
Y13.474
X54.374Y16.275
X55.474Y19.474
X56.174Y23.074
X56.374Y26.074
X56.174Y32.974
X55.474Y36.574
X54.374Y39.774
X52.874Y42.574
Y42.874
X50.874Y45.874
X49.075Y47.774
Y47.975
X45.775Y50.974
X42.774Y52.974
X42.475
X39.674Y54.474
X36.474Y55.574
X32.874Y56.274
X29.874Y56.474
X23.174Y56.274
X19.575Y55.574
X16.375Y54.474
X13.574Y52.974
X13.274
X10.274Y50.974
X8.374Y49.174
X8.175
X5.175Y45.874
X3.174Y42.874
Y42.574
X1.674Y39.774
X0.574Y36.574
X-0.125Y32.974
X-0.325Y26.074
X-0.125Y23.074
X0.574Y19.474
X1.674Y16.275
X3.074Y13.675
X3.174Y13.175
X5.175Y10.174
X6.974Y8.274
Y8.074
G0Z10
X20.775Y19.675
G1Z-6.1F500
X18.974Y21.574F1000
X18.174Y22.774
X17.275Y24.574
X16.474Y27.474
X16.674Y29.575
X17.275Y31.475
X18.174Y33.274
X19.575Y35.174
X21.474Y36.975
X22.674Y37.774
X24.474Y38.674
X27.375Y39.474
X28.674
X31.574Y38.674
X33.374Y37.774
X35.274Y36.374
X37.074Y34.474
X37.875Y33.274
X38.774Y31.475
X39.574Y28.475
X39.375Y26.474
X38.774Y24.574
X37.875Y22.774
X36.474Y20.874
X34.575Y19.074
X33.374Y18.274
X31.574Y17.375
X28.674Y16.574
X27.375
X24.474Y17.375
X22.674Y18.274
X20.775Y19.675
G0Z10
X6.974Y7.675
G1Z-7.1F500
X10.074Y4.874F1000
X13.074Y2.875
X13.374
X16.175Y1.375
X19.774Y0.175
X22.774Y-0.425
X25.175Y-0.625
X30.874
X33.274Y-0.425
X36.674Y0.275
X39.074Y1.074
X42.675Y2.875
X42.974
X45.975Y4.874
X48.074Y6.874
X48.274
X51.074Y9.974
X53.074Y12.974
Y13.274
X54.575Y16.074
X55.774Y19.675
X56.374Y22.674
X56.574Y25.075
Y30.974
X56.374Y33.374
X55.675Y36.775
X54.874Y39.175
X53.074Y42.774
Y43.074
X51.074Y46.074
X49.075Y48.175
Y48.374
X45.975Y51.174
X42.974Y53.174
X42.675
X39.874Y54.674
X36.274Y55.875
X33.274Y56.474
X30.874Y56.674
X25.175
X22.774Y56.474
X19.374Y55.774
X16.974Y54.974
X13.374Y53.174
X13.074
X10.074Y51.174
X7.974Y49.174
X7.774
X4.974Y46.074
X2.974Y43.074
Y42.774
X1.474Y39.974
X0.375Y36.775
X-0.425Y32.474
X-0.525Y25.075
X-0.325Y22.674
X0.375Y19.274
X1.474Y16.074
X2.974Y13.274
Y12.974
X4.974Y9.974
X6.974Y7.874
Y7.675
G0Z10
X20.374Y20.374
G1Z-7.1F500
X18.575Y22.674F1000
X17.574Y24.574
X17.074Y25.974
X16.674Y27.974
X17.074Y30.074
X17.574Y31.475
X18.375Y33.074
X20.274Y35.574
X21.674Y36.775
X24.474Y38.374
X25.874Y38.874
X27.874Y39.274
X29.774Y38.975
X31.574Y38.374
X33.174Y37.574
X35.675Y35.675
X37.674Y33.074
X38.774Y30.675
X39.274Y28.574
X39.375Y27.974
X39.175Y26.874
X38.474Y24.574
X37.674Y22.975
X35.774Y20.474
X34.074Y19.074
X31.574Y17.674
X30.174Y17.174
X28.174Y16.774
X26.275Y17.074
X24.474Y17.674
X22.875Y18.475
X20.374Y20.374
G0Z10
X6.874Y7.374
G1Z-8.1F500
X9.875Y4.675F1000
X12.874Y2.674
X13.175
X16.175Y1.074
X19.874Y-0.125
X22.875Y-0.725
X25.674Y-0.925
X30.374
X33.174Y-0.725
X36.574Y-0.025
X39.874Y1.074
X42.874Y2.674
X43.174
X46.174Y4.675
X47.574Y6.074
X48.574Y6.774
X51.275Y9.775
X53.274Y12.774
Y13.074
X54.874Y16.074
X56.074Y19.774
X56.674Y22.774
X56.874Y25.574
Y30.474
X56.674Y33.274
X55.974Y36.674
X54.874Y39.974
X53.274Y42.974
Y43.274
X51.275Y46.274
X49.174Y48.474
Y48.674
X46.174Y51.374
X43.174Y53.374
X42.874
X39.874Y54.974
X36.174Y56.174
X33.174Y56.775
X30.374Y56.975
X25.674
X22.875Y56.775
X19.474Y56.074
X16.175Y54.974
X13.175Y53.374
X12.874
X9.875Y51.374
X8.474Y49.974
X7.474Y49.275
X4.774Y46.274
X2.774Y43.274
Y42.974
X1.175Y39.974
X0.075Y36.674
X-0.725Y32.074
X-0.825Y25.574
X-0.625Y22.774
X0.075Y19.374
X1.175Y16.074
X2.774Y13.074
Y12.774
X4.774Y9.775
X6.174Y8.374
X6.874Y7.374
G0Z10
X20.675Y20.474
G1Z-8.1F500
X18.674Y22.975F1000
X17.774Y24.774
X16.974Y27.774
X17.275Y29.774
X17.774Y31.275
X18.674Y33.074
X20.374Y35.274
X22.875Y37.274
X24.674Y38.174
X27.674Y38.975
X29.874Y38.674
X31.374Y38.174
X33.174Y37.274
X35.374Y35.574
X36.975Y33.675
X38.275Y31.275
X39.074Y28.174
X38.774Y26.275
X38.275Y24.774
X37.374Y22.975
X35.675Y20.775
X33.174Y18.774
X31.374Y17.874
X28.374Y17.074
X26.175Y17.375
X24.674Y17.874
X22.875Y18.774
X20.675Y20.474
G0Z10
X6.874Y6.974
G1Z-9.1F500
X8.874Y5.374F1000
X9.474Y4.675
X13.574Y2.075
X15.974Y0.875
X19.474Y-0.325
X23.074Y-1.025
X26.175Y-1.225
X32.974Y-1.025
X36.574Y-0.325
X38.674Y0.375
X40.074Y0.875
X43.474Y2.574
X46.574Y4.675
X47.174Y5.374
X48.974Y6.774
X51.574Y9.775
X53.374Y12.474
X55.074Y15.874
X56.274Y19.374
X56.975Y22.975
X57.174Y26.074
X56.975Y33.074
X56.274Y36.674
X55.574Y38.774
X55.074Y40.174
X53.374Y43.575
X51.275Y46.674
X49.174Y48.874
Y49.075
X46.174Y51.674
X43.474Y53.475
X40.074Y55.174
X36.574Y56.374
X32.974Y57.074
X29.874Y57.274
X23.074Y57.074
X19.474Y56.374
X17.375Y55.675
X15.974Y55.174
X12.575Y53.475
X9.474Y51.374
X8.074Y49.974
X7.074Y49.275
X5.475Y47.274
X4.774Y46.674
X2.674Y43.575
X1.874Y41.974
X0.975Y40.174
X-0.225Y36.674
X-0.925Y33.074
X-1.125Y26.074
X-0.925Y22.975
X-0.225Y19.374
X0.975Y15.874
X2.674Y12.474
X4.774Y9.374
X6.174Y7.974
X6.874Y6.974
G0Z10
X21.074Y20.474
G1Z-9.1F500
X19.675Y21.974F1000
X18.874Y23.174
X17.974Y24.974
X17.275Y27.574
X17.375Y28.974
X17.974Y31.074
X18.874Y32.874
X20.374Y34.874
X21.875Y36.274
X23.074Y37.074
X24.874Y37.974
X27.474Y38.674
X28.574
X31.174Y37.974
X32.974Y37.074
X34.975Y35.574
X36.374Y34.074
X37.175Y32.874
X38.075Y31.074
X38.774Y28.374
X38.574Y26.574
X38.075Y24.974
X37.175Y23.174
X35.675Y21.174
X34.174Y19.774
X32.974Y18.974
X31.174Y18.074
X28.574Y17.375
X27.474
X24.874Y18.074
X23.074Y18.974
X21.074Y20.474
G0Z10
X6.774Y6.774
G1Z-10.1F500
X9.674Y4.174F1000
X12.374Y2.374
X15.974Y0.574
X19.675Y-0.625
X22.674Y-1.225
X26.574Y-1.525
X29.474
X33.374Y-1.225
X36.775Y-0.525
X40.074Y0.574
X43.674Y2.374
X46.374Y4.174
X47.474Y5.274
X47.674
X49.874Y7.374
Y7.574
X51.774Y9.574
X53.574Y12.274
X55.374Y15.874
X56.574Y19.575
X57.174Y22.574
X57.374Y24.974
Y31.074
X57.174Y33.475
X56.474Y36.874
X55.374Y40.174
X53.574Y43.775
X51.774Y46.474
X49.874Y48.474
Y48.674
X46.374Y51.874
X43.674Y53.675
X40.074Y55.474
X36.374Y56.674
X33.374Y57.274
X30.974Y57.474
X25.075
X22.674Y57.274
X19.274Y56.574
X15.974Y55.474
X12.374Y53.675
X9.674Y51.874
X8.574Y50.774
X8.374
X6.174Y48.674
Y48.474
X4.274Y46.474
X2.475Y43.775
X0.674Y40.174
X-0.425Y36.874
X-1.225Y32.575
X-1.425Y26.474
X-1.125Y22.574
X-0.425Y19.174
X0.674Y15.874
X2.475Y12.274
X4.274Y9.574
X6.774Y6.774
G0Z10
X21.374Y20.574
G1Z-10.1F500
X19.874Y22.174F1000
X19.074Y23.374
X18.274Y24.974
X17.475Y27.974
X18.274Y31.074
X19.074Y32.674
X20.474Y34.575
X22.074Y36.075
X23.274Y36.874
X24.874Y37.674
X27.874Y38.474
X29.674Y38.174
X31.174Y37.674
X32.775Y36.874
X34.674Y35.474
X36.174Y33.875
X36.975Y32.674
X37.774Y31.074
X38.474Y28.475
X38.574Y27.974
X38.275Y26.474
X37.774Y24.974
X36.975Y23.374
X35.574Y21.474
X33.974Y19.974
X32.775Y19.174
X31.174Y18.375
X28.174Y17.574
X26.374Y17.874
X24.874Y18.375
X23.274Y19.174
X21.374Y20.574
G0Z10
X6.774Y6.774
G1Z-11.1F500
X9.674Y4.174F1000
X12.374Y2.374
X15.974Y0.574
X19.675Y-0.625
X22.674Y-1.225
X26.574Y-1.525
X29.474
X33.374Y-1.225
X36.775Y-0.525
X40.074Y0.574
X43.674Y2.374
X46.374Y4.174
X47.474Y5.274
X47.674
X49.874Y7.374
Y7.574
X51.774Y9.574
X53.574Y12.274
X55.374Y15.874
X56.574Y19.575
X57.174Y22.574
X57.374Y24.974
Y31.074
X57.174Y33.475
X56.474Y36.874
X55.374Y40.174
X53.574Y43.775
X51.774Y46.474
X49.874Y48.474
Y48.674
X46.374Y51.874
X43.674Y53.675
X40.074Y55.474
X36.374Y56.674
X33.374Y57.274
X30.974Y57.474
X25.075
X22.674Y57.274
X19.274Y56.574
X15.974Y55.474
X12.374Y53.675
X9.674Y51.874
X8.574Y50.774
X8.374
X6.174Y48.674
Y48.474
X4.274Y46.474
X2.475Y43.775
X0.674Y40.174
X-0.425Y36.874
X-1.225Y32.575
X-1.425Y26.474
X-1.125Y22.574
X-0.425Y19.174
X0.674Y15.874
X2.475Y12.274
X4.274Y9.574
X6.774Y6.774
G0Z10
X21.374Y20.574
G1Z-11.1F500
X19.874Y22.174F1000
X19.074Y23.374
X18.274Y24.974
X17.475Y27.974
X18.274Y31.074
X19.074Y32.674
X20.474Y34.575
X22.074Y36.075
X23.274Y36.874
X24.874Y37.674
X27.874Y38.474
X29.674Y38.174
X31.174Y37.674
X32.775Y36.874
X34.674Y35.474
X36.174Y33.875
X36.975Y32.674
X37.774Y31.074
X38.474Y28.475
X38.574Y27.974
X38.275Y26.474
X37.774Y24.974
X36.975Y23.374
X35.574Y21.474
X33.974Y19.974
X32.775Y19.174
X31.174Y18.375
X28.174Y17.574
X26.374Y17.874
X24.874Y18.375
X23.274Y19.174
X21.374Y20.574
G0Z10
X6.774Y6.774
G1Z-12.1F500
X9.674Y4.174F1000
X12.374Y2.374
X15.974Y0.574
X19.675Y-0.625
X22.674Y-1.225
X26.574Y-1.525
X29.474
X33.374Y-1.225
X36.775Y-0.525
X40.074Y0.574
X43.674Y2.374
X46.374Y4.174
X47.474Y5.274
X47.674
X49.874Y7.374
Y7.574
X51.774Y9.574
X53.574Y12.274
X55.374Y15.874
X56.574Y19.575
X57.174Y22.574
X57.374Y24.974
Y31.074
X57.174Y33.475
X56.474Y36.874
X55.374Y40.174
X53.574Y43.775
X51.774Y46.474
X49.874Y48.474
Y48.674
X46.374Y51.874
X43.674Y53.675
X40.074Y55.474
X36.374Y56.674
X33.374Y57.274
X30.974Y57.474
X25.075
X22.674Y57.274
X19.274Y56.574
X15.974Y55.474
X12.374Y53.675
X9.674Y51.874
X8.574Y50.774
X8.374
X6.174Y48.674
Y48.474
X4.274Y46.474
X2.475Y43.775
X0.674Y40.174
X-0.425Y36.874
X-1.225Y32.575
X-1.425Y26.474
X-1.125Y22.574
X-0.425Y19.174
X0.674Y15.874
X2.475Y12.274
X4.274Y9.574
X6.774Y6.774
G0Z10
X21.374Y20.574
G1Z-12.1F500
X19.874Y22.174F1000
X19.074Y23.374
X18.274Y24.974
X17.475Y27.974
X18.274Y31.074
X19.074Y32.674
X20.474Y34.575
X22.074Y36.075
X23.274Y36.874
X24.874Y37.674
X27.874Y38.474
X29.674Y38.174
X31.174Y37.674
X32.775Y36.874
X34.674Y35.474
X36.174Y33.875
X36.975Y32.674
X37.774Y31.074
X38.474Y28.475
X38.574Y27.974
X38.275Y26.474
X37.774Y24.974
X36.975Y23.374
X35.574Y21.474
X33.974Y19.974
X32.775Y19.174
X31.174Y18.375
X28.174Y17.574
X26.374Y17.874
X24.874Y18.375
X23.274Y19.174
X21.374Y20.574
G0Z10
X6.774Y6.774
G1Z-13.1F500
X9.674Y4.174F1000
X12.374Y2.374
X15.974Y0.574
X19.675Y-0.625
X22.674Y-1.225
X26.574Y-1.525
X29.474
X33.374Y-1.225
X36.775Y-0.525
X40.074Y0.574
X43.674Y2.374
X46.374Y4.174
X47.474Y5.274
X47.674
X49.874Y7.374
Y7.574
X51.774Y9.574
X53.574Y12.274
X55.374Y15.874
X56.574Y19.575
X57.174Y22.574
X57.374Y24.974
Y31.074
X57.174Y33.475
X56.474Y36.874
X55.374Y40.174
X53.574Y43.775
X51.774Y46.474
X49.874Y48.474
Y48.674
X46.374Y51.874
X43.674Y53.675
X40.074Y55.474
X36.374Y56.674
X33.374Y57.274
X30.974Y57.474
X25.075
X22.674Y57.274
X19.274Y56.574
X15.974Y55.474
X12.374Y53.675
X9.674Y51.874
X8.574Y50.774
X8.374
X6.174Y48.674
Y48.474
X4.274Y46.474
X2.475Y43.775
X0.674Y40.174
X-0.425Y36.874
X-1.225Y32.575
X-1.425Y26.474
X-1.125Y22.574
X-0.425Y19.174
X0.674Y15.874
X2.475Y12.274
X4.274Y9.574
X6.774Y6.774
G0Z10
X21.374Y20.574
G1Z-13.1F500
X19.874Y22.174F1000
X19.074Y23.374
X18.274Y24.974
X17.475Y27.974
X18.274Y31.074
X19.074Y32.674
X20.474Y34.575
X22.074Y36.075
X23.274Y36.874
X24.874Y37.674
X27.874Y38.474
X29.674Y38.174
X31.174Y37.674
X32.775Y36.874
X34.674Y35.474
X36.174Y33.875
X36.975Y32.674
X37.774Y31.074
X38.474Y28.475
X38.574Y27.974
X38.275Y26.474
X37.774Y24.974
X36.975Y23.374
X35.574Y21.474
X33.974Y19.974
X32.775Y19.174
X31.174Y18.375
X28.174Y17.574
X26.374Y17.874
X24.874Y18.375
X23.274Y19.174
X21.374Y20.574
G0Z10
X6.774Y6.774
G1Z-14.1F500
X9.674Y4.174F1000
X12.374Y2.374
X15.974Y0.574
X19.675Y-0.625
X22.674Y-1.225
X26.574Y-1.525
X29.474
X33.374Y-1.225
X36.775Y-0.525
X40.074Y0.574
X43.674Y2.374
X46.374Y4.174
X47.474Y5.274
X47.674
X49.874Y7.374
Y7.574
X51.774Y9.574
X53.574Y12.274
X55.374Y15.874
X56.574Y19.575
X57.174Y22.574
X57.374Y24.974
Y31.074
X57.174Y33.475
X56.474Y36.874
X55.374Y40.174
X53.574Y43.775
X51.774Y46.474
X49.874Y48.474
Y48.674
X46.374Y51.874
X43.674Y53.675
X40.074Y55.474
X36.374Y56.674
X33.374Y57.274
X30.974Y57.474
X25.075
X22.674Y57.274
X19.274Y56.574
X15.974Y55.474
X12.374Y53.675
X9.674Y51.874
X8.574Y50.774
X8.374
X6.174Y48.674
Y48.474
X4.274Y46.474
X2.475Y43.775
X0.674Y40.174
X-0.425Y36.874
X-1.225Y32.575
X-1.425Y26.474
X-1.125Y22.574
X-0.425Y19.174
X0.674Y15.874
X2.475Y12.274
X4.274Y9.574
X6.774Y6.774
G0Z10
X21.374Y20.574
G1Z-14.1F500
X19.874Y22.174F1000
X19.074Y23.374
X18.274Y24.974
X17.475Y27.974
X18.274Y31.074
X19.074Y32.674
X20.474Y34.575
X22.074Y36.075
X23.274Y36.874
X24.874Y37.674
X27.874Y38.474
X29.674Y38.174
X31.174Y37.674
X32.775Y36.874
X34.674Y35.474
X36.174Y33.875
X36.975Y32.674
X37.774Y31.074
X38.474Y28.475
X38.574Y27.974
X38.275Y26.474
X37.774Y24.974
X36.975Y23.374
X35.574Y21.474
X33.974Y19.974
X32.775Y19.174
X31.174Y18.375
X28.174Y17.574
X26.374Y17.874
X24.874Y18.375
X23.274Y19.174
X21.374Y20.574
G0Z10
X6.774Y6.774
G1Z-15.1F500
X9.674Y4.174F1000
X12.374Y2.374
X15.974Y0.574
X19.675Y-0.625
X22.674Y-1.225
X26.574Y-1.525
X29.474
X33.374Y-1.225
X36.775Y-0.525
X40.074Y0.574
X43.674Y2.374
X46.374Y4.174
X47.474Y5.274
X47.674
X49.874Y7.374
Y7.574
X51.774Y9.574
X53.574Y12.274
X55.374Y15.874
X56.574Y19.575
X57.174Y22.574
X57.374Y24.974
Y31.074
X57.174Y33.475
X56.474Y36.874
X55.374Y40.174
X53.574Y43.775
X51.774Y46.474
X49.874Y48.474
Y48.674
X46.374Y51.874
X43.674Y53.675
X40.074Y55.474
X36.374Y56.674
X33.374Y57.274
X30.974Y57.474
X25.075
X22.674Y57.274
X19.274Y56.574
X15.974Y55.474
X12.374Y53.675
X9.674Y51.874
X8.574Y50.774
X8.374
X6.174Y48.674
Y48.474
X4.274Y46.474
X2.475Y43.775
X0.674Y40.174
X-0.425Y36.874
X-1.225Y32.575
X-1.425Y26.474
X-1.125Y22.574
X-0.425Y19.174
X0.674Y15.874
X2.475Y12.274
X4.274Y9.574
X6.774Y6.774
G0Z10
X21.374Y20.574
G1Z-15.1F500
X19.874Y22.174F1000
X19.074Y23.374
X18.274Y24.974
X17.475Y27.974
X18.274Y31.074
X19.074Y32.674
X20.474Y34.575
X22.074Y36.075
X23.274Y36.874
X24.874Y37.674
X27.874Y38.474
X29.674Y38.174
X31.174Y37.674
X32.775Y36.874
X34.674Y35.474
X36.174Y33.875
X36.975Y32.674
X37.774Y31.074
X38.474Y28.475
X38.574Y27.974
X38.275Y26.474
X37.774Y24.974
X36.975Y23.374
X35.574Y21.474
X33.974Y19.974
X32.775Y19.174
X31.174Y18.375
X28.174Y17.574
X26.374Y17.874
X24.874Y18.375
X23.274Y19.174
X21.374Y20.574
G0Z10
X6.774Y6.774
G1Z-16.1F500
X9.674Y4.174F1000
X12.374Y2.374
X15.974Y0.574
X19.675Y-0.625
X22.674Y-1.225
X26.574Y-1.525
X29.474
X33.374Y-1.225
X36.775Y-0.525
X40.074Y0.574
X43.674Y2.374
X46.374Y4.174
X47.474Y5.274
X47.674
X49.874Y7.374
Y7.574
X51.774Y9.574
X53.574Y12.274
X55.374Y15.874
X56.574Y19.575
X57.174Y22.574
X57.374Y24.974
Y31.074
X57.174Y33.475
X56.474Y36.874
X55.374Y40.174
X53.574Y43.775
X51.774Y46.474
X49.874Y48.474
Y48.674
X46.374Y51.874
X43.674Y53.675
X40.074Y55.474
X36.374Y56.674
X33.374Y57.274
X30.974Y57.474
X25.075
X22.674Y57.274
X19.274Y56.574
X15.974Y55.474
X12.374Y53.675
X9.674Y51.874
X8.574Y50.774
X8.374
X6.174Y48.674
Y48.474
X4.274Y46.474
X2.475Y43.775
X0.674Y40.174
X-0.425Y36.874
X-1.225Y32.575
X-1.425Y26.474
X-1.125Y22.574
X-0.425Y19.174
X0.674Y15.874
X2.475Y12.274
X4.274Y9.574
X6.774Y6.774
G0Z10
X21.374Y20.574
G1Z-16.1F500
X19.874Y22.174F1000
X19.074Y23.374
X18.274Y24.974
X17.475Y27.974
X18.274Y31.074
X19.074Y32.674
X20.474Y34.575
X22.074Y36.075
X23.274Y36.874
X24.874Y37.674
X27.874Y38.474
X29.674Y38.174
X31.174Y37.674
X32.775Y36.874
X34.674Y35.474
X36.174Y33.875
X36.975Y32.674
X37.774Y31.074
X38.474Y28.475
X38.574Y27.974
X38.275Y26.474
X37.774Y24.974
X36.975Y23.374
X35.574Y21.474
X33.974Y19.974
X32.775Y19.174
X31.174Y18.375
X28.174Y17.574
X26.374Y17.874
X24.874Y18.375
X23.274Y19.174
X21.374Y20.574
G0Z10
X6.774Y6.774
G1Z-17.1F500
X9.674Y4.174F1000
X12.374Y2.374
X15.974Y0.574
X19.675Y-0.625
X22.674Y-1.225
X26.574Y-1.525
X29.474
X33.374Y-1.225
X36.775Y-0.525
X40.074Y0.574
X43.674Y2.374
X46.374Y4.174
X47.474Y5.274
X47.674
X49.874Y7.374
Y7.574
X51.774Y9.574
X53.574Y12.274
X55.374Y15.874
X56.574Y19.575
X57.174Y22.574
X57.374Y24.974
Y31.074
X57.174Y33.475
X56.474Y36.874
X55.374Y40.174
X53.574Y43.775
X51.774Y46.474
X49.874Y48.474
Y48.674
X46.374Y51.874
X43.674Y53.675
X40.074Y55.474
X36.374Y56.674
X33.374Y57.274
X30.974Y57.474
X25.075
X22.674Y57.274
X19.274Y56.574
X15.974Y55.474
X12.374Y53.675
X9.674Y51.874
X8.574Y50.774
X8.374
X6.174Y48.674
Y48.474
X4.274Y46.474
X2.475Y43.775
X0.674Y40.174
X-0.425Y36.874
X-1.225Y32.575
X-1.425Y26.474
X-1.125Y22.574
X-0.425Y19.174
X0.674Y15.874
X2.475Y12.274
X4.274Y9.574
X6.774Y6.774
G0Z10
X21.374Y20.574
G1Z-17.1F500
X19.874Y22.174F1000
X19.074Y23.374
X18.274Y24.974
X17.475Y27.974
X18.274Y31.074
X19.074Y32.674
X20.474Y34.575
X22.074Y36.075
X23.274Y36.874
X24.874Y37.674
X27.874Y38.474
X29.674Y38.174
X31.174Y37.674
X32.775Y36.874
X34.674Y35.474
X36.174Y33.875
X36.975Y32.674
X37.774Y31.074
X38.474Y28.475
X38.574Y27.974
X38.275Y26.474
X37.774Y24.974
X36.975Y23.374
X35.574Y21.474
X33.974Y19.974
X32.775Y19.174
X31.174Y18.375
X28.174Y17.574
X26.374Y17.874
X24.874Y18.375
X23.274Y19.174
X21.374Y20.574
G0Z10
X6.774Y6.774
G1Z-18.099F500
X9.674Y4.174F1000
X12.374Y2.374
X15.974Y0.574
X19.675Y-0.625
X22.674Y-1.225
X26.574Y-1.525
X29.474
X33.374Y-1.225
X36.775Y-0.525
X40.074Y0.574
X43.674Y2.374
X46.374Y4.174
X47.474Y5.274
X47.674
X49.874Y7.374
Y7.574
X51.774Y9.574
X53.574Y12.274
X55.374Y15.874
X56.574Y19.575
X57.174Y22.574
X57.374Y24.974
Y31.074
X57.174Y33.475
X56.474Y36.874
X55.374Y40.174
X53.574Y43.775
X51.774Y46.474
X49.874Y48.474
Y48.674
X46.374Y51.874
X43.674Y53.675
X40.074Y55.474
X36.374Y56.674
X33.374Y57.274
X30.974Y57.474
X25.075
X22.674Y57.274
X19.274Y56.574
X15.974Y55.474
X12.374Y53.675
X9.674Y51.874
X8.574Y50.774
X8.374
X6.174Y48.674
Y48.474
X4.274Y46.474
X2.475Y43.775
X0.674Y40.174
X-0.425Y36.874
X-1.225Y32.575
X-1.425Y26.474
X-1.125Y22.574
X-0.425Y19.174
X0.674Y15.874
X2.475Y12.274
X4.274Y9.574
X6.774Y6.774
G0Z10
X21.374Y20.574
G1Z-18.099F500
X19.874Y22.174F1000
X19.074Y23.374
X18.274Y24.974
X17.475Y27.974
X18.274Y31.074
X19.074Y32.674
X20.474Y34.575
X22.074Y36.075
X23.274Y36.874
X24.874Y37.674
X27.874Y38.474
X29.674Y38.174
X31.174Y37.674
X32.775Y36.874
X34.674Y35.474
X36.174Y33.875
X36.975Y32.674
X37.774Y31.074
X38.474Y28.475
X38.574Y27.974
X38.275Y26.474
X37.774Y24.974
X36.975Y23.374
X35.574Y21.474
X33.974Y19.974
X32.775Y19.174
X31.174Y18.375
X28.174Y17.574
X26.374Y17.874
X24.874Y18.375
X23.274Y19.174
X21.374Y20.574
G0Z10
 
