(Created with grbl post processor 2026/03/16 16:00)
G21
(G-code Generated with Fabex and NC library)
(Rapids: 5000.0/min)
G17G90
S12000M03
G00 Z10.0 F5000.0

G0X0Y0Z10
X14.946Y12.927
G1Z-2.101F500
X15.052Y12.835F1000
X14.976Y12.91
X14.946Y12.927
G0Z10
X12.793Y40.95
G1Z-2.101F500
X12.901Y41.058F1000
X12.927Y41.103
X12.793Y40.95
X11.998Y41.559
X11.471Y40.957
X11.048Y40.311
X10.83Y39.976Z-2.103
X10.283Y39.139
X10.264Y39.067
X10.243Y38.995
X10.22Y38.923
X10.195Y38.852
X10.168Y38.781
X10.14Y38.712
X10.11Y38.642
X10.078Y38.574
X10.044Y38.506
X10.003Y38.429
X9.893Y38.229
X9.797Y38.054Z-2.102
X9.701Y37.879
X9.604Y37.704Z-2.101
X9.219Y37.003
X9.026Y36.652Z-2.1
X8.936Y36.393
X8.282Y34.503
X8.065Y33.346
X7.881Y32.363Z-2.101
X7.77Y31.773
X7.761Y31.187
X7.758Y30.987Z-2.1
X7.737Y29.587
X7.734Y29.387
X7.692Y26.588
X7.689Y26.388
X7.677Y25.588
X7.721Y25.1
X7.757Y24.702Z-2.101
X7.848Y23.706
X7.884Y23.524
X7.962Y23.132Z-2.1
X8.002Y22.936
X8.041Y22.74
X8.276Y21.563
X8.961Y19.586
X9.026Y19.397
X9.136Y19.197
X9.232Y19.022Z-2.101
X9.425Y18.672
X9.521Y18.496
X9.618Y18.321
X9.714Y18.146Z-2.102
X9.81Y17.971
X9.907Y17.795Z-2.103
X10.015Y17.598
X10.051Y17.53
X10.084Y17.462
X10.116Y17.392
X10.146Y17.322
X10.175Y17.251
X10.201Y17.18
X10.226Y17.107
X10.249Y17.034
X10.27Y16.961
X10.289Y16.887
X10.298Y16.848
X10.874Y15.984
X10.985Y15.817Z-2.101
X11.429Y15.152
X13.069Y13.42
X13.118Y13.366
X13.166Y13.31
X13.213Y13.253
X13.258Y13.196
X13.302Y13.137
X13.345Y13.077
X13.386Y13.016
X13.425Y12.954
X13.457Y12.901
X15.092Y11.471
X15.738Y11.048
X16.073Y10.83Z-2.103
X16.91Y10.283
X16.982Y10.264
X17.054Y10.243
X17.126Y10.22
X17.197Y10.195
X17.268Y10.168
X17.337Y10.14
X17.407Y10.11
X17.475Y10.078
X17.543Y10.044
X17.62Y10.003
X18.17Y9.701Z-2.102
X18.345Y9.604Z-2.101
X18.521Y9.508
X18.696Y9.412
X19.046Y9.219
X19.222Y9.122Z-2.1
X19.397Y9.026
X19.484Y8.996
X21.563Y8.276
X22.725Y8.044
X22.921Y8.005
X23.51Y7.887Z-2.101
X23.706Y7.848
X24.814Y7.747
X25.013Y7.729Z-2.1
X25.611Y7.675
X26.438
X29.438
X29.638
X30.438
X30.949Y7.721
X31.148Y7.739Z-2.101
X32.343Y7.848
X32.917Y7.962Z-2.1
X33.113Y8.002
X33.309Y8.041
X34.486Y8.276
X36.463Y8.961
X36.652Y9.026
X37.202Y9.328Z-2.101
X37.903Y9.714Z-2.102
X38.078Y9.81
X38.254Y9.907Z-2.103
X38.451Y10.015
X38.519Y10.051
X38.587Y10.084
X38.657Y10.116
X38.727Y10.146
X38.798Y10.175
X38.869Y10.201
X38.942Y10.226
X39.015Y10.249
X39.088Y10.27
X39.162Y10.289
X39.201Y10.298
X40.115Y10.907Z-2.102
X40.281Y11.018Z-2.101
X40.947Y11.462
X42.592Y12.901
X42.631Y12.964
X42.67Y13.026
X42.711Y13.087
X42.754Y13.147
X42.798Y13.205
X42.844Y13.263
X42.89Y13.319
X42.939Y13.375
X42.997Y13.438
X44.62Y15.152
X44.927Y15.612
X45.038Y15.778
X45.149Y15.945Z-2.103
X45.926Y17.109
X46.175Y17.691
X46.569Y18.61Z-2.101
X46.647Y18.794
X46.884Y19.345Z-2.1
X46.963Y19.529
X47.514Y20.816
X47.977Y22.783
X48.069Y23.172Z-2.101
X48.114Y23.367
X48.16Y23.562
X48.206Y23.756
X48.302Y24.814
X48.32Y25.013Z-2.1
X48.374Y25.611
Y26.355
Y26.555
Y29.355
Y30.155
X48.31Y30.964
X48.294Y31.163Z-2.101
X48.198Y32.359
X48.087Y32.917Z-2.1
X48.047Y33.113
X48.008Y33.309
X47.773Y34.486
X47.088Y36.463
X47.023Y36.652
X46.721Y37.202Z-2.101
X46.335Y37.903Z-2.102
X46.239Y38.078
X46.142Y38.254Z-2.103
X46.034Y38.451
X45.998Y38.519
X45.965Y38.587
X45.933Y38.657
X45.903Y38.727
X45.874Y38.798
X45.848Y38.869
X45.823Y38.942
X45.8Y39.015
X45.779Y39.088
X45.76Y39.162
X45.751Y39.201
X45.142Y40.115
X45.031Y40.281Z-2.101
X44.92Y40.448
X44.587Y40.947
X43.148Y42.592
X43.085Y42.631
X43.023Y42.67
X42.962Y42.711
X42.902Y42.754
X42.844Y42.798
X42.786Y42.844
X42.73Y42.89
X42.674Y42.939
X42.611Y42.997
X40.897Y44.62
X40.437Y44.927
X40.271Y45.038
X40.104Y45.149Z-2.103
X38.94Y45.926
X38.174Y46.254Z-2.102
X37.99Y46.332
X37.807Y46.411
X37.623Y46.49Z-2.101
X37.439Y46.569
X37.255Y46.647
X36.887Y46.805
X36.52Y46.963Z-2.1
X35.233Y47.514
X33.266Y47.977
X33.072Y48.023
X32.487Y48.16Z-2.101
X32.293Y48.206
X31.235Y48.302
X31.036Y48.32Z-2.1
X30.438Y48.374
X29.694
X29.494
X26.494
X26.294
X25.894
X25.136Y48.314
X24.937Y48.298Z-2.101
X24.737Y48.282
X23.74Y48.202
X23.542Y48.155
X22.763Y47.972Z-2.1
X20.816Y47.514
X19.499Y46.95
X19.132Y46.792Z-2.101
X18.764Y46.635
X18.58Y46.556
X18.396Y46.477
X18.212Y46.398Z-2.102
X17.109Y45.926Z-2.103
X15.984Y45.175
X15.817Y45.064Z-2.102
X15.651Y44.953Z-2.101
X15.152Y44.62
X13.42Y42.98
X13.366Y42.931
X13.31Y42.883
X13.253Y42.836
X13.196Y42.791
X13.137Y42.747
X13.077Y42.704
X13.016Y42.663
X12.954Y42.624
X12.901Y42.592
X11.998Y41.559
X13.427Y40.17
X13.71Y40.452
X13.741Y40.512
X13.777Y40.576
X13.815Y40.639
X13.854Y40.702
X13.895Y40.763
X13.937Y40.823
X13.981Y40.883
X14.026Y40.941
X14.073Y40.998
X14.121Y41.054
X14.17Y41.109
X14.22Y41.163
X14.272Y41.215
X14.326Y41.266
X14.385Y41.321
X16.48Y43.215
X16.536Y43.264
X16.593Y43.311
X16.651Y43.356
X16.71Y43.4
X16.77Y43.443
X16.81Y43.471
X17.113Y43.672Z-2.103
X18.111Y44.338
X18.631Y44.684Z-2.101
X18.694Y44.724
X18.758Y44.763
X18.823Y44.8
X18.889Y44.835
X18.933Y44.858
X19.723Y45.253Z-2.1
X21.354Y46.068
X21.418Y46.099
X21.483Y46.128
X21.548Y46.155
X21.614Y46.181
X21.681Y46.205
X21.739Y46.225
X22.687Y46.541
X23.636Y46.857Z-2.101
X23.848Y46.928
X23.914Y46.948
X23.981Y46.967
X24.048Y46.985
X24.115Y47.001
X24.183Y47.016
X24.228Y47.024
X24.765Y47.124
X24.962Y47.16Z-2.1
X26.338Y47.415
X26.535Y47.452
X26.954Y47.529
X27.031Y47.542
X27.109Y47.552
X27.187Y47.561
X27.265Y47.567
X27.344Y47.572
X27.422Y47.574
X27.474
X28.601
X28.679Y47.573
X28.757Y47.569
X28.836Y47.563
X28.914Y47.555
X28.992Y47.545
X29.069Y47.533
X29.121Y47.524
X29.461Y47.461
X29.658Y47.425
X31.034Y47.17
X31.231Y47.134Z-2.101
X31.843Y47.02
X31.911Y47.006
X31.979Y46.991
X32.046Y46.974
X32.113Y46.955
X32.179Y46.935
X32.236Y46.916
X32.426Y46.853
X32.616Y46.79
X32.805Y46.727
X33.185Y46.6Z-2.1
X34.346Y46.213
X34.412Y46.189
X34.479Y46.164
X34.544Y46.137
X34.609Y46.109
X34.674Y46.079
X34.716Y46.058
X36.401Y45.216
X37.138Y44.847Z-2.101
X37.204Y44.812
X37.269Y44.775
X37.334Y44.737
X37.397Y44.698
X37.439Y44.671Z-2.102
X37.907Y44.358Z-2.103
X38.906Y43.693
X39.072Y43.582Z-2.101
X39.259Y43.457
X39.32Y43.415
X39.379Y43.371
X39.438Y43.325
X39.495Y43.279
X39.552Y43.231
X39.607Y43.181
X39.661Y43.13
X39.694Y43.098
X40.461Y42.335
X40.512Y42.308
X40.576Y42.272
X40.639Y42.234
X40.702Y42.195
X40.763Y42.154
X40.823Y42.112
X40.883Y42.068
X40.941Y42.023
X40.998Y41.976
X41.054Y41.928
X41.109Y41.879
X41.163Y41.829
X41.215Y41.777
X41.266Y41.723
X41.321Y41.664
X43.215Y39.569
X43.264Y39.513
X43.311Y39.456
X43.356Y39.398
X43.4Y39.339
X43.443Y39.279
X43.471Y39.239
X43.561Y39.103
X43.672Y38.936Z-2.103
X44.338Y37.938
X44.684Y37.418Z-2.101
X44.724Y37.355
X44.763Y37.291
X44.8Y37.226
X44.835Y37.16
X44.858Y37.116
X45.253Y36.326Z-2.1
X46.068Y34.695
X46.099Y34.631
X46.128Y34.566
X46.155Y34.501
X46.181Y34.435
X46.205Y34.368
X46.225Y34.31
X46.604Y33.172
X46.731Y32.792Z-2.101
X46.794Y32.603
X46.857Y32.413
X46.928Y32.2
X46.95Y32.131
X46.969Y32.061
X46.988Y31.991
X47.004Y31.92
X47.019Y31.849
X47.028Y31.802
X47.141Y31.168
X47.176Y30.971Z-2.1
X47.422Y29.593
X47.457Y29.396
X47.532Y28.977
X47.544Y28.902
X47.554Y28.827
X47.562Y28.752
X47.568Y28.676
X47.572Y28.601
X47.574Y28.525
Y28.475
Y27.448
X47.573Y27.37
X47.569Y27.292
X47.563Y27.213
X47.555Y27.135
X47.545Y27.057
X47.533Y26.98
X47.524Y26.928
X47.461Y26.588
X47.425Y26.391
X47.17Y25.015
X47.134Y24.818Z-2.101
X47.02Y24.206
X47.006Y24.138
X46.991Y24.07
X46.974Y24.003
X46.955Y23.936
X46.935Y23.87
X46.916Y23.813
X46.727Y23.244
X46.537Y22.675Z-2.1
X46.213Y21.703
X46.189Y21.637
X46.164Y21.57
X46.137Y21.505
X46.109Y21.44
X46.079Y21.375
X46.058Y21.333
X45.216Y19.648
X44.847Y18.911Z-2.101
X44.812Y18.845
X44.775Y18.78
X44.737Y18.715
X44.698Y18.652
X44.671Y18.61Z-2.102
X44.358Y18.142Z-2.103
X43.693Y17.143
X43.582Y16.977Z-2.102
X43.457Y16.79Z-2.101
X43.415Y16.729
X43.371Y16.67
X43.325Y16.611
X43.279Y16.554
X43.231Y16.497
X43.181Y16.442
X43.13Y16.388
X43.098Y16.355
X42.335Y15.588
X42.308Y15.537
X42.272Y15.473
X42.234Y15.41
X42.195Y15.347
X42.154Y15.286
X42.112Y15.226
X42.068Y15.166
X42.023Y15.108
X41.976Y15.051
X41.928Y14.995
X41.879Y14.94
X41.829Y14.886
X41.777Y14.834
X41.723Y14.783
X41.664Y14.728
X39.569Y12.834
X39.513Y12.785
X39.456Y12.738
X39.398Y12.693
X39.339Y12.649
X39.279Y12.606
X39.239Y12.578
X39.103Y12.488
X38.936Y12.377Z-2.103
X37.771Y11.6
X37.605Y11.489Z-2.102
X37.418Y11.365
X37.355Y11.325
X37.291Y11.286Z-2.101
X37.226Y11.249
X37.16Y11.214
X37.116Y11.191
X36.326Y10.796Z-2.1
X34.695Y9.981
X34.631Y9.95
X34.566Y9.921
X34.501Y9.894
X34.435Y9.868
X34.368Y9.844
X34.31Y9.824
X33.172Y9.445
X32.792Y9.318Z-2.101
X32.603Y9.255
X32.413Y9.192
X32.201Y9.121
X32.135Y9.101
X32.068Y9.082
X32.001Y9.064
X31.934Y9.048
X31.866Y9.033
X31.821Y9.025
X31.284Y8.925
X30.891Y8.852Z-2.1
X29.711Y8.634
X29.514Y8.597
X29.095Y8.52
X29.018Y8.507
X28.94Y8.497
X28.862Y8.488
X28.784Y8.482
X28.705Y8.477
X28.627Y8.475
X28.574Y8.474
X27.448Y8.475
X27.37Y8.476
X27.292Y8.48
X27.213Y8.486
X27.135Y8.494
X27.057Y8.504
X26.98Y8.516
X26.928Y8.525
X26.588Y8.588
X26.391Y8.624
X25.015Y8.879
X24.818Y8.915Z-2.101
X24.206Y9.029
X24.138Y9.043
X24.07Y9.058
X24.003Y9.075
X23.936Y9.094
X23.87Y9.114
X23.813Y9.133
X23.244Y9.322
X22.674Y9.512Z-2.1
X21.703Y9.836
X21.637Y9.86
X21.57Y9.885
X21.505Y9.912
X21.44Y9.94
X21.375Y9.97
X21.333Y9.991
X19.648Y10.833
X19.291Y11.012Z-2.101
X19.112Y11.102
X18.911Y11.202
X18.845Y11.237
X18.78Y11.274
X18.715Y11.312
X18.652Y11.351Z-2.102
X18.61Y11.378
X17.143Y12.356Z-2.103
X16.977Y12.467Z-2.102
X16.79Y12.592Z-2.101
X16.729Y12.634
X16.67Y12.678
X16.611Y12.724
X16.554Y12.77
X16.497Y12.818
X16.442Y12.868
X16.388Y12.919
X16.355Y12.951
X15.588Y13.714
X15.537Y13.741
X15.473Y13.777
X15.41Y13.815
X15.347Y13.854
X15.286Y13.895
X15.226Y13.937
X15.166Y13.981
X15.108Y14.026
X15.051Y14.073
X14.995Y14.121
X14.94Y14.17
X14.886Y14.22
X14.834Y14.272
X14.783Y14.326
X14.728Y14.385
X12.834Y16.48
X12.785Y16.536
X12.738Y16.593
X12.693Y16.651
X12.649Y16.71
X12.606Y16.77
X12.578Y16.81
X12.377Y17.113Z-2.103
X11.6Y18.278
X11.489Y18.444Z-2.102
X11.365Y18.631
X11.325Y18.694
X11.286Y18.758Z-2.101
X11.249Y18.823
X11.214Y18.889
X11.191Y18.933
X10.796Y19.723Z-2.1
X9.981Y21.354
X9.95Y21.418
X9.921Y21.483
X9.894Y21.548
X9.868Y21.614
X9.844Y21.681
X9.824Y21.739
X9.508Y22.687
X9.192Y23.636Z-2.101
X9.121Y23.848
X9.101Y23.914
X9.082Y23.981
X9.064Y24.048
X9.048Y24.115
X9.033Y24.183
X9.025Y24.228
X8.925Y24.765
X8.889Y24.962Z-2.1
X8.634Y26.338
X8.597Y26.535
X8.52Y26.954
X8.507Y27.031
X8.497Y27.109
X8.488Y27.187
X8.482Y27.265
X8.477Y27.344
X8.475Y27.422
X8.474Y27.474
X8.475Y28.601
X8.476Y28.679
X8.48Y28.757
X8.486Y28.836
X8.494Y28.914
X8.504Y28.992
X8.516Y29.069
X8.525Y29.121
X8.588Y29.461
X8.624Y29.658
X8.879Y31.034
X8.915Y31.231Z-2.101
X9.029Y31.843
X9.043Y31.911
X9.058Y31.979
X9.075Y32.046
X9.094Y32.113
X9.114Y32.179
X9.133Y32.236
X9.196Y32.426
X9.259Y32.616
X9.322Y32.805
X9.449Y33.185Z-2.1
X9.836Y34.346
X9.86Y34.412
X9.885Y34.479
X9.912Y34.544
X9.94Y34.609
X9.97Y34.674
X9.991Y34.716
X10.833Y36.401
X11.012Y36.758Z-2.101
X11.102Y36.937
X11.202Y37.138
X11.237Y37.204
X11.274Y37.269
X11.312Y37.334
X11.351Y37.397Z-2.102
X11.378Y37.439
X12.356Y38.906Z-2.103
X12.467Y39.072Z-2.101
X12.592Y39.259
X12.634Y39.32
X12.678Y39.379
X12.724Y39.438
X12.77Y39.495
X12.818Y39.552
X12.868Y39.607
X12.919Y39.661
X12.953Y39.696
X13.427Y40.17
X14.114Y39.442
X14.255Y39.584Z-2.105
X14.397Y39.725
X14.538Y39.867Z-2.102
X14.551Y39.897Z-2.101
X14.572Y39.942
X14.594Y39.986
X14.617Y40.029
X14.641Y40.072
X14.666Y40.114
X14.692Y40.156
X14.719Y40.197
X14.747Y40.237
X14.776Y40.277
X14.806Y40.316
X14.837Y40.354Z-2.102
X14.869Y40.391
X14.902Y40.428Z-2.103
X14.936Y40.464Z-2.104
X14.97Y40.498Z-2.105
X15.006Y40.533
X15.056Y40.579Z-2.104
X15.205Y40.713
X15.353Y40.847
X15.501Y40.982Z-2.106
X15.65Y41.116Z-2.103
X15.798Y41.25Z-2.101
X16.095Y41.518
X16.243Y41.652Z-2.104
X16.391Y41.787Z-2.103
X16.539Y41.921Z-2.101
X16.836Y42.189
X16.984Y42.323Z-2.103
X17.142Y42.466
X17.179Y42.498
X17.217Y42.529
X17.255Y42.56
X17.295Y42.589
X17.335Y42.618
X17.365Y42.639
X19.175Y43.845
X19.217Y43.872
X19.26Y43.898
X19.303Y43.923
X19.347Y43.946
X19.38Y43.963Z-2.104
X19.455Y44.001
X19.633Y44.09Z-2.103
X21.065Y44.806Z-2.101
X21.243Y44.895
X21.422Y44.984
X21.791Y45.169Z-2.1
X21.833Y45.189
X21.876Y45.208
X21.92Y45.227
X21.964Y45.244
X22.009Y45.26
X22.055Y45.276
X22.814Y45.529
X23.193Y45.656Z-2.101
X23.383Y45.719
X23.573Y45.782
X24.153Y45.975
X24.197Y45.989
X24.242Y46.002
X24.286Y46.014
X24.331Y46.025
X24.376Y46.034
X24.41Y46.041
X25.734Y46.286
X26.914Y46.505Z-2.1
X27.123Y46.543
X27.175Y46.552
X27.227Y46.559
X27.279Y46.565
X27.331Y46.569
X27.383Y46.572
X27.435Y46.574
X27.474
X28.588
X28.64Y46.573
X28.692Y46.571
X28.744Y46.567
X28.796Y46.562
X28.848Y46.556
X28.9Y46.548
X28.939Y46.541
X30.262Y46.296Z-2.101
X31.65Y46.039
X31.695Y46.03
X31.74Y46.019
X31.785Y46.008
X31.83Y45.996
X31.874Y45.983
X31.92Y45.968
X32.489Y45.778
X32.869Y45.651Z-2.1
X33.058Y45.588
X33.248Y45.525
X34.018Y45.268
X34.063Y45.252
X34.107Y45.236
X34.151Y45.218
X34.194Y45.199
X34.237Y45.179
X34.269Y45.163
X35.417Y44.589Z-2.102
X35.596Y44.5
X35.774Y44.411Z-2.103
X36.49Y44.053
X36.68Y43.958
X36.724Y43.935
X36.768Y43.91
X36.81Y43.885
X36.853Y43.859
X36.884Y43.839
X38.185Y42.971
X38.694Y42.632
X38.735Y42.604
X38.775Y42.574
X38.814Y42.544
X38.852Y42.513
X38.89Y42.481
X38.926Y42.448
X38.962Y42.415
X38.989Y42.389
X39.159Y42.218Z-2.101
X39.442Y41.935
X39.584Y41.794Z-2.103
X39.725Y41.652Z-2.105
X39.867Y41.511Z-2.102
X39.897Y41.498Z-2.101
X39.942Y41.477
X39.986Y41.455
X40.029Y41.432
X40.072Y41.408
X40.114Y41.383
X40.156Y41.357
X40.197Y41.33
X40.237Y41.302
X40.277Y41.273
X40.316Y41.243
X40.354Y41.212
X40.373Y41.196
X40.41Y41.164Z-2.102
X40.446Y41.13
X40.481Y41.096Z-2.103
X40.516Y41.061Z-2.104
X40.558Y41.016
X40.713Y40.844
X40.847Y40.696
X40.982Y40.548Z-2.105
X41.25Y40.251Z-2.101
X41.518Y39.954
X41.652Y39.806Z-2.103
X41.787Y39.658
X41.921Y39.51Z-2.101
X42.189Y39.213
X42.323Y39.065Z-2.102
X42.466Y38.907Z-2.103
X42.498Y38.87
X42.529Y38.832
X42.56Y38.794
X42.589Y38.754
X42.618Y38.714
X42.639Y38.684
X43.845Y36.874
X43.872Y36.832
X43.898Y36.789
X43.923Y36.746
X43.946Y36.702
X43.963Y36.669
X44.001Y36.594Z-2.104
X44.09Y36.416Z-2.103
X44.806Y34.984Z-2.101
X44.895Y34.806
X44.984Y34.627
X45.169Y34.258Z-2.1
X45.189Y34.216
X45.208Y34.173
X45.227Y34.129
X45.244Y34.085
X45.26Y34.04
X45.276Y33.994
X45.529Y33.235
X45.782Y32.476Z-2.101
X45.976Y31.895
X45.99Y31.849
X46.003Y31.803
X46.016Y31.756
X46.027Y31.709
X46.037Y31.662
X46.043Y31.626
X46.297Y30.204
X46.508Y29.023Z-2.1
X46.545Y28.814
X46.553Y28.764
X46.56Y28.714
X46.566Y28.664
X46.57Y28.613
X46.573Y28.563
X46.574Y28.512
Y28.475
Y27.461
X46.573Y27.409
X46.571Y27.357
X46.567Y27.305
X46.562Y27.253
X46.556Y27.201
X46.548Y27.149
X46.541Y27.11
X46.296Y25.787Z-2.101
X46.039Y24.399
X46.03Y24.354
X46.019Y24.309
X46.008Y24.264
X45.996Y24.219
X45.983Y24.175
X45.968Y24.129
X45.778Y23.56
X45.715Y23.37
X45.525Y22.801Z-2.1
X45.268Y22.031
X45.252Y21.986
X45.236Y21.942
X45.218Y21.898
X45.199Y21.855
X45.179Y21.812
X45.163Y21.78
X44.589Y20.632Z-2.102
X44.5Y20.453
X44.411Y20.274Z-2.103
X43.958Y19.369
X43.935Y19.325
X43.91Y19.281
X43.885Y19.239
X43.859Y19.196
X43.839Y19.165
X42.971Y17.864
X42.632Y17.355
X42.604Y17.314
X42.574Y17.274
X42.544Y17.235
X42.513Y17.197
X42.481Y17.159
X42.448Y17.123
X42.415Y17.087
X42.389Y17.06
X42.359Y17.031
X42.218Y16.89Z-2.101
X41.935Y16.607
X41.652Y16.324Z-2.106
X41.511Y16.182Z-2.103
X41.498Y16.152Z-2.102
X41.477Y16.107Z-2.101
X41.455Y16.063
X41.432Y16.02
X41.408Y15.977
X41.383Y15.935
X41.357Y15.893
X41.33Y15.852
X41.302Y15.812
X41.273Y15.772
X41.243Y15.733
X41.212Y15.695
X41.196Y15.676
X41.164Y15.639Z-2.102
X41.13Y15.603
X41.096Y15.568Z-2.103
X41.061Y15.533Z-2.104
X41.016Y15.491Z-2.105
X40.844Y15.336Z-2.104
X40.696Y15.202
X40.548Y15.067Z-2.105
X40.399Y14.933Z-2.104
X40.251Y14.799Z-2.101
X39.954Y14.531
X39.806Y14.397Z-2.103
X39.658Y14.262Z-2.105
X39.51Y14.128Z-2.101
X39.361Y13.994
X39.213Y13.86
X39.065Y13.726Z-2.102
X38.907Y13.583Z-2.103
X38.87Y13.551
X38.832Y13.52
X38.794Y13.489
X38.754Y13.46
X38.714Y13.431
X38.684Y13.41
X38.382Y13.209
X38.215Y13.098
X36.874Y12.204
X36.832Y12.177
X36.789Y12.151
X36.746Y12.126
X36.702Y12.103
X36.669Y12.086
X36.594Y12.048Z-2.104
X36.237Y11.87Z-2.103
X35.7Y11.601
X35.521Y11.512Z-2.102
X34.448Y10.975Z-2.101
X34.258Y10.88Z-2.1
X34.216Y10.86
X34.173Y10.841
X34.129Y10.822
X34.085Y10.805
X34.04Y10.789
X33.994Y10.773
X33.235Y10.52
X32.476Y10.267Z-2.101
X32.097Y10.14Z-2.102
X31.896Y10.074Z-2.101
X31.852Y10.06
X31.807Y10.047
X31.763Y10.035
X31.718Y10.024
X31.673Y10.015
X31.639Y10.008
X29.725Y9.654
X28.926Y9.506Z-2.1
X28.874Y9.497
X28.822Y9.49
X28.77Y9.484
X28.718Y9.48
X28.666Y9.477
X28.614Y9.475
X28.574Y9.474
X27.461Y9.475
X27.409Y9.476
X27.357Y9.478
X27.305Y9.482
X27.253Y9.487
X27.201Y9.493
X27.149Y9.501
X27.11Y9.508
X26.574Y9.607
X26.377Y9.644Z-2.101
X24.399Y10.01
X24.354Y10.019
X24.309Y10.03
X24.264Y10.041
X24.219Y10.053
X24.175Y10.066
X24.129Y10.081
X23.75Y10.208Z-2.102
X23.37Y10.334Z-2.101
X22.801Y10.524Z-2.1
X22.031Y10.781
X21.986Y10.797
X21.942Y10.813
X21.898Y10.831
X21.855Y10.85
X21.812Y10.87
X21.78Y10.886
X21.527Y11.012Z-2.101
X21.348Y11.102
X21.169Y11.191
X19.738Y11.907Z-2.103
X19.369Y12.091Z-2.104
X19.325Y12.114Z-2.103
X19.303Y12.126
X19.26Y12.151
X19.217Y12.177
X19.165Y12.21
X17.864Y13.078
X17.698Y13.189
X17.355Y13.417
X17.314Y13.445
X17.274Y13.475
X17.235Y13.505
X17.197Y13.536
X17.159Y13.568
X17.123Y13.601
X17.087Y13.634Z-2.104
X17.06Y13.66
X17.031Y13.69
X16.89Y13.831Z-2.101
X16.607Y14.114
X16.465Y14.255Z-2.105
X16.324Y14.397Z-2.106
X16.182Y14.538Z-2.103
X16.152Y14.551Z-2.102
X16.107Y14.572Z-2.101
X16.063Y14.594
X16.02Y14.617
X15.977Y14.641
X15.935Y14.666
X15.893Y14.692
X15.852Y14.719
X15.812Y14.747
X15.772Y14.776
X15.733Y14.806
X15.695Y14.837Z-2.102
X15.658Y14.869
X15.621Y14.902Z-2.103
X15.585Y14.936Z-2.104
X15.551Y14.97Z-2.105
X15.516Y15.006Z-2.106
X15.491Y15.033
X15.336Y15.205Z-2.104
X15.202Y15.353
X15.067Y15.501Z-2.106
X14.933Y15.65Z-2.104
X14.799Y15.798Z-2.101
X14.531Y16.095
X14.397Y16.243Z-2.104
X14.262Y16.391Z-2.105
X14.128Y16.539Z-2.101
X13.994Y16.688
X13.86Y16.836
X13.726Y16.984Z-2.103
X13.583Y17.142
X13.551Y17.179
X13.52Y17.217
X13.489Y17.255
X13.46Y17.295
X13.431Y17.335
X13.41Y17.365
X13.209Y17.667
X13.098Y17.834
X12.204Y19.175
X12.177Y19.217
X12.151Y19.26
X12.126Y19.303
X12.103Y19.347
X12.086Y19.38Z-2.104
X12.048Y19.455
X11.87Y19.812Z-2.103
X11.601Y20.349
X11.512Y20.528Z-2.102
X10.975Y21.601Z-2.101
X10.88Y21.791Z-2.1
X10.86Y21.833
X10.841Y21.876
X10.822Y21.92
X10.805Y21.964
X10.789Y22.009
X10.773Y22.055
X10.52Y22.814
X10.393Y23.193Z-2.101
X10.33Y23.383
X10.204Y23.763Z-2.102
X10.074Y24.153Z-2.101
X10.06Y24.197
X10.047Y24.242
X10.035Y24.286
X10.024Y24.331
X10.015Y24.376
X10.008Y24.41
X9.654Y26.324
X9.581Y26.717Z-2.1
X9.506Y27.123
X9.497Y27.175
X9.49Y27.227
X9.484Y27.279
X9.48Y27.331
X9.477Y27.383
X9.475Y27.435
X9.474Y27.474
X9.475Y28.588
X9.476Y28.64
X9.478Y28.692
X9.482Y28.744
X9.487Y28.796
X9.493Y28.848
X9.501Y28.9
X9.508Y28.939
X9.607Y29.475
X9.644Y29.672Z-2.101
X10.01Y31.65
X10.019Y31.695
X10.03Y31.74
X10.041Y31.785
X10.053Y31.83
X10.066Y31.874
X10.081Y31.92
X10.145Y32.11Z-2.102
X10.271Y32.489Z-2.101
X10.398Y32.869Z-2.1
X10.461Y33.058
X10.524Y33.248
X10.781Y34.018
X10.797Y34.063
X10.813Y34.107
X10.831Y34.151
X10.85Y34.194
X10.87Y34.237
X10.886Y34.269
X11.012Y34.522Z-2.101
X11.102Y34.701
X11.191Y34.88
X11.907Y36.311Z-2.103
X11.996Y36.49Z-2.104
X12.091Y36.68Z-2.103
X12.103Y36.702
X12.126Y36.746
X12.151Y36.789
X12.177Y36.832
X12.21Y36.884
X13.078Y38.185
X13.189Y38.351
X13.417Y38.694
X13.445Y38.735
X13.475Y38.775
X13.505Y38.814
X13.536Y38.852
X13.568Y38.89
X13.601Y38.926
X13.634Y38.962
X13.66Y38.989
X13.831Y39.159Z-2.101
X14.114Y39.442
G0Z10
X11.067Y42.015
G1Z-2.101F500
X10.935Y41.864Z-2.102F1000
X10.804Y41.714Z-2.105
X10.672Y41.563Z-2.103
X10.329Y41.038
X10.22Y40.871
X9.345Y39.531
X9.337Y39.487
X9.326Y39.438
X9.315Y39.389
X9.302Y39.341
X9.288Y39.292
X9.273Y39.244
X9.256Y39.197
X9.239Y39.15Z-2.104
X9.22Y39.103
X9.2Y39.057
X9.179Y39.011
X9.156Y38.966
X9.127Y38.911Z-2.103
X8.976Y38.637
X8.88Y38.462
X8.784Y38.286
X8.687Y38.111Z-2.102
X8.302Y37.41Z-2.101
X8.205Y37.235
X8.109Y37.06
X7.967Y36.65Z-2.1
X7.902Y36.461
X7.705Y35.894
X7.313Y34.76Z-2.102
X7.251Y34.429
X7.214Y34.233Z-2.101
X6.772Y31.874Z-2.102
X6.764Y31.349
X6.761Y31.149Z-2.101
X6.758Y30.949Z-2.1
X6.74Y29.75
X6.691Y26.55
X6.688Y26.35
X6.676Y25.55
X6.73Y24.956
X6.748Y24.757Z-2.102
X6.857Y23.562Z-2.101
X7.231Y21.692
X7.27Y21.496Z-2.102
X7.309Y21.3
X7.716Y20.123Z-2.1
X7.913Y19.556
X7.978Y19.367
X8.109Y18.989Z-2.101
X8.259Y18.716
X8.356Y18.54
X8.452Y18.365
X8.549Y18.19Z-2.102
X8.934Y17.489Z-2.103
X9.031Y17.314
X9.133Y17.127
X9.157Y17.082
X9.179Y17.036Z-2.104
X9.201Y16.99
X9.221Y16.943
X9.24Y16.896Z-2.103
X9.257Y16.849
X9.274Y16.8
X9.289Y16.752
X9.303Y16.703
X9.316Y16.654
X9.328Y16.604
X9.336Y16.567
X9.358Y16.455
X10.2Y15.192
X10.644Y14.526
X10.676Y14.492
X10.813Y14.347Z-2.104
X10.951Y14.202Z-2.102
X11.088Y14.057Z-2.101
X11.226Y13.912
X11.364Y13.766Z-2.102
X11.501Y13.621Z-2.105
X11.639Y13.476Z-2.102
X11.776Y13.331Z-2.101
X12.051Y13.04
X12.189Y12.895Z-2.103
X12.335Y12.741Z-2.104
X12.368Y12.705
X12.4Y12.668
X12.431Y12.63
X12.461Y12.592
X12.491Y12.553
X12.519Y12.513
X12.546Y12.472
X12.573Y12.431
X12.598Y12.389
X12.622Y12.347
X12.646Y12.304
X12.665Y12.265Z-2.105
X12.68Y12.252
X12.83Y12.121
X12.981Y11.989Z-2.101
X13.131Y11.857
X13.282Y11.726
X13.583Y11.462Z-2.106
X13.733Y11.33Z-2.102
X13.884Y11.199Z-2.101
X14.034Y11.067
X14.185Y10.935Z-2.102
X14.335Y10.804Z-2.105
X14.486Y10.672Z-2.103
X15.011Y10.329
X15.178Y10.22
X16.518Y9.345
X16.562Y9.337
X16.611Y9.326
X16.66Y9.315
X16.708Y9.302
X16.757Y9.288
X16.805Y9.273
X16.852Y9.256
X16.899Y9.239
X16.946Y9.22Z-2.104
X16.992Y9.2
X17.038Y9.179
X17.083Y9.156Z-2.103
X17.138Y9.127
X17.412Y8.976
X17.587Y8.88
X17.763Y8.784
X17.938Y8.687Z-2.102
X18.113Y8.591
X18.288Y8.494Z-2.101
X18.989Y8.109
X19.221Y8.029Z-2.1
X19.41Y7.963
X19.599Y7.898
X20.166Y7.702
X21.3Y7.309Z-2.102
X21.601Y7.249
X21.797Y7.21Z-2.101
X23.562Y6.857
X24.769Y6.747Z-2.102
X24.968Y6.729Z-2.1
X25.565Y6.675
X26.284
X26.484
X29.484
X29.684
X30.484
X30.894Y6.712
X31.292Y6.748Z-2.102
X32.487Y6.857Z-2.101
X34.16Y7.191
X34.553Y7.27Z-2.102
X34.749Y7.309
X35.926Y7.716Z-2.1
X36.493Y7.913
X36.871Y8.043Z-2.101
X37.06Y8.109
X37.684Y8.452
X37.859Y8.549Z-2.102
X38.034Y8.645
X38.21Y8.741Z-2.103
X38.922Y9.133
X38.967Y9.157Z-2.104
X39.013Y9.179
X39.059Y9.201
X39.106Y9.221
X39.153Y9.24Z-2.103
X39.2Y9.257
X39.249Y9.274
X39.297Y9.289
X39.346Y9.303
X39.395Y9.316
X39.445Y9.328
X39.482Y9.336
X39.594Y9.358
X40.058Y9.667
X40.89Y10.222
X41.057Y10.333
X41.556Y10.666
X41.578Y10.685
X41.728Y10.817Z-2.105
X41.879Y10.948Z-2.102
X42.029Y11.08Z-2.101
X42.18Y11.212
X42.33Y11.343Z-2.104
X42.481Y11.475Z-2.107
X42.631Y11.607Z-2.103
X42.782Y11.738Z-2.101
X42.932Y11.87
X43.083Y12.002Z-2.103
X43.233Y12.134Z-2.106
X43.384Y12.265Z-2.105
X43.403Y12.304Z-2.104
X43.427Y12.347
X43.451Y12.389
X43.476Y12.431
X43.503Y12.472
X43.53Y12.513
X43.558Y12.553
X43.588Y12.592
X43.618Y12.63
X43.649Y12.668
X43.681Y12.705
X43.698Y12.723
X43.723Y12.75
X43.755Y12.784Z-2.105
X43.892Y12.929Z-2.102
X44.03Y13.074Z-2.101
X44.305Y13.364
X44.442Y13.51Z-2.104
X44.58Y13.655
X44.717Y13.8Z-2.101
X44.992Y14.09
X45.13Y14.236Z-2.104
X45.268Y14.381
X45.405Y14.526Z-2.103
X45.699Y14.967
X45.81Y15.133
X45.921Y15.3
X46.032Y15.466
X46.143Y15.633
X46.254Y15.799
X46.365Y15.965
X46.698Y16.465
X46.809Y16.631Z-2.104
X46.892Y16.826
X47.049Y17.193Z-2.103
X47.128Y17.377
X47.207Y17.561
X47.286Y17.745
X47.365Y17.929Z-2.102
X47.443Y18.112
X47.522Y18.296Z-2.101
X47.837Y19.032
X47.916Y19.215Z-2.1
X47.995Y19.399
X48.074Y19.583
X48.31Y20.135
X48.468Y20.502Z-2.101
X48.6Y21.065
X49.195Y23.596
X49.302Y24.769Z-2.102
X49.32Y24.968Z-2.1
X49.374Y25.565
Y26.395
Y26.595
Y29.395
Y29.595
Y30.195
X49.318Y30.903
X49.302Y31.102Z-2.101
X49.286Y31.302Z-2.102
X49.19Y32.498Z-2.101
X49.054Y33.18
X49.015Y33.376Z-2.102
X48.975Y33.572Z-2.101
X48.858Y34.16
X48.818Y34.357Z-2.102
X48.779Y34.553
X48.74Y34.749
X48.725Y34.792
X48.66Y34.981Z-2.101
X48.594Y35.17
X48.529Y35.359Z-2.102
X48.464Y35.548Z-2.101
X48.398Y35.737Z-2.1
X48.333Y35.926
X48.267Y36.115
X48.202Y36.304
X48.136Y36.493
X48.006Y36.871Z-2.101
X47.94Y37.06
X47.597Y37.684
X47.5Y37.859Z-2.102
X47.404Y38.034
X47.308Y38.21Z-2.103
X46.916Y38.922
X46.892Y38.967Z-2.104
X46.87Y39.013
X46.848Y39.059
X46.828Y39.106
X46.809Y39.153
X46.792Y39.2
X46.775Y39.249Z-2.103
X46.76Y39.297
X46.746Y39.346
X46.733Y39.395
X46.721Y39.445
X46.713Y39.482
X46.691Y39.594
X46.603Y39.726
X46.492Y39.892
X46.382Y40.058
X46.271Y40.225
X46.16Y40.391
X46.049Y40.558
X45.938Y40.724Z-2.104
X45.827Y40.89Z-2.103
X45.716Y41.057Z-2.104
X45.494Y41.39Z-2.103
X45.383Y41.556
X45.364Y41.578
X45.232Y41.728Z-2.106
X45.101Y41.879Z-2.103
X44.969Y42.029Z-2.101
X44.837Y42.18
X44.574Y42.481Z-2.107
X44.311Y42.782Z-2.101
X44.179Y42.932
X44.047Y43.083Z-2.103
X43.915Y43.233Z-2.107
X43.784Y43.384Z-2.106
X43.745Y43.403Z-2.105
X43.702Y43.427Z-2.104
X43.66Y43.451
X43.618Y43.476
X43.577Y43.503
X43.536Y43.53
X43.496Y43.558
X43.457Y43.588
X43.419Y43.618
X43.381Y43.649
X43.344Y43.681
X43.326Y43.698
X43.299Y43.723
X43.265Y43.755Z-2.105
X43.12Y43.892Z-2.104
X42.975Y44.03Z-2.101
X42.685Y44.305
X42.539Y44.442Z-2.104
X42.394Y44.58Z-2.105
X42.249Y44.717Z-2.102
X42.104Y44.855Z-2.101
X41.959Y44.992
X41.813Y45.13Z-2.104
X41.668Y45.268Z-2.106
X41.523Y45.405Z-2.103
X40.916Y45.81
X40.749Y45.921Z-2.104
X40.583Y46.032Z-2.103
X40.416Y46.143Z-2.104
X40.25Y46.254Z-2.103
X40.084Y46.365
X39.917Y46.476
X39.751Y46.587
X39.584Y46.698
X39.418Y46.809Z-2.104
X39.223Y46.892
X38.856Y47.049Z-2.103
X38.672Y47.128
X38.488Y47.207
X38.304Y47.286
X37.385Y47.68Z-2.101
X37.201Y47.759
X36.65Y47.995Z-2.1
X36.466Y48.074
X35.914Y48.31
X35.547Y48.468Z-2.101
X35.374Y48.508
X34.4Y48.737Z-2.102
X32.453Y49.195Z-2.101
X31.28Y49.302Z-2.102
X31.081Y49.32Z-2.101
X30.882Y49.338Z-2.1
X30.484Y49.374
X29.654
X29.454
X26.654
X25.854
X24.981Y49.305
X24.781Y49.289Z-2.102
X23.585Y49.193Z-2.101
X21.086Y48.605
X20.502Y48.468
X20.124Y48.305Z-2.1
X19.572Y48.069
X19.389Y47.99
X19.205Y47.912
X19.021Y47.833Z-2.101
X18.286Y47.518
X18.102Y47.439Z-2.102
X17.918Y47.36
X17.734Y47.281Z-2.103
X17.55Y47.202
X17.366Y47.124
X17.183Y47.045
X16.815Y46.887Z-2.104
X16.631Y46.809
X16.523Y46.736Z-2.103
X16.357Y46.625
X16.19Y46.515
X15.524Y46.071
X15.358Y45.96
X15.192Y45.849
X15.025Y45.738
X14.526Y45.405
X14.492Y45.373
X14.347Y45.236Z-2.105
X14.202Y45.098Z-2.103
X14.057Y44.961Z-2.101
X13.912Y44.823
X13.766Y44.685Z-2.102
X13.621Y44.548Z-2.105
X13.476Y44.41Z-2.104
X13.331Y44.273Z-2.101
X13.04Y43.998
X12.895Y43.86Z-2.103
X12.75Y43.723Z-2.104
X12.723Y43.698
X12.687Y43.665
X12.649Y43.633
X12.611Y43.603
X12.572Y43.573
X12.533Y43.544
X12.493Y43.516
X12.452Y43.489
X12.41Y43.464
X12.368Y43.439
X12.325Y43.415
X12.304Y43.403
X12.265Y43.384Z-2.105
X12.121Y43.219Z-2.106
X11.989Y43.068Z-2.102
X11.857Y42.918Z-2.101
X11.726Y42.767
X11.594Y42.617Z-2.103
X11.462Y42.466Z-2.107
X11.199Y42.165Z-2.101
X11.067Y42.015
X10.268Y42.62Z-2.34
X10.005Y42.319
X9.873Y42.169Z-2.343
X9.797Y42.053Z-2.342
X9.688Y41.885
X9.469Y41.551Z-2.341
X9.141Y41.048Z-2.339
X9.031Y40.881Z-2.338
X8.703Y40.379Z-2.337
X8.484Y40.044Z-2.336
X8.374Y39.877Z-2.338
Y39.849Z-2.335
X8.373Y39.824Z-2.332
X8.372Y39.799Z-2.33
X8.369Y39.774Z-2.327
X8.367Y39.749Z-2.325
X8.363Y39.724Z-2.323
X8.359Y39.699Z-2.321
X8.354Y39.675Z-2.319
X8.349Y39.65Z-2.317
X8.343Y39.626Z-2.316
X8.336Y39.601Z-2.315
X8.329Y39.577Z-2.313
X8.322Y39.553Z-2.312
X8.313Y39.53
X8.304Y39.506Z-2.311
X8.295Y39.483Z-2.31
X8.285Y39.46
X8.274Y39.437
X8.263Y39.415
X8.251Y39.393
X7.577Y38.168Z-2.327
X7.481Y37.993Z-2.33
X7.384Y37.818Z-2.332
X7.288Y37.642Z-2.335
X7.192Y37.467Z-2.338
X7.129Y37.285
X7.063Y37.096
X6.344Y35.017Z-2.342
X6.326Y34.923Z-2.339
X6.289Y34.726Z-2.337
X6.252Y34.53
X6.215Y34.333Z-2.336
X6.179Y34.136Z-2.335
X6.142Y33.94Z-2.334
X6.105Y33.743
X6.068Y33.547Z-2.333
X6.031Y33.35
X5.921Y32.76Z-2.331
X5.884Y32.564
X5.847Y32.367Z-2.33
X5.81Y32.171Z-2.331
X5.773Y31.974Z-2.338
X5.766Y31.512Z-2.331
X5.736Y29.512Z-2.304
X5.69Y26.512Z-2.316
X5.675Y25.512Z-2.338
X5.739Y24.812Z-2.333
X5.757Y24.613Z-2.331
X5.829Y23.817Z-2.326
X5.847Y23.617Z-2.33
X5.866Y23.418Z-2.336
X6.067Y22.41
X6.106Y22.214
X6.146Y22.018
X6.185Y21.822
X6.224Y21.626
X6.263Y21.43
X6.303Y21.233Z-2.335
X6.342Y21.037Z-2.338
X6.734Y19.905Z-2.336
X7.192Y18.582Z-2.333
X7.287Y18.409Z-2.329
X8.251Y16.656Z-2.304
X8.263Y16.634
X8.274Y16.611
X8.285Y16.588
X8.295Y16.565
X8.305Y16.541Z-2.305
X8.314Y16.518Z-2.306
X8.322Y16.493
X8.33Y16.469Z-2.308
X8.337Y16.445Z-2.309
X8.344Y16.42Z-2.31
X8.35Y16.396Z-2.312
X8.355Y16.371Z-2.313
X8.416Y16.065Z-2.335
X8.528Y15.897
X9.083Y15.065
X9.194Y14.899
X9.304Y14.732
X9.415Y14.566
X9.859Y13.9
X9.95Y13.805Z-2.33
X10.225Y13.514Z-2.325
X11.6Y12.062Z-2.305
X11.617Y12.044Z-2.304
X11.633Y12.026
X11.649Y12.007Z-2.305
X11.664Y11.988
X11.679Y11.969
X11.693Y11.949Z-2.306
X11.707Y11.928Z-2.307
X11.72Y11.908Z-2.308
X11.733Y11.887Z-2.309
X11.745Y11.866Z-2.31
X11.757Y11.844Z-2.311
X11.768Y11.823Z-2.313
X11.779Y11.801Z-2.315
X11.789Y11.778Z-2.317
X11.799Y11.756Z-2.32
X11.808Y11.733Z-2.323
X11.816Y11.71Z-2.326
X11.824Y11.687Z-2.329
X11.831Y11.666Z-2.332
X12.375Y11.19
X13.73Y10.005
X13.88Y9.873Z-2.335
X15.001Y9.141Z-2.332
X15.168Y9.031Z-2.331
X15.67Y8.703Z-2.33
X16.005Y8.484Z-2.328
X16.172Y8.374Z-2.332
X16.2Z-2.329
X16.225Y8.373Z-2.326
X16.25Y8.372Z-2.324
X16.275Y8.369Z-2.321
X16.3Y8.367Z-2.319
X16.325Y8.363Z-2.317
X16.35Y8.359Z-2.315
X16.374Y8.354Z-2.313
X16.399Y8.349Z-2.311
X16.423Y8.343Z-2.31
X16.448Y8.336Z-2.309
X16.472Y8.329Z-2.307
X16.496Y8.322Z-2.306
X16.519Y8.313
X16.543Y8.304Z-2.305
X16.566Y8.295Z-2.304
X16.589Y8.285
X16.612Y8.274
X16.634Y8.263
X16.656Y8.251
X18.231Y7.384Z-2.326
X18.407Y7.288Z-2.329
X18.582Y7.192Z-2.333
X19.714Y6.8Z-2.335
X21.037Y6.342Z-2.338
X21.065Y6.336Z-2.337
X21.261Y6.297Z-2.335
X21.457Y6.258Z-2.336
X21.653Y6.219
X21.849Y6.179
X22.045Y6.14
X22.242Y6.101
X22.438Y6.062
X22.634Y6.022
X23.222Y5.905
X23.418Y5.866
X23.727Y5.837Z-2.327
X23.926Y5.819
X24.524Y5.765Z-2.331
X25.52Y5.675Z-2.338
X26.329Z-2.323
X26.529Z-2.32
X29.329
X29.529Z-2.321
X30.529Z-2.339
X31.237Y5.739Z-2.334
X31.436Y5.757Z-2.332
X32.033Y5.811Z-2.328
X32.232Y5.829
X32.432Y5.847Z-2.333
X32.631Y5.866Z-2.339
X34.423Y6.224Z-2.338
X34.619Y6.263
X34.816Y6.303
X35.012Y6.342Z-2.342
X36.9Y6.995Z-2.339
X37.089Y7.061Z-2.338
X37.278Y7.126
X37.467Y7.192
X37.64Y7.287Z-2.335
X37.815Y7.383Z-2.332
X37.991Y7.48Z-2.33
X38.341Y7.672Z-2.325
X39.393Y8.251Z-2.31
X39.415Y8.263
X39.438Y8.274
X39.461Y8.285
X39.484Y8.295
X39.508Y8.305Z-2.311
X39.531Y8.314Z-2.312
X39.556Y8.322
X39.58Y8.33Z-2.313
X39.604Y8.337Z-2.315
X39.629Y8.344Z-2.316
X39.653Y8.35Z-2.318
X39.678Y8.355Z-2.319
X39.788Y8.377Z-2.327
X39.984Y8.416Z-2.342
X40.834Y8.983
X41.167Y9.205Z-2.343
X41.333Y9.316
X42.165Y9.87
X42.261Y9.954Z-2.341
X42.562Y10.218Z-2.34
X42.863Y10.481Z-2.341
X43.014Y10.613Z-2.34
X43.466Y11.008Z-2.341
X43.616Y11.14
X44.218Y11.666
X44.225Y11.687Z-2.338
X44.233Y11.71Z-2.335
X44.241Y11.733Z-2.332
X44.25Y11.756Z-2.329
X44.26Y11.778Z-2.327
X44.27Y11.801Z-2.325
X44.281Y11.823Z-2.323
X44.292Y11.844Z-2.322
X44.304Y11.866Z-2.32
X44.316Y11.887Z-2.319
X44.329Y11.908Z-2.318
X44.342Y11.928Z-2.317
X44.356Y11.949Z-2.316
X44.37Y11.969
X44.385Y11.988Z-2.315
X44.4Y12.007
X44.416Y12.026
X44.432Y12.044
X44.449Y12.062
X45.777Y13.465Z-2.334
X46.052Y13.755Z-2.339
X46.19Y13.9Z-2.347
X46.36Y14.156
X46.471Y14.322Z-2.346
X46.804Y14.822
X47.026Y15.154
X47.47Y15.82
X47.581Y15.986
X47.692Y16.153Z-2.351
X48.003Y16.879Z-2.339
X48.633Y18.35Z-2.316
X48.712Y18.534Z-2.314
X48.791Y18.718Z-2.317
X49.421Y20.188Z-2.351
X49.635Y21.099Z-2.327
X49.681Y21.294Z-2.328
X49.727Y21.488Z-2.33
X49.773Y21.683Z-2.332
X49.819Y21.878Z-2.334
X49.864Y22.072Z-2.336
X49.91Y22.267Z-2.338
X49.956Y22.462Z-2.339
X50.002Y22.656Z-2.342
X50.139Y23.24Z-2.347
X50.185Y23.435Z-2.349
X50.212Y23.727Z-2.341
X50.23Y23.926Z-2.34
X50.284Y24.524Z-2.344
X50.302Y24.723Z-2.346
X50.375Y25.52Z-2.351
Y26.435Z-2.335
Y26.635Z-2.334
Y29.435
Y29.635Z-2.336
Y30.235Z-2.347
X50.294Y31.241Z-2.343
X50.278Y31.44Z-2.342
X50.23Y32.038Z-2.34
X50.214Y32.237
X50.198Y32.437Z-2.346
X50.182Y32.636Z-2.352
X50.139Y32.854
X50.099Y33.051
X49.982Y33.639
X49.864Y34.227
X49.825Y34.423Z-2.351
X49.786Y34.619Z-2.352
X49.746Y34.816Z-2.351
X49.707Y35.012Z-2.355
X48.988Y37.089Z-2.351
X48.857Y37.467
X48.762Y37.64Z-2.346
X48.473Y38.166Z-2.339
X48.377Y38.341Z-2.337
X48.28Y38.516Z-2.334
X48.184Y38.692Z-2.332
X48.087Y38.867Z-2.329
X47.991Y39.042Z-2.327
X47.895Y39.217Z-2.325
X47.798Y39.393Z-2.323
X47.786Y39.415Z-2.322
X47.775Y39.438
X47.764Y39.461
X47.754Y39.484Z-2.323
X47.744Y39.508
X47.735Y39.531Z-2.324
X47.727Y39.556Z-2.325
X47.719Y39.58Z-2.326
X47.712Y39.604Z-2.327
X47.705Y39.629Z-2.328
X47.699Y39.653Z-2.33
X47.694Y39.678Z-2.331
X47.672Y39.788Z-2.339
X47.633Y39.984Z-2.354
X47.621Y40.002Z-2.353
X47.51Y40.168Z-2.354
X47.399Y40.335Z-2.353
X47.288Y40.501Z-2.354
X46.623Y41.5
X46.512Y41.666
X46.29Y41.999
X46.179Y42.165
X46.095Y42.261Z-2.351
X45.831Y42.562Z-2.35
X45.041Y43.466Z-2.351
X44.909Y43.616
X44.646Y43.917
X44.383Y44.218
X44.362Y44.225Z-2.348
X44.339Y44.233Z-2.345
X44.316Y44.241Z-2.342
X44.293Y44.25Z-2.339
X44.271Y44.26Z-2.336
X44.248Y44.27Z-2.334
X44.226Y44.281Z-2.332
X44.205Y44.292Z-2.33
X44.183Y44.304Z-2.329
X44.162Y44.316Z-2.328
X44.141Y44.329Z-2.327
X44.121Y44.342Z-2.326
X44.1Y44.356Z-2.325
X44.08Y44.37Z-2.324
X44.061Y44.385
X44.042Y44.4
X44.023Y44.416Z-2.323
X44.005Y44.432
X43.987Y44.449Z-2.324
X43.746Y44.677Z-2.327
X43.601Y44.814Z-2.329
X43.165Y45.227Z-2.335
X42.294Y46.052Z-2.348
X42.149Y46.19Z-2.354
X41.893Y46.36
X41.727Y46.471
X41.227Y46.804
X40.895Y47.026Z-2.353
X40.063Y47.581
X39.896Y47.692Z-2.357
X39.721Y47.767Z-2.354
X39.537Y47.845Z-2.351
X39.353Y47.924Z-2.348
X39.17Y48.003Z-2.345
X38.434Y48.318Z-2.334
X37.515Y48.712Z-2.32
X37.331Y48.791Z-2.322
X36.596Y49.106Z-2.338
X35.861Y49.421Z-2.355
X34.95Y49.635Z-2.331
X34.755Y49.681
X34.561Y49.727Z-2.333
X34.366Y49.773Z-2.335
X34.171Y49.819Z-2.337
X33.977Y49.864Z-2.338
X33.782Y49.91Z-2.34
X33.587Y49.956Z-2.342
X33.393Y50.002Z-2.344
X33.198Y50.048Z-2.346
X33.003Y50.093Z-2.348
X32.809Y50.139Z-2.35
X32.614Y50.185Z-2.352
X32.322Y50.212Z-2.343
X32.123Y50.23Z-2.341
X31.525Y50.284Z-2.345
X30.529Y50.375Z-2.352
X29.614Z-2.336
X29.414Z-2.334
X26.614
X26.414Z-2.335
X25.814Z-2.346
X24.825Y50.295Z-2.342
X23.829Y50.216Z-2.338
X23.629Y50.2Z-2.342
X23.43Y50.184Z-2.349
X21.162Y49.65Z-2.327
X20.967Y49.604Z-2.33
X20.188Y49.421Z-2.351
X18.726Y48.794Z-2.318
X18.543Y48.716Z-2.314
X18.359Y48.637Z-2.316
X17.072Y48.085Z-2.336
X16.888Y48.007Z-2.339
X16.153Y47.692Z-2.351
X16.064Y47.632Z-2.347
X15.897Y47.521Z-2.346
X15.731Y47.41
X15.564Y47.299
X15.398Y47.188
X14.233Y46.412
X14.067Y46.301Z-2.347
X13.9Y46.19
X13.805Y46.099Z-2.341
X13.659Y45.962Z-2.337
X12.062Y44.449Z-2.315
X12.044Y44.432
X12.026Y44.416
X12.007Y44.4
X11.988Y44.385
X11.969Y44.37Z-2.316
X11.949Y44.356
X11.928Y44.342Z-2.317
X11.908Y44.329Z-2.318
X11.887Y44.316Z-2.319
X11.866Y44.304Z-2.32
X11.844Y44.292Z-2.322
X11.823Y44.281Z-2.323
X11.801Y44.27Z-2.325
X11.778Y44.26Z-2.327
X11.756Y44.25Z-2.329
X11.733Y44.241Z-2.332
X11.71Y44.233Z-2.335
X11.687Y44.225Z-2.338
X11.666Y44.218Z-2.341
X11.454Y43.975
X11.19Y43.674
X10.268Y42.62Z-2.34
G0Z10
X14.556Y38.471
G1Z-2.322F500
X14.698Y38.612Z-2.326F1000
X15.405Y39.319Z-2.343
X15.411Y39.341Z-2.341
X15.418Y39.365Z-2.338
X15.425Y39.388Z-2.335
X15.433Y39.412Z-2.333
X15.442Y39.435Z-2.33
X15.451Y39.458Z-2.328
X15.46Y39.48Z-2.326
X15.471Y39.502Z-2.324
X15.481Y39.525Z-2.322
X15.493Y39.546Z-2.321
X15.505Y39.568Z-2.319
X15.517Y39.589Z-2.318
X15.53Y39.61Z-2.317
X15.543Y39.631Z-2.316
X15.557Y39.651Z-2.315
X15.572Y39.671
X15.587Y39.69Z-2.314
X15.602Y39.709
X15.618Y39.728
X15.634Y39.747
X15.651Y39.765
X15.668Y39.782
X15.686Y39.799Z-2.315
X15.727Y39.837Z-2.317
X15.876Y39.972Z-2.323
X16.024Y40.106Z-2.326
X16.914Y40.911Z-2.321
X17.804Y41.716Z-2.315
X17.822Y41.732
X17.841Y41.748Z-2.314
X17.86Y41.763
X17.88Y41.778
X17.9Y41.793Z-2.313
X17.92Y41.807
X18.056Y41.897Z-2.314
X18.222Y42.008Z-2.313
X18.555Y42.23Z-2.314
X19.221Y42.674
X19.553Y42.896
X19.72Y43.007
X19.741Y43.02
X19.762Y43.033
X19.783Y43.046Z-2.315
X19.805Y43.058
X19.827Y43.069Z-2.316
X19.902Y43.106Z-2.319
X20.26Y43.285
X21.512Y43.911Z-2.316
X21.691Y44.001
X21.87Y44.09
X22.048Y44.179
X22.227Y44.269Z-2.313
X22.249Y44.279Z-2.312
X22.27Y44.289Z-2.311
X22.292Y44.298
X22.314Y44.307Z-2.31
X22.336Y44.315
X22.371Y44.327
X24.458Y45.023Z-2.313
X24.48Y45.03Z-2.314
X24.502Y45.037
X24.525Y45.043
X24.547Y45.048
X24.57Y45.053
X24.592Y45.058
X24.736Y45.084
X25.326Y45.194Z-2.317
X25.523Y45.23
X25.719Y45.266Z-2.318
X25.916Y45.303
X26.112Y45.339Z-2.319
X26.899Y45.485Z-2.322
X27.096Y45.521Z-2.32
X27.292Y45.558Z-2.313
X27.318Y45.562
X27.344Y45.566Z-2.312
X27.37Y45.569
X27.396Y45.571Z-2.311
X27.422Y45.573
X27.448Y45.574
X27.474Z-2.312
X27.974Z-2.32
X28.175Z-2.318
X28.574Z-2.311
X28.601
X28.627Y45.573
X28.653Y45.571
X28.679Y45.569
X28.705Y45.566
X28.731Y45.562Z-2.312
X28.757Y45.558
X28.9Y45.531Z-2.317
X29.097Y45.495Z-2.32
X29.687Y45.386Z-2.317
X29.883Y45.349
X30.08Y45.313Z-2.316
X30.277Y45.276
X30.473Y45.24Z-2.315
X30.67Y45.203Z-2.314
X30.867Y45.167Z-2.313
X31.063Y45.131
X31.457Y45.058Z-2.311
X31.479Y45.053
X31.502Y45.048Z-2.31
X31.524Y45.043
X31.547Y45.037Z-2.309
X31.569Y45.03
X31.604Y45.019
X33.691Y44.323Z-2.306
X33.713Y44.315
X33.735Y44.307
X33.757Y44.298
X33.779Y44.289Z-2.307
X33.8Y44.279
X33.822Y44.269Z-2.308
X33.896Y44.232Z-2.31
X34.791Y43.784Z-2.311
X34.97Y43.695
X35.148Y43.606Z-2.312
X35.327Y43.516
X35.506Y43.427
X35.685Y43.337
X35.864Y43.248Z-2.313
X36.043Y43.158
X36.222Y43.069Z-2.309
X36.244Y43.058Z-2.308
X36.266Y43.046Z-2.307
X36.287Y43.033
X36.308Y43.02
X36.329Y43.007Z-2.306
X36.465Y42.916Z-2.307
X36.798Y42.694Z-2.306
X36.964Y42.583
X37.796Y42.028
X38.129Y41.807
X38.15Y41.793
X38.17Y41.778
X38.189Y41.763
X38.208Y41.748
X38.227Y41.732Z-2.307
X38.246Y41.716
X38.264Y41.699
X38.282Y41.682
X39.319Y40.644Z-2.333
X39.341Y40.638Z-2.33
X39.365Y40.631Z-2.328
X39.388Y40.624Z-2.325
X39.412Y40.616Z-2.322
X39.435Y40.607Z-2.32
X39.458Y40.598Z-2.318
X39.48Y40.589Z-2.316
X39.502Y40.578Z-2.314
X39.525Y40.568Z-2.312
X39.546Y40.556Z-2.311
X39.568Y40.544Z-2.309
X39.589Y40.532Z-2.308
X39.61Y40.519Z-2.307
X39.631Y40.506Z-2.306
X39.651Y40.492Z-2.305
X39.671Y40.477
X39.69Y40.462Z-2.304
X39.709Y40.447
X39.728Y40.431
X39.747Y40.415
X39.765Y40.398
X39.782Y40.381
X39.799Y40.363Z-2.305
X39.837Y40.322Z-2.306
X39.972Y40.173Z-2.313
X40.106Y40.025Z-2.317
X40.374Y39.728Z-2.315
X40.508Y39.58Z-2.314
X40.911Y39.135Z-2.312
X41.045Y38.987Z-2.311
X41.448Y38.542Z-2.309
X41.716Y38.245Z-2.307
X41.732Y38.227
X41.748Y38.208Z-2.306
X41.763Y38.189
X41.778Y38.169
X41.793Y38.149
X41.807Y38.129
X41.897Y37.993
X42.008Y37.827
X42.23Y37.494
X42.785Y36.662
X42.896Y36.496Z-2.307
X43.007Y36.329Z-2.306
X43.02Y36.308Z-2.307
X43.033Y36.287
X43.046Y36.266
X43.058Y36.244Z-2.308
X43.069Y36.222Z-2.309
X43.106Y36.147Z-2.311
X43.196Y35.968Z-2.313
X43.285Y35.789
X43.911Y34.537Z-2.31
X44.001Y34.358
X44.09Y34.179
X44.179Y34.001
X44.269Y33.822Z-2.308
X44.279Y33.8Z-2.307
X44.289Y33.779
X44.298Y33.757Z-2.306
X44.307Y33.735
X44.315Y33.713
X44.327Y33.678
X45.023Y31.591Z-2.309
X45.031Y31.568
X45.037Y31.545
X45.044Y31.521Z-2.31
X45.049Y31.498
X45.054Y31.474Z-2.311
X45.067Y31.407Z-2.312
X45.102Y31.21
X45.137Y31.013Z-2.314
X45.172Y30.816Z-2.315
X45.207Y30.619Z-2.316
X45.243Y30.422Z-2.317
X45.278Y30.225Z-2.318
X45.313Y30.028Z-2.319
X45.348Y29.832Z-2.32
X45.383Y29.635Z-2.321
X45.418Y29.438Z-2.322
X45.489Y29.044Z-2.324
X45.524Y28.847Z-2.32
X45.559Y28.65Z-2.314
X45.563Y28.625Z-2.313
X45.567Y28.6
X45.569Y28.575Z-2.312
X45.572Y28.55
X45.573Y28.525
X45.574Y28.5
Y28.475
Y28.075Z-2.32
Y27.874Z-2.319
Y27.474Z-2.312
Y27.448Z-2.311
X45.573Y27.422
X45.571Y27.396
X45.569Y27.37Z-2.312
X45.566Y27.344
X45.562Y27.318Z-2.313
X45.558Y27.292
X45.531Y27.149Z-2.318
X45.495Y26.952Z-2.322
X45.386Y26.362Z-2.32
X45.349Y26.166
X45.313Y25.969Z-2.319
X45.276Y25.772Z-2.318
X45.24Y25.576Z-2.317
X45.203Y25.379
X45.167Y25.182Z-2.316
X45.131Y24.986Z-2.315
X45.094Y24.789Z-2.314
X45.058Y24.592
X45.053Y24.57
X45.048Y24.547
X45.043Y24.525
X45.037Y24.502
X45.03Y24.48
X45.019Y24.445Z-2.313
X44.703Y23.497Z-2.312
X44.323Y22.358Z-2.31
X44.315Y22.336
X44.307Y22.314
X44.298Y22.292Z-2.311
X44.289Y22.27
X44.279Y22.249Z-2.312
X44.269Y22.227Z-2.313
X44.232Y22.153Z-2.315
X44.142Y21.974Z-2.316
X43.784Y21.258Z-2.317
X43.695Y21.079
X43.606Y20.901Z-2.318
X43.516Y20.722
X43.158Y20.006Z-2.319
X43.069Y19.827Z-2.316
X43.058Y19.805Z-2.315
X43.046Y19.783
X43.033Y19.762Z-2.314
X43.02Y19.741
X43.007Y19.72
X42.916Y19.584
X42.694Y19.251
X42.583Y19.085
X42.139Y18.419
X42.028Y18.253Z-2.313
X41.807Y17.92
X41.793Y17.899
X41.778Y17.879Z-2.314
X41.763Y17.86
X41.748Y17.841
X41.732Y17.822Z-2.315
X41.716Y17.803
X41.699Y17.785Z-2.316
X41.682Y17.767
X40.644Y16.73Z-2.342
X40.638Y16.708Z-2.339
X40.631Y16.684Z-2.337
X40.624Y16.661Z-2.334
X40.616Y16.637Z-2.331
X40.607Y16.614Z-2.329
X40.598Y16.591Z-2.327
X40.589Y16.569Z-2.325
X40.578Y16.547Z-2.323
X40.568Y16.524Z-2.321
X40.556Y16.503Z-2.319
X40.544Y16.481Z-2.318
X40.532Y16.46Z-2.317
X40.519Y16.439Z-2.316
X40.506Y16.418Z-2.315
X40.492Y16.398Z-2.314
X40.477Y16.378
X40.462Y16.359Z-2.313
X40.447Y16.34
X40.431Y16.321
X40.415Y16.302
X40.398Y16.284
X40.381Y16.267
X40.363Y16.25Z-2.314
X40.322Y16.212Z-2.315
X40.173Y16.077Z-2.321
X40.025Y15.943Z-2.327
X39.728Y15.675Z-2.325
X39.135Y15.138Z-2.322
X38.987Y15.004Z-2.321
X38.69Y14.736Z-2.32
X38.245Y14.333Z-2.317
X38.227Y14.317
X38.208Y14.301
X38.189Y14.286
X38.169Y14.271
X38.149Y14.256
X38.129Y14.242
X37.494Y13.819Z-2.318
X37.328Y13.708Z-2.317
X37.161Y13.597Z-2.318
X36.995Y13.486Z-2.317
X36.329Y13.042Z-2.318
X36.308Y13.029
X36.287Y13.016
X36.266Y13.003
X36.244Y12.991Z-2.319
X36.222Y12.98Z-2.32
X36.147Y12.943Z-2.323
X35.968Y12.853Z-2.325
X35.611Y12.674Z-2.324
X35.432Y12.585
X35.253Y12.496
X35.074Y12.406
X34.001Y11.87Z-2.322
X33.822Y11.78Z-2.321
X33.8Y11.77Z-2.32
X33.779Y11.76
X33.757Y11.751Z-2.319
X33.735Y11.742
X33.713Y11.734
X33.678Y11.722
X32.16Y11.216Z-2.321
X31.591Y11.026Z-2.322
X31.569Y11.019
X31.547Y11.012
X31.524Y11.006Z-2.323
X31.502Y11.001
X31.479Y10.996
X31.457Y10.991Z-2.324
X31.313Y10.965Z-2.325
X30.92Y10.892Z-2.327
X30.723Y10.855
X30.526Y10.819Z-2.328
X29.937Y10.71Z-2.33
X29.74Y10.673Z-2.331
X29.543Y10.637
X29.347Y10.6Z-2.332
X29.15Y10.564Z-2.333
X28.953Y10.528Z-2.332
X28.757Y10.491Z-2.326
X28.731Y10.487Z-2.325
X28.705Y10.483
X28.679Y10.48Z-2.324
X28.653Y10.478
X28.627Y10.476
X28.601Y10.475
X28.574Y10.474Z-2.325
X28.475Z-2.326
X28.075Z-2.333
X27.874Z-2.332
X27.474Z-2.325
X27.448Y10.475
X27.422Y10.476
X27.396Y10.478
X27.37Y10.48
X27.344Y10.483
X27.318Y10.487Z-2.326
X27.292Y10.491Z-2.327
X27.149Y10.518Z-2.331
X26.952Y10.554Z-2.336
X25.182Y10.882Z-2.329
X24.986Y10.918
X24.789Y10.955Z-2.328
X24.592Y10.991Z-2.327
X24.57Y10.996
X24.547Y11.001
X24.525Y11.006Z-2.326
X24.502Y11.012Z-2.327
X24.48Y11.019Z-2.326
X24.445Y11.03
X22.358Y11.726Z-2.323
X22.336Y11.734
X22.314Y11.742
X22.292Y11.751
X22.27Y11.76Z-2.324
X22.249Y11.77
X22.227Y11.78Z-2.325
X22.153Y11.817Z-2.327
X21.795Y11.996Z-2.328
X21.616Y12.086
X20.185Y12.801Z-2.331
X20.006Y12.891
X19.827Y12.98Z-2.327
X19.805Y12.991Z-2.326
X19.783Y13.003
X19.762Y13.016Z-2.325
X19.741Y13.029
X19.72Y13.042
X18.752Y13.688
X18.585Y13.799
X18.253Y14.021Z-2.324
X17.92Y14.242Z-2.325
X17.899Y14.256
X17.879Y14.271
X17.86Y14.286
X17.841Y14.301
X17.822Y14.317Z-2.326
X17.803Y14.333
X17.785Y14.35
X17.767Y14.367
X16.73Y15.405Z-2.352
X16.708Y15.411Z-2.349
X16.684Y15.418Z-2.347
X16.661Y15.425Z-2.344
X16.637Y15.433Z-2.341
X16.614Y15.442Z-2.339
X16.591Y15.451Z-2.337
X16.569Y15.46Z-2.335
X16.547Y15.471Z-2.333
X16.524Y15.481Z-2.331
X16.503Y15.493Z-2.329
X16.481Y15.505Z-2.328
X16.46Y15.517Z-2.327
X16.439Y15.53Z-2.326
X16.418Y15.543Z-2.325
X16.398Y15.557Z-2.324
X16.378Y15.572Z-2.323
X16.359Y15.587
X16.34Y15.602
X16.321Y15.618
X16.302Y15.634
X16.284Y15.651
X16.267Y15.668
X16.25Y15.686Z-2.324
X16.212Y15.727Z-2.326
X16.077Y15.876Z-2.332
X15.943Y16.024Z-2.336
X15.675Y16.321Z-2.334
X14.736Y17.359Z-2.328
X14.601Y17.507Z-2.327
X14.333Y17.804Z-2.326
X14.317Y17.822
X14.301Y17.841Z-2.325
X14.286Y17.86
X14.271Y17.88
X14.256Y17.9
X14.242Y17.92
X13.93Y18.389
X13.819Y18.555
X13.708Y18.721
X13.597Y18.888
X13.486Y19.054
X13.042Y19.72
X13.029Y19.741
X13.016Y19.762
X13.003Y19.783Z-2.326
X12.991Y19.805
X12.98Y19.827Z-2.327
X12.943Y19.902Z-2.33
X12.853Y20.081Z-2.331
X12.674Y20.438Z-2.33
X12.585Y20.617
X12.496Y20.796
X12.406Y20.975
X11.87Y22.048Z-2.328
X11.78Y22.227Z-2.325
X11.77Y22.249Z-2.324
X11.76Y22.27
X11.751Y22.292Z-2.323
X11.742Y22.314
X11.734Y22.336
X11.722Y22.371
X11.026Y24.458Z-2.326
X11.019Y24.48
X11.012Y24.502Z-2.327
X11.006Y24.525Z-2.326
X11.001Y24.547Z-2.327
X10.996Y24.57
X10.991Y24.592
X10.746Y25.916Z-2.332
X10.637Y26.506Z-2.334
X10.6Y26.702Z-2.335
X10.564Y26.899
X10.528Y27.096Z-2.333
X10.491Y27.292Z-2.327
X10.487Y27.318Z-2.326
X10.483Y27.344Z-2.325
X10.48Y27.37
X10.478Y27.396
X10.476Y27.422
X10.475Y27.448
X10.474Y27.474
Y27.974Z-2.334
Y28.175Z-2.331
Y28.375Z-2.328
Y28.574Z-2.325
X10.475Y28.601Z-2.324
X10.476Y28.627
X10.478Y28.653
X10.48Y28.679
X10.483Y28.705Z-2.325
X10.487Y28.731
X10.491Y28.757Z-2.326
X10.518Y28.9Z-2.33
X10.554Y29.097Z-2.333
X10.591Y29.293Z-2.332
X10.955Y31.26Z-2.325
X10.991Y31.457Z-2.324
X10.996Y31.479Z-2.323
X11.001Y31.502
X11.006Y31.524
X11.012Y31.547Z-2.322
X11.019Y31.569
X11.03Y31.604
X11.157Y31.983Z-2.321
X11.22Y32.173
X11.726Y33.691Z-2.319
X11.734Y33.713
X11.742Y33.735
X11.751Y33.757
X11.76Y33.779Z-2.32
X11.77Y33.8
X11.78Y33.822Z-2.321
X11.817Y33.896Z-2.322
X11.907Y34.075
X11.996Y34.254
X12.086Y34.433
X12.712Y35.685Z-2.325
X12.891Y36.043
X12.98Y36.222Z-2.32
X12.991Y36.244Z-2.319
X13.003Y36.266Z-2.318
X13.016Y36.287
X13.029Y36.308
X13.042Y36.329
X13.688Y37.297Z-2.317
X13.799Y37.464Z-2.318
X14.021Y37.796Z-2.317
X14.242Y38.129
X14.256Y38.15
X14.271Y38.17
X14.286Y38.189
X14.301Y38.208
X14.317Y38.227
X14.333Y38.246
X14.35Y38.264
X14.367Y38.282
X14.556Y38.471Z-2.322
G0Z10
X10.875Y11.175
G1Z-2.6F500
X13.274Y9.075F1000
X15.874Y7.375
X16.175
X18.175Y6.275
X20.775Y5.375
X23.274Y4.875
X25.474Y4.675
X30.575
X32.775Y4.875
X35.274Y5.375
X37.875Y6.275
X39.875Y7.375
X40.374Y7.475
X42.774Y9.075
X45.174Y11.175
Y11.375
X46.974Y13.274
X48.574Y15.674
X50.375Y19.874
X51.174Y23.274
X51.374Y25.474
Y30.274
X51.174Y32.775
X50.674Y35.274
X49.774Y37.875
X48.674Y39.875
X48.574Y40.374
X46.974Y42.774
X44.875Y45.174
X44.675
X42.774Y46.974
X40.374Y48.574
X36.174Y50.375
X32.775Y51.174
X30.575Y51.374
X25.774
X23.274Y51.174
X19.874Y50.375
X15.674Y48.574
X13.274Y46.974
X11.375Y45.174
X11.175
X9.075Y42.774
X7.375Y40.174
Y39.875
X6.275Y37.875
X5.375Y35.274
X4.775Y32.074
X4.675Y25.474
X4.875Y23.274
X5.375Y20.775
X6.275Y18.175
X7.375Y16.175
X7.475Y15.674
X9.075Y13.274
X10.875Y11.375
Y11.175
G0Z10
X16.974Y16.375
G1Z-2.6F500
X15.075Y18.475F1000
X13.874Y20.274
X12.674Y22.675
X11.975Y24.774
X11.475Y27.474
Y28.574
X11.975Y31.275
X12.674Y33.374
X13.874Y35.774
X15.075Y37.574
X16.375Y38.874
Y39.074
X18.475Y40.975
X20.274Y42.174
X22.675Y43.375
X24.774Y44.074
X27.474Y44.574
X28.574
X31.275Y44.074
X33.374Y43.375
X35.774Y42.174
X37.574Y40.975
X38.874Y39.674
X39.074
X40.975Y37.574
X42.174Y35.774
X43.375Y33.374
X44.074Y31.275
X44.574Y28.475
Y27.474
X44.074Y24.774
X43.375Y22.675
X42.174Y20.274
X40.975Y18.475
X39.674Y17.175
Y16.974
X37.574Y15.075
X35.774Y13.874
X33.374Y12.674
X31.275Y11.975
X28.574Y11.475
X27.474
X24.774Y11.975
X22.675Y12.674
X20.274Y13.874
X18.475Y15.075
X17.175Y16.375
X16.974
G0Z10
X1.5Y1.502
G1Z-3.1F500
X3.916Y1.509F1000
X2.646Y2.669
X2.458Y2.85
X2.275Y3.035
X2.096Y3.225
X2Y3.331
X1.5Y3.894
Y1.502
X0.5Y0.5
X6.616
X6.466Y0.607
X6.294Y0.736
X6.124Y0.869
X5.958Y1.007
X5.795Y1.148
X5.706Y1.228
X3.33Y3.399
X3.16Y3.561
X2.996Y3.728
X2.835Y3.899
X2.748Y3.995
X1.079Y5.874
X0.927Y6.053
X0.78Y6.236
X0.638Y6.423
X0.5Y6.616
Y0.5
X-0.499Y-0.499
X9.869
X7.213Y1.302
X7.057Y1.413
X6.904Y1.528
X6.753Y1.647
X6.605Y1.769
X6.46Y1.895
X6.38Y1.967
X4.013Y4.129
X3.863Y4.273
X3.716Y4.421
X3.574Y4.573
X3.495Y4.66
X1.835Y6.528
X1.7Y6.688
X1.57Y6.85
X1.443Y7.017
X1.321Y7.186
X1.255Y7.282
X-0.499Y9.869
Y-0.499
X-1.499Y-1.499
X13.872
X11.373Y-0.249
X11.209Y-0.162
X11.048Y-0.071
X10.889Y0.024
X10.732Y0.123
X10.644Y0.182
X7.785Y2.123
X7.648Y2.22
X7.514Y2.321
X7.382Y2.424
X7.253Y2.531
X7.126Y2.641
X7.055Y2.705
X4.697Y4.858
X4.566Y4.984
X4.437Y5.114
X4.312Y5.247
X4.243Y5.324
X2.591Y7.183
X2.473Y7.322
X2.359Y7.465
X2.248Y7.61
X2.141Y7.758
X2.082Y7.844
X0.138Y10.71
X0.038Y10.866
X-0.058Y11.025
X-0.15Y11.186
X-0.237Y11.35
X-0.285Y11.444
X-1.499Y13.872
Y-1.499
X-2.499Y-2.499
X20.055
X19.032Y-2.294
X18.874Y-2.259
X18.718Y-2.219
X18.562Y-2.175
X18.408Y-2.127
X18.319Y-2.097
X15.356Y-1.075
X15.209Y-1.02
X15.062Y-0.961
X14.917Y-0.898
X14.774Y-0.832
X14.691Y-0.791
X11.832Y0.638
X11.692Y0.713
X11.553Y0.791
X11.417Y0.873
X11.283Y0.958
X11.205Y1.01
X8.356Y2.944
X8.239Y3.027
X8.124Y3.113
X8.011Y3.202
X7.9Y3.293
X7.791Y3.388
X7.729Y3.444
X5.381Y5.588
X5.268Y5.696
X5.158Y5.807
X5.051Y5.921
X4.99Y5.988
X3.347Y7.837
X3.246Y7.957
X3.148Y8.079
X3.053Y8.203
X2.962Y8.33
X2.91Y8.405
X0.973Y11.261
X0.887Y11.394
X0.804Y11.53
X0.725Y11.668
X0.65Y11.809
X0.608Y11.891
X-0.82Y14.75
X-0.887Y14.893
X-0.951Y15.038
X-1.01Y15.184
X-1.066Y15.332
X-1.097Y15.419
X-2.118Y18.382
X-2.167Y18.536
X-2.212Y18.692
X-2.252Y18.848
X-2.289Y19.006
X-2.308Y19.098
X-2.499Y20.055
Y-2.499
G0Z10
X27.951Y28.018
G1Z-3.1F500
X28.024Y27.956F1000
X28.098Y28.018
X28.025Y28.106
X27.951Y28.018
X27.189Y28.666
X27.023Y28.474
X26.803Y28.232
X26.647Y28.066
X26.732Y27.851
X26.814Y27.72
X27.16Y27.374
X27.327Y27.236
X27.575Y27.023
X27.817Y26.803
X27.983Y26.647
X28.124Y26.703
X28.334Y26.897
X28.579Y27.114
X28.829Y27.325
X28.889Y27.374
X29.354Y27.839
X29.411Y27.959
X29.346Y28.124
X29.152Y28.334
X28.935Y28.579
X28.724Y28.829
X28.675Y28.889
X28.21Y29.354
X28.09Y29.411
X27.851Y29.317
X27.72Y29.235
X27.374Y28.889
X27.236Y28.722
X27.189Y28.666
X26.426Y29.313
X26.274Y29.136
X26.071Y28.913
X25.863Y28.694
X25.775Y28.605
X25.693Y28.432
X25.587Y28.029
X25.835Y27.399
X26.026Y27.093
X26.49Y26.63
X26.684Y26.47
X26.913Y26.274
X27.136Y26.071
X27.355Y25.863
X27.444Y25.775
X27.617Y25.693
X28.02Y25.587
X28.61Y25.819
X28.728Y25.896
X28.894Y26.054
X29.118Y26.257
X29.346Y26.454
X29.559Y26.63
X30.149Y27.22
X30.211Y27.313
X30.356Y27.617
X30.462Y28.02
X30.23Y28.61
X30.153Y28.728
X29.995Y28.894
X29.792Y29.118
X29.595Y29.346
X29.419Y29.559
X28.829Y30.149
X28.736Y30.211
X28.432Y30.356
X28.029Y30.462
X27.399Y30.214
X27.093Y30.023
X26.63Y29.559
X26.47Y29.365
X26.426Y29.313
X25.664Y29.96
X25.524Y29.799
X25.339Y29.594
X25.148Y29.393
X24.948Y29.193
X24.75Y28.777
X24.537Y27.967
X24.938Y26.947
X25.239Y26.467
X25.819Y25.885
X26.041Y25.705
X26.25Y25.524
X26.455Y25.339
X26.656Y25.148
X26.856Y24.948
X27.272Y24.75
X28.082Y24.537
X29.07Y24.926
X29.354Y25.11
X29.475Y25.227
X29.677Y25.416
X29.884Y25.599
X30.096Y25.777
X30.23Y25.885
X30.296Y25.953
X30.926Y26.582
X31.083Y26.818
X31.299Y27.272
X31.512Y28.082
X31.123Y29.07
X30.939Y29.354
X30.822Y29.475
X30.633Y29.677
X30.45Y29.884
X30.272Y30.096
X30.164Y30.23
X30.096Y30.296
X29.467Y30.926
X29.231Y31.083
X28.777Y31.299
X27.967Y31.512
X26.947Y31.111
X26.467Y30.81
X25.885Y30.23
X25.705Y30.008
X25.664Y29.96
X24.901Y30.607
X24.775Y30.461
X24.607Y30.274
X24.433Y30.092
X24.255Y29.915
X24.156Y29.819
X24.094Y29.726
X23.806Y29.122
X23.486Y27.905
X24.042Y26.495
X24.451Y25.84
X25.123Y25.167
X25.15Y25.14
X25.3Y25.019
X25.493Y24.858
X25.682Y24.691
X25.866Y24.52
X26.046Y24.345
X26.23Y24.156
X26.323Y24.094
X26.927Y23.806
X28.144Y23.486
X29.53Y24.032
X29.984Y24.326
X30.165Y24.503
X30.349Y24.675
X30.537Y24.841
X30.729Y25.003
X30.9Y25.141
X31.003Y25.246
X31.703Y25.945
X31.955Y26.323
X32.243Y26.927
X32.563Y28.144
X32.017Y29.53
X31.723Y29.984
X31.546Y30.165
X31.374Y30.349
X31.208Y30.537
X31.046Y30.729
X30.908Y30.9
X30.803Y31.003
X30.104Y31.703
X29.726Y31.955
X29.122Y32.243
X27.905Y32.563
X26.495Y32.007
X25.84Y31.598
X25.167Y30.926
X25.14Y30.899
X25.019Y30.749
X24.901Y30.607
X24.139Y31.254
X24.026Y31.123
X23.874Y30.955
X23.718Y30.791
X23.558Y30.631
X23.388Y30.47
X23.222Y30.221
X22.863Y29.467
X22.438Y27.85
X22.442Y27.827
X23.145Y26.043
X23.663Y25.214
X24.407Y24.469
X24.478Y24.395
X24.667Y24.246
X24.84Y24.1
X25.01Y23.951
X25.176Y23.797
X25.338Y23.639
X25.496Y23.477
X25.579Y23.388
X25.828Y23.222
X26.582Y22.863
X28.199Y22.438
X28.222Y22.442
X29.989Y23.138
X30.62Y23.547
X30.774Y23.701
X30.937Y23.857
X31.105Y24.009
X31.276Y24.157
X31.451Y24.301
X31.571Y24.395
X31.711Y24.538
X32.48Y25.308
X32.827Y25.828
X33.186Y26.582
X33.607Y28.181
X33.591Y28.261
X32.911Y29.989
X32.502Y30.62
X32.348Y30.774
X32.192Y30.937
X32.04Y31.105
X31.892Y31.276
X31.748Y31.451
X31.654Y31.571
X31.511Y31.711
X30.741Y32.48
X30.221Y32.827
X29.467Y33.186
X27.85Y33.611
X27.827Y33.607
X26.043Y32.904
X25.214Y32.386
X24.469Y31.642
X24.395Y31.571
X24.246Y31.382
X24.139Y31.254
X23.376Y31.901
X23.277Y31.786
X23.142Y31.636
X23.003Y31.491
X22.861Y31.348
X22.715Y31.21
X22.624Y31.126
X22.35Y30.716
X21.92Y29.813
X21.412Y27.881
X21.479Y27.543
X22.248Y25.591
X22.876Y24.587
X23.692Y23.77
X23.807Y23.65
X23.955Y23.535
X24.111Y23.408
X24.263Y23.277
X24.413Y23.142
X24.558Y23.003
X24.701Y22.861
X24.839Y22.715
X24.923Y22.624
X25.333Y22.35
X26.236Y21.92
X28.168Y21.412
X28.506Y21.479
X30.449Y22.245
X31.254Y22.763
X31.401Y22.915
X31.545Y23.056
X31.692Y23.193
X31.842Y23.326
X31.996Y23.456
X32.153Y23.582
X32.242Y23.65
X32.34Y23.753
X32.418Y23.831
X33.258Y24.671
X33.699Y25.333
X34.129Y26.236
X34.631Y28.146
X34.556Y28.54
X33.804Y30.449
X33.286Y31.254
X33.134Y31.401
X32.993Y31.545
X32.856Y31.692
X32.723Y31.842
X32.593Y31.996
X32.467Y32.153
X32.399Y32.242
X32.296Y32.34
X32.218Y32.418
X31.378Y33.258
X30.716Y33.699
X29.813Y34.129
X27.881Y34.637
X27.543Y34.57
X25.591Y33.801
X24.587Y33.173
X23.77Y32.357
X23.65Y32.242
X23.535Y32.094
X23.408Y31.938
X23.376Y31.901
X22.614Y32.548
X22.527Y32.448
X22.409Y32.317
X22.288Y32.19
X22.164Y32.065
X22.036Y31.944
X21.906Y31.826
X21.864Y31.789
X21.478Y31.21
X20.977Y30.158
X20.386Y27.912
X20.516Y27.259
X21.352Y25.139
X22.088Y23.961
X22.976Y23.072
X23.095Y22.948
X23.136Y22.903
X23.262Y22.808
X23.4Y22.698
X23.535Y22.585
X23.667Y22.469
X23.796Y22.349
X23.922Y22.226
X24.045Y22.101
X24.165Y21.972
X24.26Y21.864
X24.839Y21.478
X25.891Y20.977
X28.137Y20.386
X28.79Y20.516
X30.907Y21.35
X31.88Y21.967
X31.987Y22.082
X32.109Y22.209
X32.235Y22.332
X32.364Y22.452
X32.495Y22.569
X32.63Y22.682
X32.767Y22.792
X32.913Y22.903
X32.996Y22.992
X33.125Y23.124
X34.035Y24.034
X34.571Y24.839
X35.072Y25.891
X35.656Y28.11
X35.521Y28.82
X34.699Y30.907
X34.082Y31.88
X33.967Y31.987
X33.84Y32.109
X33.717Y32.235
X33.597Y32.364
X33.48Y32.495
X33.367Y32.63
X33.257Y32.767
X33.146Y32.913
X33.057Y32.996
X32.925Y33.125
X32.015Y34.035
X31.21Y34.571
X30.158Y35.072
X27.912Y35.663
X27.259Y35.533
X25.139Y34.697
X23.961Y33.961
X23.072Y33.073
X22.948Y32.954
X22.903Y32.913
X22.808Y32.787
X22.698Y32.649
X22.614Y32.548
X21.851Y33.195
X21.778Y33.11
X21.677Y32.998
X21.573Y32.889
X21.467Y32.782
X21.357Y32.678
X21.246Y32.577
X21.179Y32.519
X21.108Y32.458
X20.606Y31.705
X20.034Y30.503
X19.375Y27.998
Y27.869
X19.553Y26.976
X20.455Y24.687
X21.3Y23.334
X22.26Y22.373
X22.362Y22.267
X22.463Y22.156
X22.588Y22.064
X22.707Y21.972
X22.824Y21.876
X22.939Y21.778
X23.051Y21.677
X23.16Y21.573
X23.267Y21.467
X23.371Y21.357
X23.472Y21.246
X23.53Y21.179
X23.591Y21.108
X24.344Y20.606
X25.546Y20.034
X28.051Y19.375
X28.18
X29.073Y19.553
X31.362Y20.455
X32.516Y21.176
X32.61Y21.283
X32.712Y21.394
X32.817Y21.502
X32.925Y21.608
X33.035Y21.711
X33.148Y21.811
X33.263Y21.909
X33.381Y22.003
X33.501Y22.094
X33.586Y22.156
X33.67Y22.249
X33.772Y22.356
X33.832Y22.417
X34.812Y23.397
X35.443Y24.344
X36.015Y25.546
X36.674Y28.051
Y28.108
X36.486Y29.099
X35.594Y31.362
X34.873Y32.516
X34.766Y32.61
X34.655Y32.712
X34.546Y32.817
X34.441Y32.925
X34.338Y33.035
X34.238Y33.148
X34.14Y33.263
X34.046Y33.381
X33.955Y33.501
X33.893Y33.586
X33.8Y33.67
X33.693Y33.772
X33.632Y33.832
X32.652Y34.812
X31.705Y35.443
X30.503Y36.015
X27.998Y36.674
X27.869
X26.976Y36.496
X24.687Y35.594
X23.334Y34.749
X22.373Y33.789
X22.267Y33.687
X22.156Y33.586
X22.064Y33.461
X21.972Y33.342
X21.876Y33.225
X21.851Y33.195
G0Z10
X1.5Y52.134
G1Z-3.1F500
X2.437Y53.169F1000
X2.614Y53.355
X2.795Y53.536
X2.981Y53.712
X3.085Y53.807
X3.854Y54.499
X1.5
Y52.134
X3.102Y52.414
X3.249Y52.572
X3.41Y52.738
X3.575Y52.899
X3.754Y53.064
X5.822Y54.925
X5.977Y55.058
X6.135Y55.189
X6.297Y55.315
X6.461Y55.438
X6.545Y55.5
X0.5
Y49.433
X0.601Y49.575
X0.726Y49.742
X0.855Y49.907
X0.987Y50.068
X1.123Y50.226
X1.201Y50.313
X3.102Y52.414
X3.843Y51.743
X3.973Y51.883
X4.116Y52.03
X4.263Y52.173
X4.423Y52.321
X6.482Y54.174
X6.62Y54.293
X6.761Y54.409
X6.904Y54.521
X7.05Y54.63
X7.198Y54.736
X7.282Y54.794
X9.795Y56.499
X-0.499
Y46.18
X1.301Y48.833
X1.408Y48.985
X1.519Y49.134
X1.634Y49.28
X1.752Y49.423
X1.873Y49.564
X1.942Y49.642
X3.843Y51.743
X4.585Y51.072
X4.697Y51.193
X4.822Y51.322
X4.951Y51.447
X5.092Y51.578
X7.143Y53.423
X7.263Y53.527
X7.387Y53.628
X7.512Y53.727
X7.639Y53.822
X7.769Y53.915
X7.844Y53.967
X10.71Y55.911
X10.866Y56.011
X11.025Y56.108
X11.186Y56.2
X11.35Y56.287
X11.444Y56.335
X13.772Y57.499
X-1.499
Y42.177
X-0.249Y44.676
X-0.162Y44.84
X-0.071Y45.001
X0.024Y45.16
X0.123Y45.317
X0.182Y45.405
X2.122Y48.262
X2.216Y48.395
X2.313Y48.525
X2.413Y48.653
X2.516Y48.778
X2.622Y48.902
X2.684Y48.971
X4.585Y51.072
X5.326Y50.401
X5.421Y50.503
X5.528Y50.614
X5.638Y50.721
X5.761Y50.834
X7.803Y52.672
X7.907Y52.761
X8.012Y52.848
X8.119Y52.933
X8.229Y53.015
X8.34Y53.094
X8.405Y53.139
X11.261Y55.076
X11.394Y55.162
X11.53Y55.245
X11.668Y55.324
X11.809Y55.399
X11.891Y55.441
X14.749Y56.87
X14.889Y56.935
X15.031Y56.998
X15.174Y57.056
X15.318Y57.111
X15.403Y57.141
X17.758Y57.96
X17.891Y58.003
X18.024Y58.043
X18.159Y58.08
X18.294Y58.113
X18.373Y58.132
X20.028Y58.499
X-2.499
Y35.821
X-2.333Y36.82
X-2.306Y36.96
X-2.276Y37.1
X-2.243Y37.239
X-2.206Y37.378
X-2.166Y37.515
X-2.123Y37.651
X-2.097Y37.73
X-1.075Y40.693
X-1.02Y40.84
X-0.961Y40.987
X-0.898Y41.132
X-0.832Y41.275
X-0.791Y41.358
X0.638Y44.217
X0.713Y44.357
X0.791Y44.496
X0.873Y44.632
X0.958Y44.766
X1.01Y44.844
X2.942Y47.691
X3.023Y47.805
X3.106Y47.916
X3.192Y48.026
X3.28Y48.134
X3.371Y48.239
X3.425Y48.3
X5.326Y50.401
G0Z10
X52.135Y54.499
G1Z-3.1F500
X53.532Y53.245F1000
X53.712Y53.076
X53.888Y52.903
X54.06Y52.725
X54.226Y52.543
X54.389Y52.357
X54.499Y52.225
Y54.499
X52.135
X52.784Y52.574
X52.937Y52.434
X53.097Y52.279
X53.253Y52.121
X53.406Y51.959
X53.554Y51.794
X53.698Y51.624
X53.838Y51.452
X53.974Y51.275
X54.105Y51.096
X54.162Y51.015
X54.605Y50.571
X54.752Y50.417
X54.896Y50.26
X55.035Y50.099
X55.171Y49.936
X55.303Y49.769
X55.431Y49.598
X55.5Y49.504
Y55.5
X49.5
X49.63Y55.393
X49.793Y55.254
X49.882Y55.176
X52.784Y52.574
X52.117Y51.829
X52.251Y51.706
X52.394Y51.569
X52.533Y51.428
X52.668Y51.284
X52.8Y51.137
X52.928Y50.987
X53.052Y50.833
X53.173Y50.676
X53.29Y50.517
X53.39Y50.373
X53.89Y49.872
X54.02Y49.736
X54.148Y49.596
X54.272Y49.453
X54.393Y49.308
X54.51Y49.159
X54.624Y49.008
X54.734Y48.854
X54.794Y48.767
X56.499Y46.254
Y56.499
X46.259
X48.381Y55.084
X48.537Y54.975
X48.691Y54.862
X48.842Y54.746
X48.99Y54.626
X49.135Y54.502
X49.215Y54.431
X52.117Y51.829
X51.449Y51.085
X51.566Y50.978
X51.69Y50.858
X51.812Y50.735
X51.93Y50.609
X52.046Y50.48
X52.158Y50.349
X52.267Y50.214
X52.372Y50.077
X52.474Y49.938
X52.573Y49.796
X52.614Y49.735
X53.174Y49.174
X53.289Y49.054
X53.4Y48.932
X53.509Y48.807
X53.615Y48.68
X53.717Y48.55
X53.817Y48.417
X53.913Y48.283
X53.967Y48.205
X55.911Y45.339
X56.011Y45.183
X56.108Y45.024
X56.2Y44.863
X56.287Y44.699
X56.335Y44.605
X57.499Y42.277
Y57.499
X42.277
X44.672Y56.302
X44.825Y56.22
X44.977Y56.135
X45.127Y56.046
X45.274Y55.953
X45.357Y55.899
X47.817Y54.259
X47.953Y54.163
X48.088Y54.065
X48.22Y53.963
X48.349Y53.858
X48.476Y53.75
X48.547Y53.686
X51.449Y51.085
X50.78Y50.341
X50.88Y50.25
X50.987Y50.147
X51.091Y50.042
X51.193Y49.934
X51.291Y49.824
X51.388Y49.711
X51.481Y49.596
X51.571Y49.478
X51.659Y49.359
X51.744Y49.237
X51.833Y49.102
X52.459Y48.475
X52.557Y48.373
X52.653Y48.268
X52.746Y48.161
X52.836Y48.052
X52.924Y47.94
X53.01Y47.827
X53.092Y47.712
X53.139Y47.644
X55.076Y44.788
X55.162Y44.655
X55.245Y44.519
X55.324Y44.381
X55.399Y44.24
X55.441Y44.158
X56.87Y41.299
X56.936Y41.158
X56.999Y41.014
X57.058Y40.87
X57.114Y40.723
X57.144Y40.637
X58.064Y37.978
X58.11Y37.836
X58.152Y37.693
X58.19Y37.549
X58.225Y37.404
X58.244Y37.32
X58.499Y36.115
Y58.499
X36.244
X37.017Y58.344
X37.175Y58.309
X37.331Y58.269
X37.487Y58.225
X37.641Y58.177
X37.73Y58.147
X40.692Y57.125
X40.84Y57.07
X40.987Y57.011
X41.132Y56.948
X41.275Y56.882
X41.358Y56.841
X44.213Y55.413
X44.345Y55.343
X44.475Y55.27
X44.604Y55.194
X44.73Y55.115
X44.803Y55.067
X47.252Y53.433
X47.369Y53.352
X47.484Y53.267
X47.597Y53.18
X47.708Y53.09
X47.817Y52.997
X47.88Y52.942
X50.78Y50.341
G0Z10
X54.495Y3.909
G1Z-3.1F500
X53.245Y2.517F1000
X53.076Y2.337
X52.903Y2.161
X52.725Y1.989
X52.543Y1.823
X52.357Y1.66
X52.163Y1.5
X54.498
X54.495Y3.909
X52.574Y3.265
X52.434Y3.112
X52.279Y2.952
X52.121Y2.796
X51.959Y2.643
X51.794Y2.495
X51.624Y2.351
X51.452Y2.211
X51.275Y2.075
X51.096Y1.944
X51.015Y1.887
X50.571Y1.444
X50.417Y1.297
X50.26Y1.153
X50.099Y1.014
X49.936Y0.878
X49.769Y0.746
X49.598Y0.618
X49.433Y0.5
X55.5
Y6.549
X55.393Y6.419
X55.254Y6.256
X55.176Y6.167
X52.574Y3.265
X51.829Y3.932
X51.706Y3.798
X51.569Y3.655
X51.428Y3.516
X51.284Y3.381
X51.137Y3.249
X50.987Y3.121
X50.833Y2.997
X50.676Y2.876
X50.517Y2.759
X50.373Y2.659
X49.872Y2.159
X49.736Y2.029
X49.596Y1.901
X49.453Y1.777
X49.308Y1.656
X49.159Y1.539
X49.008Y1.425
X48.854Y1.315
X48.767Y1.255
X46.18Y-0.499
X56.499
Y9.79
X55.084Y7.668
X54.975Y7.512
X54.862Y7.358
X54.746Y7.207
X54.626Y7.059
X54.502Y6.914
X54.431Y6.834
X51.829Y3.932
X51.085Y4.6
X50.978Y4.483
X50.858Y4.359
X50.735Y4.237
X50.609Y4.119
X50.48Y4.003
X50.349Y3.891
X50.214Y3.782
X50.077Y3.677
X49.938Y3.575
X49.796Y3.476
X49.735Y3.435
X49.174Y2.875
X49.054Y2.76
X48.932Y2.649
X48.807Y2.54
X48.68Y2.434
X48.55Y2.332
X48.417Y2.232
X48.283Y2.136
X48.205Y2.082
X45.339Y0.138
X45.183Y0.038
X45.024Y-0.058
X44.863Y-0.15
X44.699Y-0.237
X44.605Y-0.285
X42.177Y-1.499
X57.499
Y13.772
X56.302Y11.377
X56.22Y11.224
X56.135Y11.072
X56.046Y10.922
X55.953Y10.775
X55.899Y10.692
X54.259Y8.232
X54.163Y8.096
X54.065Y7.961
X53.963Y7.829
X53.858Y7.7
X53.75Y7.573
X53.686Y7.502
X51.085Y4.6
X50.341Y5.269
X50.25Y5.169
X50.147Y5.062
X50.042Y4.958
X49.934Y4.856
X49.824Y4.758
X49.711Y4.661
X49.596Y4.568
X49.478Y4.478
X49.359Y4.39
X49.237Y4.305
X49.102Y4.216
X48.475Y3.59
X48.373Y3.492
X48.268Y3.396
X48.161Y3.303
X48.052Y3.213
X47.94Y3.125
X47.827Y3.039
X47.712Y2.957
X47.644Y2.91
X44.788Y0.973
X44.655Y0.887
X44.519Y0.804
X44.381Y0.725
X44.24Y0.65
X44.158Y0.608
X41.3Y-0.82
X41.16Y-0.885
X41.018Y-0.948
X40.875Y-1.006
X40.731Y-1.061
X40.646Y-1.091
X38.291Y-1.91
X38.158Y-1.953
X38.025Y-1.993
X37.89Y-2.03
X37.755Y-2.063
X37.676Y-2.082
X35.796Y-2.499
X58.499
Y19.805
X58.344Y19.032
X58.309Y18.874
X58.269Y18.718
X58.225Y18.562
X58.177Y18.408
X58.147Y18.319
X57.125Y15.357
X57.07Y15.209
X57.011Y15.062
X56.948Y14.917
X56.882Y14.774
X56.841Y14.691
X55.413Y11.836
X55.343Y11.704
X55.27Y11.574
X55.194Y11.445
X55.115Y11.319
X55.067Y11.246
X53.433Y8.797
X53.352Y8.68
X53.267Y8.565
X53.18Y8.452
X53.09Y8.341
X52.997Y8.232
X52.942Y8.169
X50.341Y5.269
X49.597Y5.937
X49.522Y5.855
X49.437Y5.766
X49.349Y5.679
X49.259Y5.594
X49.167Y5.512
X49.073Y5.432
X48.977Y5.354
X48.879Y5.278
X48.78Y5.205
X48.678Y5.135
X48.575Y5.067
X48.475Y5.004
X47.776Y4.306
X47.691Y4.224
X47.604Y4.144
X47.515Y4.066
X47.424Y3.991
X47.331Y3.918
X47.236Y3.846
X47.14Y3.777
X47.082Y3.737
X44.238Y1.808
X44.127Y1.736
X44.013Y1.667
X43.898Y1.601
X43.781Y1.539
X43.711Y1.502
X40.864Y0.08
X40.748Y0.025
X40.63Y-0.026
X40.51Y-0.075
X40.39Y-0.121
X40.317Y-0.147
X37.973Y-0.962
X37.863Y-0.998
X37.752Y-1.031
X37.64Y-1.062
X37.527Y-1.09
X37.459Y-1.105
X33.813Y-1.915
X33.697Y-1.939
X33.581Y-1.959
X33.464Y-1.977
X33.347Y-1.992
X33.23Y-2.004
X33.112Y-2.013
X32.994Y-2.02
X32.924Y-2.022
X26.173Y-2.223
X26.047Y-2.224
X25.92Y-2.222
X25.794Y-2.217
X25.718Y-2.212
X22.868Y-2.008
X22.742Y-1.996
X22.617Y-1.981
X22.492Y-1.963
X22.368Y-1.942
X22.294Y-1.927
X19.241Y-1.316
X19.11Y-1.287
X18.979Y-1.254
X18.85Y-1.217
X18.721Y-1.177
X18.645Y-1.151
X15.695Y-0.134
X15.572Y-0.088
X15.449Y-0.039
X15.329Y0.012
X15.209Y0.068
X15.138Y0.102
X12.291Y1.526
X12.174Y1.588
X12.059Y1.654
X11.945Y1.722
X11.833Y1.793
X11.767Y1.837
X8.927Y3.764
X8.83Y3.834
X8.734Y3.905
X8.64Y3.979
X8.547Y4.056
X8.457Y4.134
X8.403Y4.182
X6.065Y6.317
X5.971Y6.407
X5.879Y6.5
X5.79Y6.595
X5.737Y6.653
X4.103Y8.492
X4.019Y8.591
X3.937Y8.693
X3.858Y8.797
X3.782Y8.903
X3.737Y8.967
X1.808Y11.811
X1.736Y11.922
X1.667Y12.036
X1.601Y12.151
X1.539Y12.268
X1.502Y12.338
X0.079Y15.186
X0.023Y15.305
X-0.029Y15.425
X-0.078Y15.547
X-0.125Y15.67
X-0.151Y15.745
X-1.169Y18.696
X-1.209Y18.824
X-1.247Y18.953
X-1.281Y19.084
X-1.311Y19.215
X-1.327Y19.294
X-1.937Y22.343
X-1.959Y22.468
X-1.978Y22.592
X-1.993Y22.717
X-2.006Y22.843
X-2.012Y22.918
X-2.215Y25.763
X-2.22Y25.875
X-2.224Y25.986
Y26.098
Y26.165
X-2.122Y31.714
X-2.118Y31.837
X-2.11Y31.959
X-2.099Y32.081
X-2.085Y32.203
X-2.068Y32.324
X-2.056Y32.396
X-1.348Y36.643
X-1.326Y36.761
X-1.301Y36.877
X-1.274Y36.993
X-1.243Y37.108
X-1.21Y37.223
X-1.174Y37.337
X-1.151Y37.404
X-0.134Y40.354
X-0.088Y40.477
X-0.039Y40.6
X0.012Y40.72
X0.068Y40.84
X0.102Y40.911
X1.526Y43.758
X1.588Y43.875
X1.654Y43.99
X1.722Y44.104
X1.793Y44.216
X1.837Y44.282
X3.763Y47.12
X3.831Y47.215
X3.9Y47.308
X3.971Y47.399
X4.045Y47.489
X4.121Y47.577
X4.167Y47.629
X6.101Y49.767
X6.19Y49.86
X6.28Y49.951
X6.373Y50.039
X6.43Y50.091
X8.464Y51.921
X8.55Y51.996
X8.638Y52.068
X8.727Y52.138
X8.818Y52.207
X8.911Y52.273
X8.967Y52.312
X11.811Y54.241
X11.922Y54.313
X12.036Y54.382
X12.151Y54.448
X12.268Y54.51
X12.338Y54.547
X15.185Y55.969
X15.301Y56.024
X15.419Y56.076
X15.539Y56.125
X15.659Y56.171
X15.732Y56.197
X18.076Y57.012
X18.186Y57.048
X18.297Y57.081
X18.409Y57.112
X18.522Y57.14
X18.59Y57.155
X22.236Y57.965
X22.352Y57.989
X22.468Y58.009
X22.585Y58.027
X22.702Y58.042
X22.819Y58.054
X22.937Y58.063
X23.055Y58.07
X23.125Y58.072
X29.876Y58.273
X30.002Y58.274
X30.129Y58.272
X30.255Y58.267
X30.331Y58.262
X33.181Y58.058
X33.307Y58.046
X33.432Y58.031
X33.557Y58.013
X33.681Y57.992
X33.755Y57.977
X36.808Y57.366
X36.939Y57.337
X37.07Y57.304
X37.199Y57.267
X37.328Y57.227
X37.404Y57.201
X40.354Y56.184
X40.477Y56.138
X40.6Y56.089
X40.72Y56.037
X40.84Y55.981
X40.911Y55.947
X43.755Y54.524
X43.865Y54.466
X43.973Y54.405
X44.08Y54.342
X44.186Y54.276
X44.248Y54.235
X46.687Y52.608
X46.785Y52.54
X46.881Y52.469
X46.975Y52.397
X47.068Y52.322
X47.159Y52.245
X47.212Y52.197
X50.149Y49.564
X50.239Y49.48
X50.327Y49.393
X50.413Y49.304
X50.496Y49.213
X50.578Y49.12
X50.657Y49.025
X50.733Y48.929
X50.808Y48.83
X50.879Y48.729
X50.949Y48.627
X51.015Y48.523
X51.045Y48.475
X51.743Y47.776
X51.825Y47.691
X51.905Y47.604
X51.983Y47.515
X52.058Y47.424
X52.131Y47.331
X52.203Y47.236
X52.272Y47.14
X52.312Y47.082
X54.241Y44.238
X54.313Y44.127
X54.382Y44.013
X54.448Y43.898
X54.51Y43.781
X54.547Y43.711
X55.97Y40.864
X56.025Y40.746
X56.078Y40.626
X56.127Y40.506
X56.173Y40.384
X56.199Y40.31
X57.115Y37.663
X57.153Y37.545
X57.188Y37.426
X57.221Y37.306
X57.25Y37.185
X57.266Y37.112
X57.976Y33.762
X58Y33.636
X58.02Y33.51
X58.037Y33.383
X58.051Y33.256
X58.062Y33.128
X58.069Y33
X58.072Y32.924
X58.273Y26.173
X58.274Y26.047
X58.272Y25.92
X58.267Y25.794
X58.262Y25.718
X58.058Y22.868
X58.046Y22.742
X58.031Y22.617
X58.013Y22.492
X57.992Y22.368
X57.977Y22.294
X57.366Y19.241
X57.337Y19.11
X57.304Y18.979
X57.267Y18.85
X57.227Y18.721
X57.201Y18.645
X56.184Y15.695
X56.138Y15.572
X56.089Y15.449
X56.037Y15.329
X55.981Y15.209
X55.947Y15.138
X54.524Y12.294
X54.466Y12.184
X54.405Y12.076
X54.342Y11.969
X54.276Y11.863
X54.235Y11.801
X52.608Y9.362
X52.54Y9.264
X52.469Y9.168
X52.397Y9.074
X52.322Y8.981
X52.245Y8.89
X52.197Y8.837
X49.597Y5.937
G0Z10
X59.499Y-3.499
G1Z-3.1F500
Y59.499F1000
X-3.499
Y-3.499
X59.499
G0Z10
X34.262Y21.41
G1Z-3.1F500
X34.321Y21.477F1000
X34.403Y21.568
X34.487Y21.658
X34.539Y21.71
X35.589Y22.76
X36.315Y23.849
X36.959Y25.201
X37.675Y27.921
Y28.203
X37.451Y29.378
X36.491Y31.814
X35.64Y33.176
X35.483Y33.311
X35.389Y33.395
X35.298Y33.481
X35.208Y33.57
X35.121Y33.661
X35.037Y33.754
X34.954Y33.849
X34.874Y33.946
X34.797Y34.045
X34.722Y34.146
X34.639Y34.263
X34.572Y34.321
X34.481Y34.403
X34.391Y34.487
X34.339Y34.539
X33.289Y35.589
X32.2Y36.315
X30.848Y36.959
X28.128Y37.675
X27.77
X26.692Y37.459
X24.235Y36.491
X22.707Y35.536
X21.675Y34.504
X21.586Y34.42
X21.496Y34.337
X21.409Y34.261
X21.342Y34.166
X21.267Y34.065
X21.19Y33.965
X21.111Y33.868
X21.029Y33.773
X20.945Y33.679
X20.858Y33.588
X20.769Y33.499
X20.678Y33.412
X20.585Y33.328
X20.528Y33.278
X20.352Y33.127
X19.734Y32.2
X19.09Y30.848
X18.375Y28.128
Y27.77
X18.59Y26.692
X19.558Y24.235
X20.513Y22.707
X21.545Y21.675
X21.629Y21.586
X21.712Y21.496
X21.788Y21.409
X21.883Y21.342
X21.984Y21.267
X22.084Y21.19
X22.181Y21.111
X22.276Y21.029
X22.37Y20.945
X22.461Y20.858
X22.55Y20.769
X22.637Y20.678
X22.721Y20.585
X22.771Y20.528
X22.922Y20.352
X23.849Y19.734
X25.201Y19.09
X27.921Y18.375
X28.279
X29.357Y18.59
X31.814Y19.558
X33.176Y20.409
X33.311Y20.566
X33.395Y20.66
X33.481Y20.751
X33.57Y20.841
X33.661Y20.928
X33.754Y21.012
X33.849Y21.095
X33.946Y21.175
X34.045Y21.252
X34.146Y21.327
X34.262Y21.41
X35.026Y20.764
X35.07Y20.815
X35.136Y20.888
X35.203Y20.959
X35.246Y21.003
X36.366Y22.123
X37.187Y23.354
X37.902Y24.855
X38.674Y27.792
Y28.297
X38.415Y29.657
X37.388Y32.266
X36.407Y33.836
X36.143Y34.062
X36.068Y34.129
X35.995Y34.198
X35.923Y34.269
X35.854Y34.342
X35.786Y34.416
X35.72Y34.492
X35.656Y34.57
X35.594Y34.649
X35.534Y34.729
X35.379Y34.949
X35.309Y35.006
X35.234Y35.07
X35.161Y35.136
X35.09Y35.203
X35.046Y35.246
X33.926Y36.366
X32.695Y37.187
X31.194Y37.902
X28.257Y38.674
X27.671
X26.409Y38.422
X23.783Y37.388
X22.081Y36.324
X20.977Y35.22
X20.906Y35.152
X20.833Y35.086
X20.759Y35.022
X20.683Y34.959
X20.668Y34.947
X20.53Y34.75
X20.47Y34.669
X20.409Y34.589
X20.345Y34.511
X20.28Y34.435
X20.212Y34.36
X20.143Y34.287
X20.072Y34.216
X20Y34.146
X19.925Y34.079
X19.878Y34.037
X19.597Y33.797
X18.862Y32.695
X18.147Y31.194
X17.375Y28.257
Y27.671
X17.627Y26.409
X18.661Y23.783
X19.725Y22.081
X20.829Y20.977
X20.897Y20.906
X20.963Y20.833
X21.027Y20.759
X21.09Y20.683
X21.102Y20.668
X21.299Y20.53
X21.38Y20.47
X21.46Y20.409
X21.538Y20.345
X21.614Y20.28
X21.689Y20.212
X21.762Y20.143
X21.833Y20.072
X21.903Y20
X21.97Y19.925
X22.012Y19.878
X22.252Y19.597
X23.354Y18.862
X24.855Y18.147
X27.792Y17.375
X28.378
X29.64Y17.627
X32.266Y18.661
X33.836Y19.642
X34.062Y19.906
X34.129Y19.981
X34.198Y20.054
X34.269Y20.126
X34.342Y20.195
X34.416Y20.263
X34.492Y20.329
X34.57Y20.393
X34.649Y20.455
X34.729Y20.515
X34.949Y20.67
X35.006Y20.74
X35.026Y20.764
G0Z10
X47.858Y5.801
G1Z-3.1F500
X47.078Y5.021F1000
X47.009Y4.956
X46.94Y4.892
X46.868Y4.83
X46.796Y4.769
X46.721Y4.71
X46.646Y4.653
X46.569Y4.598
X46.521Y4.565
X43.687Y2.642
X43.598Y2.585
X43.508Y2.53
X43.416Y2.477
X43.322Y2.427
X43.263Y2.397
X40.429Y0.98
X40.335Y0.936
X40.241Y0.894
X40.146Y0.855
X40.049Y0.818
X39.989Y0.797
X37.656Y-0.014
X37.567Y-0.042
X37.478Y-0.069
X37.389Y-0.094
X37.299Y-0.116
X37.242Y-0.129
X33.608Y-0.937
X33.515Y-0.955
X33.422Y-0.972
X33.329Y-0.986
X33.235Y-0.998
X33.141Y-1.008
X33.047Y-1.015
X32.953Y-1.02
X32.894Y-1.023
X26.156Y-1.224
X26.055
X25.954Y-1.223
X25.853Y-1.218
X25.79Y-1.214
X22.952Y-1.011
X22.851Y-1.002
X22.751Y-0.99
X22.651Y-0.976
X22.552Y-0.959
X22.49Y-0.947
X19.45Y-0.339
X19.345Y-0.315
X19.241Y-0.289
X19.137Y-0.259
X19.034Y-0.227
X18.971Y-0.206
X16.033Y0.806
X15.935Y0.843
X15.837Y0.882
X15.74Y0.924
X15.645Y0.968
X15.586Y0.997
X12.75Y2.415
X12.656Y2.464
X12.564Y2.516
X12.473Y2.571
X12.384Y2.628
X12.328Y2.665
X9.499Y4.585
X9.421Y4.64
X9.344Y4.698
X9.268Y4.757
X9.194Y4.818
X9.122Y4.881
X9.077Y4.921
X6.749Y7.047
X6.673Y7.119
X6.6Y7.193
X6.529Y7.269
X6.485Y7.317
X4.859Y9.146
X4.792Y9.226
X4.726Y9.307
X4.663Y9.39
X4.602Y9.475
X4.565Y9.528
X2.642Y12.362
X2.585Y12.451
X2.53Y12.541
X2.477Y12.633
X2.427Y12.727
X2.397Y12.786
X0.979Y15.621
X0.934Y15.716
X0.892Y15.813
X0.852Y15.91
X0.815Y16.009
X0.793Y16.071
X-0.219Y19.009
X-0.252Y19.111
X-0.282Y19.215
X-0.309Y19.319
X-0.333Y19.424
X-0.347Y19.49
X-0.954Y22.527
X-0.972Y22.626
X-0.987Y22.726
X-0.999Y22.826
X-1.009Y22.927
X-1.014Y22.99
X-1.217Y25.823
X-1.221Y25.912
X-1.224Y26.002
Y26.091
Y26.147
X-1.123Y31.684
X-1.119Y31.782
X-1.113Y31.88
X-1.104Y31.977
X-1.093Y32.075
X-1.08Y32.172
X-1.07Y32.232
X-0.364Y36.467
X-0.346Y36.561
X-0.326Y36.654
X-0.304Y36.747
X-0.28Y36.839
X-0.254Y36.931
X-0.225Y37.022
X-0.206Y37.078
X0.806Y40.016
X0.843Y40.114
X0.882Y40.212
X0.924Y40.309
X0.968Y40.404
X0.997Y40.463
X2.415Y43.299
X2.464Y43.393
X2.516Y43.485
X2.571Y43.576
X2.628Y43.665
X2.665Y43.721
X4.584Y46.549
X4.638Y46.625
X4.693Y46.699
X4.751Y46.773
X4.809Y46.844
X4.87Y46.915
X4.908Y46.958
X6.834Y49.087
X6.905Y49.161
X6.977Y49.234
X7.051Y49.304
X7.099Y49.348
X9.124Y51.17
X9.193Y51.23
X9.263Y51.288
X9.335Y51.344
X9.408Y51.399
X9.482Y51.452
X9.528Y51.484
X12.362Y53.407
X12.451Y53.464
X12.541Y53.519
X12.633Y53.572
X12.727Y53.622
X12.786Y53.652
X15.62Y55.069
X15.714Y55.113
X15.808Y55.155
X15.903Y55.194
X16Y55.231
X16.06Y55.252
X18.393Y56.064
X18.482Y56.092
X18.571Y56.119
X18.66Y56.144
X18.75Y56.166
X18.807Y56.179
X22.441Y56.987
X22.534Y57.005
X22.627Y57.022
X22.72Y57.036
X22.814Y57.048
X22.908Y57.058
X23.002Y57.065
X23.096Y57.07
X23.155Y57.073
X29.893Y57.274
X29.994
X30.095Y57.273
X30.196Y57.268
X30.259Y57.264
X33.097Y57.061
X33.198Y57.052
X33.298Y57.04
X33.398Y57.026
X33.497Y57.009
X33.559Y56.997
X36.599Y56.389
X36.704Y56.365
X36.808Y56.339
X36.912Y56.309
X37.015Y56.277
X37.078Y56.256
X40.016Y55.243
X40.114Y55.206
X40.212Y55.167
X40.309Y55.125
X40.404Y55.081
X40.463Y55.052
X43.297Y53.635
X43.385Y53.589
X43.471Y53.54
X43.557Y53.49
X43.641Y53.437
X43.693Y53.403
X46.123Y51.783
X46.201Y51.728
X46.278Y51.672
X46.353Y51.614
X46.427Y51.554
X46.5Y51.492
X46.545Y51.453
X49.472Y48.828
X49.544Y48.76
X49.615Y48.691
X49.683Y48.62
X49.75Y48.547
X49.815Y48.473
X49.879Y48.397
X49.94Y48.32
X49.999Y48.241
X50.057Y48.16
X50.112Y48.079
X50.166Y47.995
X50.217Y47.911
X50.248Y47.858
X51.028Y47.078
X51.093Y47.009
X51.157Y46.94
X51.219Y46.868
X51.28Y46.796
X51.339Y46.721
X51.396Y46.646
X51.451Y46.569
X51.484Y46.521
X53.407Y43.687
X53.464Y43.598
X53.519Y43.508
X53.572Y43.416
X53.622Y43.322
X53.652Y43.263
X55.069Y40.428
X55.114Y40.334
X55.156Y40.238
X55.196Y40.142
X55.233Y40.044
X55.254Y39.983
X56.166Y37.348
X56.197Y37.253
X56.225Y37.158
X56.251Y37.062
X56.274Y36.965
X56.287Y36.905
X56.995Y33.567
X57.014Y33.466
X57.031Y33.365
X57.044Y33.264
X57.056Y33.162
X57.064Y33.06
X57.07Y32.958
X57.073Y32.894
X57.274Y26.156
Y26.055
X57.273Y25.954
X57.268Y25.853
X57.264Y25.79
X57.061Y22.952
X57.052Y22.851
X57.04Y22.751
X57.026Y22.651
X57.009Y22.552
X56.997Y22.49
X56.389Y19.45
X56.365Y19.345
X56.339Y19.241
X56.309Y19.137
X56.277Y19.034
X56.256Y18.971
X55.243Y16.033
X55.206Y15.935
X55.167Y15.837
X55.125Y15.74
X55.081Y15.645
X55.052Y15.586
X53.635Y12.752
X53.589Y12.664
X53.54Y12.578
X53.49Y12.492
X53.437Y12.408
X53.403Y12.356
X51.783Y9.926
X51.728Y9.848
X51.672Y9.771
X51.614Y9.696
X51.554Y9.622
X51.492Y9.549
X51.453Y9.504
X48.828Y6.577
X48.76Y6.505
X48.691Y6.434
X48.62Y6.366
X48.547Y6.299
X48.473Y6.234
X48.397Y6.17
X48.32Y6.109
X48.241Y6.05
X48.16Y5.992
X48.079Y5.937
X47.995Y5.883
X47.911Y5.832
X47.858Y5.801
G0Z10
X60.5Y-4.499
G1Z-3.1F500
Y60.5F1000
X-4.499
Y-4.499
X60.5
X61.499Y-5.5
Y61.499
X-5.5
Y-5.5
X61.499
G0Z10
X48.05Y7.208
G1Z-3.1F500
X48.015Y7.173F1000
X47.963Y7.121
X47.909Y7.07
X47.854Y7.02
X47.797Y6.972
X47.74Y6.925
X47.681Y6.88
X47.622Y6.836
X47.561Y6.793
X47.499Y6.753
X47.436Y6.713
X47.373Y6.675
X47.308Y6.639
X47.252Y6.61
X46.379Y5.737
X46.328Y5.687
X46.276Y5.639
X46.222Y5.593
X46.168Y5.547
X46.112Y5.503
X46.055Y5.46
X45.998Y5.419
X45.959Y5.392
X43.137Y3.477
X43.07Y3.434
X43.002Y3.393
X42.933Y3.353
X42.863Y3.315
X42.816Y3.291
X39.993Y1.88
X39.923Y1.847
X39.852Y1.815
X39.781Y1.786
X39.709Y1.758
X39.66Y1.741
X37.338Y0.934
X37.272Y0.912
X37.205Y0.892
X37.138Y0.873
X37.071Y0.856
X37.025Y0.846
X33.402Y0.041
X33.333Y0.027
X33.263Y0.015
X33.193Y0.004
X33.123Y-0.004
X33.052Y-0.012
X32.982Y-0.017
X32.911Y-0.021
X32.864Y-0.023
X26.139Y-0.224
X26.063
X25.987Y-0.223
X25.911Y-0.22
X25.861Y-0.217
X23.036Y-0.015
X22.96Y-0.008
X22.885Y0
X22.81Y0.011
X22.736Y0.023
X22.686Y0.033
X19.66Y0.638
X19.581Y0.656
X19.503Y0.676
X19.425Y0.697
X19.348Y0.721
X19.297Y0.738
X16.372Y1.747
X16.298Y1.774
X16.224Y1.804
X16.152Y1.835
X16.08Y1.868
X16.033Y1.891
X13.209Y3.303
X13.139Y3.34
X13.07Y3.379
X13.001Y3.42
X12.934Y3.463
X12.89Y3.492
X10.07Y5.406
X10.012Y5.447
X9.954Y5.49
X9.897Y5.534
X9.842Y5.58
X9.787Y5.627
X9.752Y5.659
X7.433Y7.777
X7.376Y7.831
X7.321Y7.886
X7.267Y7.943
X7.232Y7.981
X5.615Y9.801
X5.564Y9.861
X5.515Y9.922
X5.468Y9.984
X5.422Y10.047
X5.392Y10.09
X3.477Y12.912
X3.434Y12.979
X3.393Y13.047
X3.353Y13.116
X3.315Y13.186
X3.291Y13.233
X1.88Y16.056
X1.846Y16.128
X1.814Y16.2
X1.784Y16.273
X1.756Y16.347
X1.738Y16.397
X0.73Y19.322
X0.705Y19.399
X0.683Y19.477
X0.662Y19.555
X0.644Y19.633
X0.633Y19.686
X0.028Y22.711
X0.015Y22.785
X0.003Y22.86
X-0.005Y22.935
X-0.013Y23.01
X-0.017Y23.061
X-0.218Y25.883
X-0.222Y25.95
X-0.224Y26.017
Y26.084
Y26.129
X-0.123Y31.654
X-0.121Y31.727
X-0.116Y31.8
X-0.11Y31.873
X-0.101Y31.947
X-0.091Y32.019
X-0.084Y32.068
X0.619Y36.291
X0.633Y36.362
X0.647Y36.431
X0.664Y36.501
X0.682Y36.57
X0.702Y36.639
X0.723Y36.707
X0.738Y36.752
X1.747Y39.677
X1.774Y39.751
X1.804Y39.825
X1.835Y39.897
X1.868Y39.969
X1.891Y40.016
X3.303Y42.84
X3.34Y42.91
X3.379Y42.979
X3.42Y43.048
X3.463Y43.115
X3.492Y43.159
X5.405Y45.978
X5.445Y46.035
X5.487Y46.091
X5.53Y46.146
X5.574Y46.2
X5.619Y46.253
X5.65Y46.287
X7.567Y48.406
X7.62Y48.462
X7.674Y48.517
X7.73Y48.57
X7.768Y48.604
X9.785Y50.42
X9.836Y50.464
X9.889Y50.508
X9.942Y50.55
X9.997Y50.591
X10.053Y50.631
X10.09Y50.657
X12.912Y52.572
X12.979Y52.615
X13.047Y52.656
X13.116Y52.696
X13.186Y52.734
X13.233Y52.758
X16.056Y54.169
X16.126Y54.202
X16.197Y54.234
X16.268Y54.263
X16.34Y54.291
X16.389Y54.308
X18.711Y55.115
X18.777Y55.137
X18.844Y55.157
X18.911Y55.176
X18.978Y55.193
X19.024Y55.203
X22.647Y56.008
X22.716Y56.022
X22.786Y56.034
X22.856Y56.045
X22.926Y56.054
X22.997Y56.062
X23.067Y56.067
X23.138Y56.071
X23.185Y56.073
X29.91Y56.274
X29.986
X30.062Y56.273
X30.138Y56.27
X30.188Y56.267
X33.013Y56.065
X33.089Y56.058
X33.164Y56.049
X33.239Y56.038
X33.313Y56.026
X33.363Y56.016
X36.389Y55.411
X36.468Y55.393
X36.546Y55.373
X36.624Y55.352
X36.701Y55.328
X36.752Y55.311
X39.677Y54.302
X39.751Y54.275
X39.825Y54.245
X39.897Y54.214
X39.969Y54.181
X40.016Y54.158
X42.838Y52.747
X42.904Y52.712
X42.969Y52.675
X43.034Y52.637
X43.097Y52.598
X43.139Y52.571
X45.558Y50.957
X45.617Y50.917
X45.675Y50.874
X45.731Y50.831
X45.787Y50.786
X45.841Y50.74
X45.877Y50.708
X48.795Y48.092
X48.85Y48.041
X48.902Y47.989
X48.954Y47.936
X49.004Y47.881
X49.053Y47.826
X49.101Y47.769
X49.147Y47.711
X49.191Y47.652
X49.235Y47.591
X49.276Y47.53
X49.316Y47.468
X49.355Y47.405
X49.392Y47.34
X49.427Y47.275
X49.439Y47.252
X50.312Y46.379
X50.362Y46.328
X50.41Y46.276
X50.456Y46.222
X50.502Y46.168
X50.546Y46.112
X50.589Y46.055
X50.63Y45.998
X50.657Y45.959
X52.572Y43.137
X52.615Y43.07
X52.656Y43.002
X52.696Y42.933
X52.734Y42.863
X52.758Y42.816
X54.169Y39.993
X54.203Y39.922
X54.234Y39.85
X54.264Y39.778
X54.292Y39.705
X54.309Y39.656
X55.217Y37.032
X55.24Y36.961
X55.262Y36.89
X55.281Y36.818
X55.298Y36.746
X55.309Y36.697
X56.014Y33.372
X56.029Y33.296
X56.041Y33.221
X56.052Y33.145
X56.06Y33.068
X56.067Y32.992
X56.071Y32.915
X56.073Y32.864
X56.274Y26.139
Y26.063
X56.273Y25.987
X56.27Y25.911
X56.267Y25.861
X56.065Y23.036
X56.058Y22.96
X56.049Y22.885
X56.038Y22.81
X56.026Y22.736
X56.016Y22.686
X55.411Y19.66
X55.393Y19.581
X55.373Y19.503
X55.352Y19.425
X55.328Y19.348
X55.311Y19.297
X54.302Y16.372
X54.275Y16.298
X54.245Y16.224
X54.214Y16.152
X54.181Y16.08
X54.158Y16.033
X52.747Y13.211
X52.712Y13.145
X52.675Y13.08
X52.637Y13.015
X52.598Y12.952
X52.571Y12.91
X50.957Y10.491
X50.917Y10.432
X50.874Y10.374
X50.831Y10.318
X50.786Y10.262
X50.74Y10.208
X50.708Y10.172
X48.092Y7.254
X48.05Y7.208
G0Z10
X35.647Y19.937
G1Z-3.1F500
X35.68Y19.981F1000
X35.725Y20.039
X35.771Y20.097
X35.819Y20.153
X35.868Y20.207
X35.919Y20.261
X35.953Y20.296
X37.143Y21.486
X38.059Y22.859
X38.845Y24.51
X39.675Y27.663
Y28.391
X39.38Y29.937
X38.284Y32.718
X37.174Y34.495
X36.803Y34.813
X36.747Y34.863
X36.692Y34.915
X36.638Y34.968
X36.586Y35.023
X36.535Y35.078
X36.486Y35.135
X36.438Y35.193
X36.391Y35.253
X36.346Y35.313
X36.317Y35.354
X36.112Y35.647
X36.068Y35.68
X36.01Y35.725
X35.952Y35.771
X35.896Y35.819
X35.842Y35.868
X35.788Y35.919
X35.753Y35.953
X34.563Y37.143
X33.19Y38.059
X31.539Y38.845
X28.386Y39.675
X27.572
X26.125Y39.385
X23.331Y38.284
X21.454Y37.112
X20.278Y35.936
X20.225Y35.885
X20.171Y35.835
X20.115Y35.787
X20.059Y35.74
X20.001Y35.694
X19.937Y35.647
X19.718Y35.334
X19.673Y35.273
X19.627Y35.213
X19.58Y35.154
X19.531Y35.097
X19.48Y35.041
X19.428Y34.986
X19.375Y34.933
X19.321Y34.881
X19.265Y34.83
X19.227Y34.797
X18.841Y34.466
X17.99Y33.19
X17.204Y31.539
X16.375Y28.386
Y27.572
X16.664Y26.125
X17.765Y23.331
X18.937Y21.454
X20.113Y20.278
X20.164Y20.225
X20.214Y20.171
X20.262Y20.115
X20.309Y20.059
X20.355Y20.001
X20.402Y19.937
X20.715Y19.718
X20.776Y19.673
X20.836Y19.627
X20.895Y19.58
X20.952Y19.531
X21.008Y19.48
X21.063Y19.428
X21.116Y19.375
X21.168Y19.321
X21.219Y19.265
X21.252Y19.227
X21.583Y18.841
X22.859Y17.99
X24.51Y17.204
X27.663Y16.375
X28.477
X29.924Y16.664
X32.718Y17.765
X34.495Y18.875
X34.813Y19.246
X34.863Y19.302
X34.915Y19.357
X34.968Y19.411
X35.023Y19.463
X35.078Y19.514
X35.135Y19.563
X35.193Y19.611
X35.253Y19.658
X35.313Y19.703
X35.354Y19.732
X35.647Y19.937
X36.461Y19.356
X36.49Y19.395
X36.521Y19.434
X36.552Y19.472
X36.584Y19.508
X36.618Y19.545
X36.66Y19.589
X37.92Y20.849
X38.931Y22.364
X39.788Y24.165
X40.674Y27.533
Y28.486
X40.345Y30.216
X39.181Y33.17
X37.941Y35.155
X37.463Y35.564
X37.426Y35.598
X37.389Y35.632
X37.353Y35.667
X37.318Y35.704
X37.284Y35.741
X37.251Y35.778
X37.219Y35.817
X37.188Y35.857
X37.158Y35.897
X37.136Y35.928
X36.825Y36.372
X36.794Y36.391
X36.753Y36.418
X36.713Y36.446
X36.673Y36.475
X36.634Y36.505
X36.596Y36.536
X36.559Y36.568
X36.522Y36.601
X36.487Y36.635
X36.46Y36.66
X35.2Y37.92
X33.685Y38.931
X31.884Y39.788
X28.516Y40.674
X27.473
X25.842Y40.348
X22.879Y39.181
X20.828Y37.899
X19.58Y36.652
X19.545Y36.618
X19.508Y36.584
X19.472Y36.552
X19.434Y36.521
X19.395Y36.49
X19.356Y36.461
X19.316Y36.432
X19.275Y36.405
X19.224Y36.372
X18.906Y35.917
X18.876Y35.877
X18.845Y35.837
X18.814Y35.798
X18.781Y35.759
X18.748Y35.722
X18.713Y35.685
X18.678Y35.65
X18.642Y35.615
X18.604Y35.581
X18.576Y35.556
X18.086Y35.136
X17.118Y33.685
X16.261Y31.884
X15.375Y28.516
Y27.473
X15.701Y25.842
X16.868Y22.879
X18.15Y20.828
X19.397Y19.58
X19.431Y19.545
X19.465Y19.508
X19.497Y19.472
X19.528Y19.434
X19.559Y19.395
X19.588Y19.356
X19.617Y19.316
X19.644Y19.275
X19.677Y19.224
X20.132Y18.906
X20.172Y18.876
X20.212Y18.845
X20.251Y18.814
X20.29Y18.781
X20.327Y18.748
X20.364Y18.713
X20.399Y18.678
X20.434Y18.642
X20.468Y18.604
X20.493Y18.576
X20.913Y18.086
X22.364Y17.118
X24.165Y16.261
X27.533Y15.375
X28.576
X30.207Y15.701
X33.17Y16.868
X35.155Y18.108
X35.564Y18.586
X35.598Y18.623
X35.632Y18.66
X35.667Y18.696
X35.704Y18.731
X35.741Y18.765
X35.778Y18.798
X35.817Y18.83
X35.857Y18.861
X35.897Y18.891
X35.928Y18.913
X36.372Y19.224
X36.391Y19.255
X36.418Y19.296
X36.446Y19.336
X36.461Y19.356
G0Z10
X46.667Y7.438
G1Z-3.1F500
X45.68Y6.452F1000
X45.646Y6.419
X45.611Y6.387
X45.576Y6.356
X45.54Y6.326
X45.503Y6.296
X45.465Y6.267
X45.427Y6.24
X45.398Y6.22
X42.586Y4.312
X42.542Y4.283
X42.497Y4.256
X42.451Y4.229
X42.404Y4.204
X42.369Y4.186
X39.557Y2.78
X39.511Y2.758
X39.464Y2.737
X39.416Y2.717
X39.368Y2.699
X39.332Y2.686
X37.021Y1.882
X36.976Y1.867
X36.932Y1.854
X36.887Y1.841
X36.842Y1.83
X36.808Y1.822
X33.197Y1.02
X33.151Y1.01
X33.104Y1.002
X33.057Y0.995
X33.011Y0.989
X32.964Y0.984
X32.917Y0.98
X32.87Y0.977
X32.834Y0.975
X26.122Y0.775
X26.071
X26.02
X25.97Y0.777
X25.932Y0.78
X23.119Y0.981
X23.069Y0.985
X23.019Y0.991
X22.969Y0.998
X22.919Y1.006
X22.882Y1.013
X19.869Y1.616
X19.816Y1.628
X19.764Y1.641
X19.712Y1.655
X19.661Y1.671
X19.623Y1.684
X16.71Y2.688
X16.661Y2.706
X16.612Y2.726
X16.563Y2.746
X16.516Y2.768
X16.48Y2.786
X13.668Y4.192
X13.621Y4.216
X13.575Y4.242
X13.529Y4.269
X13.485Y4.298
X13.451Y4.32
X10.642Y6.226
X10.602Y6.254
X10.564Y6.283
X10.526Y6.312
X10.489Y6.342
X10.453Y6.374
X10.426Y6.398
X8.116Y8.506
X8.079Y8.542
X8.042Y8.579
X8.006Y8.617
X7.98Y8.646
X6.371Y10.456
X6.337Y10.495
X6.304Y10.536
X6.273Y10.577
X6.242Y10.619
X6.22Y10.651
X4.312Y13.463
X4.283Y13.507
X4.256Y13.552
X4.229Y13.598
X4.204Y13.645
X4.186Y13.68
X2.78Y16.492
X2.757Y16.539
X2.736Y16.588
X2.716Y16.636
X2.697Y16.685
X2.684Y16.723
X1.679Y19.635
X1.663Y19.687
X1.648Y19.738
X1.634Y19.79
X1.622Y19.843
X1.613Y19.882
X1.011Y22.895
X1.002Y22.944
X0.994Y22.994
X0.988Y23.044
X0.983Y23.094
X0.98Y23.132
X0.779Y25.943
X0.776Y25.988
X0.775Y26.033
Y26.077
Y26.111
X0.875Y31.623
X0.877Y31.672
X0.88Y31.721
X0.884Y31.77
X0.889Y31.818
X0.896Y31.867
X0.902Y31.903
X1.604Y36.115
X1.612Y36.162
X1.622Y36.209
X1.633Y36.255
X1.645Y36.301
X1.658Y36.347
X1.672Y36.393
X1.684Y36.426
X2.688Y39.339
X2.706Y39.388
X2.726Y39.437
X2.746Y39.486
X2.768Y39.533
X2.786Y39.569
X4.192Y42.381
X4.216Y42.428
X4.242Y42.474
X4.269Y42.52
X4.298Y42.564
X4.32Y42.598
X6.226Y45.407
X6.253Y45.445
X6.28Y45.482
X6.309Y45.519
X6.338Y45.555
X6.368Y45.59
X6.391Y45.616
X8.3Y47.726
X8.335Y47.763
X8.371Y47.8
X8.408Y47.835
X8.437Y47.861
X10.445Y49.669
X10.479Y49.699
X10.514Y49.728
X10.55Y49.756
X10.586Y49.783
X10.623Y49.81
X10.651Y49.829
X13.463Y51.737
X13.507Y51.766
X13.552Y51.793
X13.598Y51.82
X13.645Y51.845
X13.68Y51.863
X16.492Y53.269
X16.538Y53.291
X16.585Y53.312
X16.633Y53.332
X16.681Y53.35
X16.717Y53.363
X19.028Y54.167
X19.073Y54.182
X19.117Y54.195
X19.162Y54.208
X19.207Y54.219
X19.241Y54.227
X22.852Y55.029
X22.898Y55.039
X22.945Y55.047
X22.992Y55.054
X23.038Y55.06
X23.085Y55.065
X23.132Y55.069
X23.179Y55.072
X23.215Y55.074
X29.927Y55.274
X29.978
X30.029
X30.079Y55.272
X30.117Y55.269
X32.93Y55.068
X32.98Y55.064
X33.03Y55.058
X33.08Y55.051
X33.13Y55.043
X33.167Y55.036
X36.18Y54.433
X36.233Y54.421
X36.285Y54.408
X36.337Y54.394
X36.388Y54.378
X36.426Y54.365
X39.339Y53.361
X39.388Y53.343
X39.437Y53.323
X39.486Y53.303
X39.533Y53.281
X39.569Y53.263
X42.38Y51.858
X42.424Y51.835
X42.468Y51.81
X42.51Y51.785
X42.553Y51.759
X42.584Y51.739
X44.994Y50.132
X45.033Y50.105
X45.071Y50.077
X45.109Y50.048
X45.146Y50.018
X45.183Y49.987
X45.21Y49.964
X48.119Y47.355
X48.155Y47.322
X48.19Y47.287
X48.225Y47.252
X48.258Y47.216
X48.291Y47.178
X48.323Y47.141
X48.353Y47.102
X48.383Y47.063
X48.412Y47.022
X48.44Y46.982
X48.467Y46.94
X48.493Y46.898
X48.517Y46.855
X48.541Y46.812
X48.564Y46.768
X48.585Y46.724
X48.611Y46.667
X49.597Y45.68
X49.63Y45.646
X49.662Y45.611
X49.693Y45.576
X49.723Y45.54
X49.753Y45.503
X49.782Y45.465
X49.809Y45.427
X49.829Y45.398
X51.737Y42.586
X51.766Y42.542
X51.793Y42.497
X51.82Y42.451
X51.845Y42.404
X51.863Y42.369
X53.269Y39.557
X53.292Y39.51
X53.313Y39.462
X53.333Y39.414
X53.351Y39.366
X53.364Y39.329
X54.268Y36.717
X54.284Y36.67
X54.298Y36.622
X54.311Y36.574
X54.323Y36.526
X54.331Y36.49
X55.034Y33.177
X55.043Y33.127
X55.052Y33.076
X55.059Y33.025
X55.064Y32.975
X55.069Y32.924
X55.072Y32.873
X55.074Y32.834
X55.274Y26.122
Y26.071
Y26.02
X55.272Y25.97
X55.269Y25.932
X55.068Y23.119
X55.064Y23.069
X55.058Y23.019
X55.051Y22.969
X55.043Y22.919
X55.036Y22.882
X54.433Y19.869
X54.421Y19.816
X54.408Y19.764
X54.394Y19.712
X54.378Y19.661
X54.365Y19.623
X53.361Y16.71
X53.343Y16.661
X53.323Y16.612
X53.303Y16.563
X53.281Y16.516
X53.263Y16.48
X51.858Y13.669
X51.835Y13.625
X51.81Y13.581
X51.785Y13.539
X51.759Y13.496
X51.739Y13.465
X50.132Y11.055
X50.105Y11.016
X50.077Y10.978
X50.048Y10.94
X50.018Y10.903
X49.987Y10.866
X49.964Y10.839
X47.355Y7.93
X47.322Y7.894
X47.287Y7.859
X47.252Y7.824
X47.216Y7.791
X47.178Y7.758
X47.141Y7.726
X47.102Y7.696
X47.063Y7.666
X47.022Y7.637
X46.982Y7.609
X46.94Y7.582
X46.898Y7.556
X46.855Y7.532
X46.812Y7.508
X46.768Y7.485
X46.724Y7.464
X46.667Y7.438
G0Z10
X62.5Y-6.5
G1Z-3.1F500
Y62.5F1000
X-6.5
Y-6.5
X62.5
X63.5Y-7.499
Y63.5
X-7.499
Y-7.499
X63.5
G0Z10
X46.602Y8.589
G1Z-3.1F500
X46.585Y8.571F1000
X46.568Y8.554
X46.55Y8.537
X46.531Y8.52
X46.512Y8.504
X46.493Y8.489
X46.474Y8.474
X46.454Y8.459
X46.433Y8.445
X46.413Y8.432
X46.392Y8.419
X46.37Y8.406
X46.349Y8.394
X46.327Y8.383
X46.305Y8.372
X46.282Y8.361
X46.26Y8.352
X46.237Y8.342
X46.213Y8.334
X46.19Y8.326
X46.167Y8.318
X46.143Y8.311
X46.119Y8.305
X44.982Y7.167
X44.965Y7.151
X44.947Y7.135
X44.93Y7.119
X44.912Y7.104
X44.893Y7.089
X44.875Y7.074
X44.855Y7.061
X44.836Y7.047
X42.036Y5.147
X42.014Y5.132
X41.991Y5.118
X41.968Y5.105
X41.945Y5.092
X41.922Y5.08
X39.122Y3.68
X39.099Y3.669
X39.075Y3.658
X39.051Y3.648
X39.027Y3.639
X39.003Y3.63
X36.703Y2.83
X36.681Y2.823
X36.659Y2.816
X36.637Y2.809
X36.614Y2.804
X36.591Y2.798
X32.991Y1.998
X32.968Y1.993
X32.945Y1.989
X32.922Y1.985
X32.898Y1.982
X32.875Y1.98
X32.851Y1.977
X32.828Y1.976
X32.804Y1.975
X26.104Y1.775
X26.079
X26.054
X26.028Y1.776
X26.003Y1.777
X23.203Y1.977
X23.178Y1.979
X23.153Y1.982
X23.128Y1.985
X23.103Y1.989
X23.078Y1.994
X20.078Y2.594
X20.052Y2.6
X20.026Y2.606
X20Y2.613
X19.974Y2.621
X19.949Y2.629
X17.049Y3.629
X17.024Y3.638
X16.999Y3.648
X16.975Y3.658
X16.951Y3.669
X16.927Y3.68
X14.127Y5.08
X14.104Y5.092
X14.081Y5.105
X14.058Y5.118
X14.035Y5.132
X14.013Y5.147
X11.213Y7.047
X11.193Y7.061
X11.174Y7.075
X11.155Y7.089
X11.136Y7.105
X11.118Y7.12
X11.1Y7.136
X8.8Y9.236
X8.781Y9.254
X8.763Y9.272
X8.745Y9.291
X8.727Y9.31
X7.127Y11.11
X7.11Y11.13
X7.093Y11.15
X7.077Y11.171
X7.062Y11.192
X7.047Y11.213
X5.147Y14.013
X5.132Y14.035
X5.118Y14.058
X5.105Y14.081
X5.092Y14.104
X5.08Y14.127
X3.68Y16.927
X3.669Y16.951
X3.658Y16.975
X3.648Y16.999
X3.638Y17.024
X3.629Y17.049
X2.629Y19.949
X2.621Y19.974
X2.613Y20
X2.606Y20.026
X2.6Y20.052
X2.594Y20.078
X1.994Y23.078
X1.989Y23.103
X1.985Y23.128
X1.982Y23.153
X1.979Y23.178
X1.977Y23.203
X1.777Y26.003
X1.776Y26.026
X1.775Y26.048
Y26.07
Y26.093
X1.875Y31.593
Y31.617
X1.877Y31.642
X1.879Y31.666
X1.881Y31.69
X1.884Y31.715
X1.888Y31.739
X2.588Y35.939
X2.592Y35.962
X2.597Y35.986
X2.602Y36.009
X2.608Y36.032
X2.615Y36.055
X2.622Y36.078
X2.629Y36.1
X3.629Y39
X3.638Y39.025
X3.648Y39.05
X3.658Y39.074
X3.669Y39.098
X3.68Y39.122
X5.08Y41.922
X5.092Y41.945
X5.105Y41.968
X5.118Y41.991
X5.132Y42.014
X5.147Y42.036
X7.047Y44.836
X7.06Y44.855
X7.074Y44.874
X7.088Y44.892
X7.103Y44.91
X7.118Y44.928
X7.133Y44.945
X9.033Y47.045
X9.05Y47.064
X9.068Y47.083
X9.087Y47.1
X9.106Y47.118
X11.106Y48.918
X11.123Y48.933
X11.14Y48.947
X11.158Y48.962
X11.176Y48.976
X11.194Y48.989
X11.213Y49.002
X14.013Y50.902
X14.035Y50.917
X14.058Y50.931
X14.081Y50.944
X14.104Y50.957
X14.127Y50.969
X16.927Y52.369
X16.95Y52.38
X16.974Y52.391
X16.998Y52.401
X17.022Y52.41
X17.046Y52.419
X19.346Y53.219
X19.368Y53.226
X19.39Y53.233
X19.412Y53.24
X19.435Y53.245
X19.458Y53.251
X23.058Y54.051
X23.081Y54.056
X23.104Y54.06
X23.127Y54.064
X23.151Y54.067
X23.174Y54.069
X23.198Y54.072
X23.221Y54.073
X23.245Y54.074
X29.945Y54.274
X29.97
X29.995
X30.021Y54.273
X30.046Y54.272
X32.846Y54.072
X32.871Y54.07
X32.896Y54.067
X32.921Y54.064
X32.946Y54.06
X32.971Y54.055
X35.971Y53.455
X35.997Y53.449
X36.023Y53.443
X36.049Y53.436
X36.075Y53.428
X36.1Y53.42
X39Y52.42
X39.025Y52.411
X39.05Y52.401
X39.074Y52.391
X39.098Y52.38
X39.122Y52.369
X41.922Y50.969
X41.944Y50.958
X41.966Y50.946
X41.987Y50.933
X42.008Y50.92
X42.029Y50.907
X44.429Y49.307
X44.449Y49.293
X44.468Y49.279
X44.487Y49.265
X44.506Y49.25
X44.524Y49.235
X44.542Y49.219
X47.442Y46.619
X47.46Y46.602
X47.478Y46.585
X47.495Y46.568
X47.512Y46.55
X47.529Y46.531
X47.545Y46.512
X47.56Y46.493
X47.575Y46.474
X47.59Y46.454
X47.604Y46.433
X47.617Y46.413
X47.63Y46.392
X47.643Y46.37
X47.655Y46.349
X47.666Y46.327
X47.677Y46.305
X47.688Y46.282
X47.697Y46.26
X47.707Y46.237
X47.715Y46.213
X47.723Y46.19
X47.731Y46.167
X47.738Y46.143
X47.744Y46.119
X48.882Y44.982
X48.898Y44.965
X48.914Y44.947
X48.93Y44.93
X48.945Y44.912
X48.96Y44.893
X48.975Y44.875
X48.988Y44.855
X49.002Y44.836
X50.902Y42.036
X50.917Y42.014
X50.931Y41.991
X50.944Y41.968
X50.957Y41.945
X50.969Y41.922
X52.369Y39.122
X52.38Y39.098
X52.391Y39.074
X52.401Y39.05
X52.411Y39.026
X52.419Y39.002
X53.319Y36.402
X53.327Y36.378
X53.335Y36.354
X53.341Y36.33
X53.347Y36.306
X53.353Y36.282
X54.053Y32.982
X54.058Y32.957
X54.062Y32.932
X54.066Y32.906
X54.069Y32.881
X54.071Y32.855
X54.073Y32.83
X54.074Y32.804
X54.274Y26.104
Y26.079
Y26.054
X54.273Y26.028
X54.272Y26.003
X54.072Y23.203
X54.07Y23.178
X54.067Y23.153
X54.064Y23.128
X54.06Y23.103
X54.055Y23.078
X53.455Y20.078
X53.449Y20.052
X53.443Y20.026
X53.436Y20
X53.428Y19.974
X53.42Y19.949
X52.42Y17.049
X52.411Y17.024
X52.401Y16.999
X52.391Y16.975
X52.38Y16.951
X52.369Y16.927
X50.969Y14.127
X50.958Y14.105
X50.946Y14.083
X50.933Y14.062
X50.92Y14.041
X50.907Y14.02
X49.307Y11.62
X49.293Y11.6
X49.279Y11.581
X49.265Y11.562
X49.25Y11.543
X49.235Y11.525
X49.219Y11.507
X46.619Y8.607
X46.602Y8.589
G0Z10
X37.146Y18.545
G1Z-3.1F500
X37.151Y18.557F1000
X37.16Y18.58
X37.171Y18.602
X37.181Y18.624
X37.193Y18.646
X37.204Y18.667
X37.217Y18.689
X37.23Y18.709
X37.243Y18.73
X37.257Y18.75
X37.271Y18.77
X37.286Y18.79
X37.301Y18.809
X37.317Y18.828
X37.334Y18.846
X37.35Y18.864
X37.367Y18.882
X38.697Y20.212
X39.803Y21.869
X40.731Y23.82
X41.675Y27.404
Y28.58
X41.31Y30.495
X40.078Y33.622
X38.708Y35.815
X38.124Y36.315
X38.105Y36.332
X38.086Y36.349
X38.068Y36.366
X38.051Y36.384
X38.034Y36.403
X38.017Y36.422
X38.001Y36.441
X37.985Y36.461
X37.97Y36.481
X37.955Y36.501
X37.504Y37.146
X37.492Y37.151
X37.469Y37.16
X37.447Y37.171
X37.425Y37.181
X37.403Y37.193
X37.382Y37.204
X37.36Y37.217
X37.34Y37.23
X37.319Y37.243
X37.299Y37.257
X37.279Y37.271
X37.259Y37.286
X37.24Y37.301
X37.221Y37.317
X37.203Y37.334
X37.185Y37.35
X37.167Y37.367
X35.837Y38.697
X34.18Y39.803
X32.229Y40.731
X28.645Y41.675
X27.374
X25.558Y41.311
X22.427Y40.078
X20.201Y38.687
X18.882Y37.367
X18.864Y37.35
X18.846Y37.334
X18.828Y37.317
X18.809Y37.301
X18.79Y37.286
X18.77Y37.271
X18.75Y37.257
X18.73Y37.243
X18.709Y37.23
X18.689Y37.217
X18.667Y37.204
X18.646Y37.193
X18.624Y37.181
X18.602Y37.171
X18.58Y37.16
X18.557Y37.151
X18.545Y37.146
X18.094Y36.501
X18.079Y36.481
X18.064Y36.461
X18.048Y36.441
X18.032Y36.422
X18.015Y36.403
X17.998Y36.384
X17.981Y36.366
X17.963Y36.349
X17.944Y36.332
X17.925Y36.315
X17.33Y35.805
X16.246Y34.18
X15.318Y32.229
X14.375Y28.645
Y27.374
X14.738Y25.558
X15.971Y22.427
X17.362Y20.201
X18.682Y18.882
X18.699Y18.864
X18.715Y18.846
X18.732Y18.828
X18.748Y18.809
X18.763Y18.79
X18.778Y18.77
X18.792Y18.75
X18.806Y18.73
X18.819Y18.709
X18.832Y18.689
X18.845Y18.667
X18.856Y18.646
X18.868Y18.624
X18.878Y18.602
X18.889Y18.58
X18.898Y18.557
X18.903Y18.545
X19.548Y18.094
X19.568Y18.079
X19.588Y18.064
X19.608Y18.048
X19.627Y18.032
X19.646Y18.015
X19.665Y17.998
X19.683Y17.981
X19.7Y17.963
X19.717Y17.944
X19.734Y17.925
X20.244Y17.33
X21.869Y16.246
X23.82Y15.318
X27.404Y14.375
X28.675
X30.491Y14.738
X33.622Y15.971
X35.815Y17.341
X36.315Y17.925
X36.332Y17.944
X36.349Y17.963
X36.366Y17.981
X36.384Y17.998
X36.403Y18.015
X36.422Y18.032
X36.441Y18.048
X36.461Y18.064
X36.481Y18.079
X36.501Y18.094
X37.146Y18.545
X38.075Y18.175
Y17.974
X37.074Y17.275
X36.474Y16.574
X34.074Y15.075
X30.774Y13.774
X28.774Y13.375
X27.275
X23.474Y14.374
X21.374Y15.374
X19.575Y16.574
X18.974Y17.275
X17.974Y17.974
Y18.175
X16.574Y19.575
X15.075Y21.974
X13.774Y25.274
X13.375Y27.275
Y28.774
X14.374Y32.575
X15.374Y34.674
X16.574Y36.474
X17.275Y37.074
X17.974Y38.075
X18.175
X19.575Y39.474
X21.974Y40.975
X25.274Y42.275
X27.275Y42.675
X28.774
X32.575Y41.674
X34.674Y40.674
X36.474Y39.474
X37.875Y38.075
X38.075
X38.775Y37.074
X39.474Y36.474
X40.975Y34.074
X42.275Y30.774
X42.675Y28.674
Y27.275
X41.674Y23.474
X40.674Y21.374
X39.474Y19.575
X38.075Y18.175
G0Z10
X45.674Y9.275
G1Z-3.1F500
X45.874F1000
X48.474Y12.174
X50.074Y14.575
X51.475Y17.375
X52.474Y20.274
X53.074Y23.274
X53.275Y26.075
X53.074Y32.775
X52.375Y36.075
X51.475Y38.674
X50.074Y41.474
X48.175Y44.275
X46.774Y45.674
Y45.874
X43.874Y48.474
X41.474Y50.074
X38.674Y51.475
X35.774Y52.474
X32.775Y53.074
X29.974Y53.275
X23.274Y53.074
X19.675Y52.274
X17.375Y51.475
X14.575Y50.074
X11.775Y48.175
X9.775Y46.374
X7.875Y44.275
X5.975Y41.474
X4.575Y38.674
X3.575Y35.774
X2.875Y31.574
X2.775Y26.075
X2.975Y23.274
X3.575Y20.274
X4.575Y17.375
X5.975Y14.575
X7.875Y11.775
X9.474Y9.974
X11.775Y7.875
X14.575Y5.975
X17.375Y4.575
X20.274Y3.575
X23.274Y2.975
X26.075Y2.775
X32.775Y2.975
X36.374Y3.775
X38.674Y4.575
X41.474Y5.975
X44.275Y7.875
X45.674Y9.275
G0Z10
X8.874Y9.575
G1Z-3.6F500
X11.674Y7.075F1000
X14.374Y5.275
X15.975Y4.475
X20.174Y2.875
X23.274Y2.275
X26.075Y2.075
X32.775Y2.275
X36.174Y2.975
X38.775Y3.875
X41.674Y5.275
X44.374Y7.075
X46.274Y8.874
X46.474
X48.974Y11.674
X50.774Y14.374
X51.574Y15.975
X53.174Y20.174
X53.774Y23.274
X53.974Y26.075
X53.774Y32.775
X53.074Y36.174
X52.175Y38.775
X50.774Y41.674
X48.974Y44.374
X47.174Y46.274
Y46.474
X44.374Y48.974
X41.674Y50.774
X40.075Y51.574
X35.875Y53.174
X32.775Y53.774
X29.974Y53.974
X23.274Y53.774
X19.874Y53.074
X17.275Y52.175
X14.374Y50.774
X11.674Y48.974
X9.775Y47.174
X9.575
X7.075Y44.374
X5.275Y41.674
X4.475Y40.075
X2.875Y35.875
X2.275Y32.775
X2.075Y26.075
X2.275Y23.274
X2.875Y20.174
X3.875Y17.275
X5.275Y14.374
X7.075Y11.674
X8.874Y9.775
Y9.575
G0Z10
X18.575Y18.375
G1Z-3.6F500
X17.075Y20.074F1000
X16.075Y21.575
X15.075Y23.574
X14.075Y27.275
Y28.774
X15.075Y32.474
X16.075Y34.474
X18.375Y37.474
X20.074Y38.975
X21.575Y39.974
X23.574Y40.975
X27.275Y41.974
X28.774
X32.474Y40.975
X34.474Y39.974
X37.474Y37.675
X38.975Y35.974
X40.975Y32.474
X41.974Y28.674
Y27.275
X40.975Y23.574
X39.974Y21.575
X37.675Y18.575
X35.974Y17.075
X34.474Y16.075
X32.474Y15.075
X28.774Y14.075
X27.275
X23.574Y15.075
X21.575Y16.075
X18.575Y18.375
G0Z10
X8.475Y9.275
G1Z-4.1F500
X11.375Y6.675F1000
X14.075Y4.875
X16.874Y3.475
X20.174Y2.375
X23.174Y1.775
X26.075Y1.575
X32.874Y1.775
X35.875Y2.375
X39.175Y3.475
X41.974Y4.875
X44.675Y6.675
X46.574Y8.475
X46.774
X49.374Y11.375
X51.174Y14.075
X52.575Y16.874
X53.675Y20.174
X54.274Y23.174
X54.474Y26.075
X54.274Y32.874
X53.675Y35.875
X52.575Y39.175
X51.174Y41.974
X49.374Y44.675
X47.574Y46.574
Y46.774
X44.675Y49.374
X41.974Y51.174
X39.175Y52.575
X35.875Y53.675
X32.874Y54.274
X29.974Y54.474
X23.174Y54.274
X20.174Y53.675
X16.874Y52.575
X14.075Y51.174
X11.375Y49.374
X9.474Y47.574
X9.275
X6.675Y44.675
X4.875Y41.974
X3.475Y39.175
X2.375Y35.875
X1.775Y32.874
X1.575Y26.075
X1.775Y23.174
X2.375Y20.174
X3.475Y16.874
X4.875Y14.075
X6.675Y11.375
X8.475Y9.474
Y9.275
G0Z10
X18.874Y18.774
G1Z-4.1F500
X17.475Y20.375F1000
X15.874Y23.074
X14.974Y25.474
X14.575Y27.375
Y28.674
X14.874Y30.174
X15.574Y32.375
X17.275Y35.374
X18.774Y36.975
Y37.175
X20.375Y38.574
X22.474Y39.875
X25.474Y41.074
X27.375Y41.474
X29.174Y41.375
X32.375Y40.475
X34.775Y39.175
X37.175Y37.274
X38.574Y35.675
X40.475Y32.375
X41.474Y28.574
Y27.375
X41.175Y25.874
X40.475Y23.675
X38.775Y20.675
X37.274Y19.074
Y18.874
X35.675Y17.475
X32.575Y15.674
X30.575Y14.974
X28.674Y14.575
X27.375
X25.874Y14.874
X23.675Y15.574
X21.875Y16.474
X18.874Y18.774
G0Z10
X8.075Y8.975
G1Z-4.6F500
X11.074Y6.275F1000
X13.774Y4.475
X16.774Y2.975
X20.174Y1.875
X23.174Y1.275
X26.075Y1.075
X32.874Y1.275
X36.274Y1.975
X39.274Y2.975
X42.275Y4.475
X44.974Y6.275
X46.875Y8.075
X47.075
X49.774Y11.074
X51.574Y13.774
X53.074Y16.774
X54.174Y20.174
X54.775Y23.174
X54.974Y26.075
X54.775Y32.874
X54.074Y36.274
X53.074Y39.274
X51.574Y42.275
X49.774Y44.974
X47.975Y46.875
Y47.075
X44.974Y49.774
X42.275Y51.574
X39.274Y53.074
X35.875Y54.174
X32.874Y54.775
X29.974Y54.974
X23.174Y54.775
X19.774Y54.074
X16.774Y53.074
X13.774Y51.574
X11.074Y49.774
X9.175Y47.975
X8.975
X6.275Y44.974
X4.475Y42.275
X2.975Y39.274
X1.975Y36.274
X1.275Y32.874
X1.075Y26.075
X1.275Y23.174
X1.975Y19.774
X2.975Y16.774
X4.475Y13.774
X6.275Y11.074
X8.075Y9.175
Y8.975
G0Z10
X19.174Y19.174
G1Z-4.6F500
Y19.375F1000
X17.874Y20.675
X16.375Y23.174
X15.374Y25.874
X15.075Y27.375
Y28.674
X15.374Y30.174
X16.075Y32.274
X17.874Y35.374
X19.174Y36.674
Y36.874
X19.375
X20.675Y38.174
X23.574Y39.875
X25.874Y40.674
X27.375Y40.975
X28.674
X30.174Y40.674
X32.274Y39.974
X35.374Y38.174
X36.674Y36.874
X36.874
Y36.674
X38.174Y35.374
X39.974Y32.274
X40.674Y30.174
X40.975Y28.574
Y27.375
X40.674Y25.874
X39.974Y23.775
X38.174Y20.675
X36.874Y19.375
Y19.174
X36.674
X35.374Y17.874
X33.275Y16.574
X30.174Y15.374
X28.674Y15.075
X27.375
X25.874Y15.374
X23.775Y16.075
X20.675Y17.874
X19.375Y19.174
X19.174
G0Z10
X7.675Y8.675
