(Created with grbl post processor 2026/07/13 21:00)
G21
(G-code Generated with Fabex and NC library)
(Rapids: 5000.0/min)
G17G90
S12000M03
G00 Z10.0 F5000.0

G0X0Y0Z10
X10.674Y10.174
G1Z-3F500
X11.774Y9.374F1000
X12.374Y8.675
X15.374Y6.575
X18.375Y5.074
X21.274Y4.075
X25.075Y3.374
X30.974
X34.775Y4.075
X37.674Y5.074
X40.674Y6.575
X43.074Y8.175
X45.074Y10.074
X45.274
X47.874Y12.974
X49.474Y15.374
X50.974Y18.375
X51.974Y21.274
X52.674Y25.075
Y30.974
X51.974Y34.775
X50.974Y37.674
X49.474Y40.674
X47.874Y43.074
X45.975Y45.074
Y45.274
X43.074Y47.874
X40.674Y49.474
X37.674Y50.974
X34.775Y51.974
X30.974Y52.674
X25.075
X21.274Y51.974
X18.375Y50.974
X15.374Y49.474
X12.374Y47.374
X10.274Y45.474
X8.675Y43.674
X6.575Y40.674
X5.074Y37.674
X4.075Y34.775
X3.374Y30.974
X3.274Y26.674
X3.474Y24.174
X4.075Y21.274
X5.074Y18.375
X6.575Y15.374
X8.675Y12.374
X10.674Y10.174
G0Z10
X17.375Y17.174
G1Z-3F500
X15.974Y18.774F1000
X14.074Y21.974
X13.274Y24.374
X12.774Y27.874
X12.874Y29.674
X13.274Y31.675
X14.074Y34.074
X15.974Y37.274
X17.174Y38.474
Y38.674
X18.774Y40.074
X21.974Y41.974
X24.374Y42.774
X27.874Y43.274
X29.674Y43.174
X31.675Y42.774
X34.074Y41.974
X37.274Y40.074
X38.474Y38.874
X38.674
X40.074Y37.274
X41.974Y34.074
X42.774Y31.675
X43.274Y28.074
X43.174Y26.374
X42.774Y24.374
X41.974Y21.974
X40.074Y18.774
X38.874Y17.574
Y17.375
X37.274Y15.974
X34.074Y14.074
X31.675Y13.274
X28.174Y12.774
X26.374Y12.874
X24.374Y13.274
X21.974Y14.074
X18.774Y15.974
X17.574Y17.174
X17.375
G0Z10
X9.574Y9.174
G1Z-4F500
X9.775F1000
X11.975Y7.074
X14.674Y5.274
X18.174Y3.575
X21.174Y2.574
X24.174Y1.974
X28.974Y1.774
X31.874Y1.974
X34.874Y2.574
X37.875Y3.575
X41.974Y5.674
X44.074Y7.074
X46.875Y9.574
X47.574Y10.574
X48.974Y11.975
X50.774Y14.674
X52.474Y18.174
X53.475Y21.174
X54.074Y24.174
X54.274Y28.974
X54.074Y31.874
X53.475Y34.874
X52.474Y37.875
X50.375Y41.974
X48.974Y44.074
X46.474Y46.875
X45.474Y47.574
X44.074Y48.974
X41.375Y50.774
X37.875Y52.474
X34.874Y53.475
X31.874Y54.074
X27.074Y54.274
X24.174Y54.074
X21.174Y53.475
X18.174Y52.474
X13.774Y50.175
X11.975Y48.974
X9.174Y46.474
Y46.274
X7.074Y44.074
X5.274Y41.375
X3.575Y37.875
X2.574Y34.874
X1.974Y31.874
X1.774Y27.074
X1.974Y24.174
X2.574Y21.174
X3.575Y18.174
X5.874Y13.774
X7.074Y11.975
X9.574Y9.174
G0Z10
X18.575Y18.074
G1Z-4F500
X17.074Y19.774F1000
X15.374Y22.674
X14.674Y24.874
X14.274Y27.474
X14.374Y29.674
X15.374Y33.374
X16.074Y34.775
X18.074Y37.474
X19.774Y38.975
X22.674Y40.674
X24.874Y41.375
X27.474Y41.774
X29.674Y41.674
X33.374Y40.674
X34.775Y39.974
X37.474Y37.974
X38.975Y36.274
X40.674Y33.374
X41.375Y31.174
X41.774Y28.475
X41.674Y26.374
X40.674Y22.674
X39.974Y21.274
X37.974Y18.575
X36.274Y17.074
X33.374Y15.374
X31.174Y14.674
X28.574Y14.274
X26.374Y14.374
X22.674Y15.374
X21.274Y16.074
X18.575Y18.074
G0Z10
X8.974Y8.374
G1Z-5F500
X9.974Y7.675F1000
X11.374Y6.275
X14.074Y4.474
X17.475Y2.774
X20.675Y1.674
X24.075Y0.975
X28.974Y0.774
X31.974Y0.975
X34.975Y1.575
X38.574Y2.774
X41.974Y4.474
X44.675Y6.275
X47.674Y8.974
Y9.174
X49.774Y11.374
X51.574Y14.074
X53.274Y17.475
X54.374Y20.675
X55.074Y24.075
X55.274Y28.974
X55.074Y31.974
X54.474Y34.975
X53.274Y38.574
X51.574Y41.974
X49.774Y44.675
X47.075Y47.674
X46.074Y48.374
X44.675Y49.774
X41.974Y51.574
X38.574Y53.274
X35.374Y54.374
X31.974Y55.074
X27.074Y55.274
X24.075Y55.074
X21.074Y54.474
X17.475Y53.274
X14.074Y51.574
X11.374Y49.774
X8.374Y47.075
X7.675Y46.074
X6.275Y44.675
X4.474Y41.974
X2.774Y38.574
X1.674Y35.374
X0.975Y31.974
X0.774Y27.074
X0.975Y24.075
X1.575Y21.074
X2.774Y17.475
X4.474Y14.074
X6.275Y11.374
X8.974Y8.374
G0Z10
X19.174Y18.874
G1Z-5F500
X17.874Y20.374F1000
X16.275Y23.074
X15.674Y24.874
X15.274Y27.474
X15.374Y29.674
X16.275Y32.974
X17.874Y35.675
X18.874Y36.674
Y36.874
X20.374Y38.174
X23.074Y39.774
X24.874Y40.374
X27.474Y40.774
X29.674Y40.674
X32.974Y39.774
X34.474Y38.975
X36.874Y37.175
X38.174Y35.675
X39.774Y32.974
X40.374Y31.174
X40.774Y28.475
X40.674Y26.374
X39.774Y23.074
X38.975Y21.574
X37.175Y19.174
X35.675Y17.874
X32.974Y16.275
X31.174Y15.674
X28.574Y15.274
X26.374Y15.374
X23.074Y16.275
X20.374Y17.874
X19.374Y18.874
X19.174
G0Z10
X8.374Y7.574
G1Z-6F500
X9.374Y6.874F1000
X10.774Y5.475
X13.474Y3.674
X17.275Y1.774
X20.574Y0.674
X24.075Y-0.025
X28.974Y-0.225
X31.974Y-0.025
X35.074Y0.574
X38.774Y1.774
X42.574Y3.674
X45.274Y5.475
X48.474Y8.374
X49.174Y9.374
X50.574Y10.774
X52.375Y13.474
X54.274Y17.275
X55.374Y20.574
X56.074Y24.075
X56.274Y28.974
X56.074Y31.974
X55.474Y35.074
X54.274Y38.774
X52.375Y42.574
X50.574Y45.274
X47.674Y48.474
X46.674Y49.174
X45.274Y50.574
X42.574Y52.375
X38.774Y54.274
X35.474Y55.374
X31.974Y56.074
X27.074Y56.274
X24.075Y56.074
X20.974Y55.474
X17.275Y54.274
X13.474Y52.375
X10.774Y50.574
X7.574Y47.674
X6.874Y46.674
X5.475Y45.274
X3.674Y42.574
X1.774Y38.774
X0.674Y35.474
X-0.025Y31.974
X-0.225Y27.074
X-0.025Y24.075
X0.574Y20.974
X1.774Y17.275
X3.674Y13.474
X5.475Y10.774
X8.374Y7.574
G0Z10
X19.774Y19.675
G1Z-6F500
X18.074Y21.875F1000
X17.174Y23.574
X16.574Y25.474
X16.275Y27.375
X16.375Y29.575
X17.174Y32.474
X17.874Y33.875
X19.675Y36.274
X21.274Y37.574
X23.574Y38.874
X25.474Y39.474
X27.474Y39.774
X29.575Y39.674
X32.474Y38.874
X33.875Y38.174
X36.274Y36.374
X37.574Y34.775
X38.874Y32.474
X39.474Y30.574
X39.774Y28.475
X39.674Y26.474
X38.874Y23.574
X38.174Y22.174
X36.374Y19.774
X33.875Y17.874
X32.474Y17.174
X30.574Y16.574
X28.674Y16.275
X26.474Y16.375
X23.574Y17.174
X22.174Y17.874
X19.774Y19.675
G0Z10
X7.974Y7.474
G1Z-7F500
X8.974Y6.774F1000
X10.474Y5.274
X13.474Y3.274
X16.874Y1.575
X20.374Y0.375
X23.774Y-0.325
X26.474Y-0.525
X32.274Y-0.325
X35.675Y0.375
X38.674Y1.375
X42.574Y3.274
X46.374Y5.974
X48.574Y7.974
X49.275Y8.974
X50.774Y10.474
X52.774Y13.474
X54.474Y16.874
X55.675Y20.374
X56.374Y23.774
X56.574Y26.474
X56.374Y32.274
X55.675Y35.675
X54.674Y38.674
X52.774Y42.574
X50.074Y46.374
X48.074Y48.574
X47.075Y49.275
X45.574Y50.774
X42.574Y52.774
X39.175Y54.474
X35.675Y55.675
X32.274Y56.374
X29.575Y56.574
X23.774Y56.374
X20.374Y55.675
X17.375Y54.674
X13.474Y52.774
X9.674Y50.074
X7.474Y48.074
X6.774Y47.075
X5.274Y45.574
X3.274Y42.574
X1.575Y39.175
X0.375Y35.675
X-0.325Y32.274
X-0.525Y26.474
X-0.325Y23.774
X0.375Y20.374
X1.575Y16.874
X3.274Y13.474
X5.974Y9.674
X7.974Y7.474
G0Z10
X20.974Y19.074
G1Z-7F500
X19.074Y20.974F1000
X18.074Y22.474
X16.974Y25.274
X16.674Y26.774
Y29.274
X16.974Y30.774
X17.574Y32.575
X19.074Y35.074
X20.974Y36.975
X22.474Y37.974
X25.274Y39.074
X26.774Y39.375
X29.274
X30.774Y39.074
X32.575Y38.474
X35.074Y36.975
X36.975Y35.074
X37.974Y33.574
X39.074Y30.774
X39.375Y29.174
Y26.774
X39.074Y25.274
X38.474Y23.474
X36.975Y20.974
X35.074Y19.074
X33.574Y18.074
X30.774Y16.974
X29.274Y16.674
X26.774
X25.274Y16.974
X23.474Y17.574
X20.974Y19.074
G0Z10
X7.675Y7.374
G1Z-8F500
X7.874F1000
X10.574Y4.874
X13.274Y3.074
X17.174Y1.175
X20.374Y0.075
X23.975Y-0.625
X29.074Y-0.825
X32.074Y-0.625
X35.675Y0.075
X39.375Y1.375
X42.774Y3.074
X45.474Y4.874
X48.674Y7.675
Y7.874
X51.174Y10.574
X52.974Y13.274
X54.874Y17.174
X55.974Y20.374
X56.674Y23.975
X56.874Y29.074
X56.674Y32.074
X55.974Y35.675
X54.674Y39.375
X52.974Y42.774
X51.174Y45.474
X48.374Y48.674
X48.175
X45.474Y51.174
X42.774Y52.974
X38.874Y54.874
X35.675Y55.974
X32.074Y56.674
X26.974Y56.874
X23.975Y56.674
X20.374Y55.974
X16.674Y54.674
X13.274Y52.974
X10.574Y51.174
X7.374Y48.374
Y48.175
X4.874Y45.474
X3.074Y42.774
X1.175Y38.874
X0.075Y35.675
X-0.625Y32.074
X-0.825Y26.974
X-0.625Y23.975
X0.075Y20.374
X1.375Y16.674
X3.074Y13.274
X4.874Y10.574
X7.675Y7.374
G0Z10
X20.474Y19.874
G1Z-8F500
X19.274Y21.174F1000
X17.774Y23.674
X17.174Y25.574
X16.874Y27.574
X16.974Y29.474
X17.774Y32.375
X18.375Y33.574
X19.874Y35.574
X21.174Y36.775
X23.674Y38.275
X25.574Y38.874
X27.574Y39.175
X29.474Y39.074
X32.375Y38.275
X33.574Y37.674
X35.574Y36.174
X36.775Y34.874
X38.275Y32.375
X38.874Y30.474
X39.175Y28.374
X39.074Y26.574
X38.275Y23.674
X37.674Y22.474
X36.174Y20.474
X34.874Y19.274
X32.375Y17.774
X30.474Y17.174
X28.475Y16.874
X26.574Y16.974
X23.674Y17.774
X22.474Y18.375
X20.474Y19.874
G0Z10
X8.074Y6.674
G1Z-9F500
X8.274F1000
X10.274Y4.774
X13.274Y2.774
X17.475Y0.774
X20.174Y-0.125
X23.574Y-0.825
X28.574Y-1.125
X32.474Y-0.825
X35.474Y-0.225
X39.574Y1.175
X42.774Y2.774
X45.775Y4.774
X49.374Y8.074
Y8.274
X51.275Y10.274
X53.274Y13.274
X55.274Y17.475
X56.174Y20.174
X56.874Y23.574
X57.174Y28.574
X56.874Y32.474
X56.274Y35.474
X54.874Y39.574
X53.274Y42.774
X51.275Y45.775
X47.975Y49.374
X47.774
X45.775Y51.275
X42.774Y53.274
X38.574Y55.274
X35.875Y56.174
X32.474Y56.874
X27.474Y57.174
X23.574Y56.874
X20.574Y56.274
X16.474Y54.874
X13.274Y53.274
X10.274Y51.275
X6.674Y47.975
Y47.774
X4.774Y45.775
X2.774Y42.774
X0.774Y38.574
X-0.125Y35.875
X-0.825Y32.474
X-1.125Y27.474
X-0.825Y23.574
X-0.225Y20.574
X1.175Y16.474
X2.774Y13.274
X4.774Y10.274
X8.074Y6.674
G0Z10
X20.874Y19.874
G1Z-9F500
X19.374Y21.474F1000
X18.575Y22.674
X17.574Y25.075
X17.174Y27.074
Y28.974
X17.574Y30.974
X18.575Y33.374
X19.874Y35.174
X21.474Y36.674
X22.674Y37.474
X25.075Y38.474
X27.074Y38.874
X28.974
X30.974Y38.474
X33.374Y37.474
X35.174Y36.174
X36.674Y34.575
X37.474Y33.374
X38.474Y30.974
X38.874Y28.874
Y27.074
X38.474Y25.075
X37.474Y22.674
X36.174Y20.874
X34.575Y19.374
X33.374Y18.575
X30.974Y17.574
X28.974Y17.174
X27.074
X25.075Y17.574
X22.674Y18.575
X20.874Y19.874
G0Z10
X6.575Y7.774
G1Z-10F500
X10.074Y4.574F1000
X13.074Y2.574
X16.074Y1.074
X20.274Y-0.425
X23.674Y-1.125
X26.374Y-1.325
X32.375Y-1.125
X35.774Y-0.425
X39.074Y0.674
X42.974Y2.574
X45.975Y4.574
X48.074Y6.575
X48.274
X51.475Y10.074
X53.475Y13.074
X54.974Y16.074
X56.474Y20.274
X57.174Y23.674
X57.374Y26.374
X57.174Y32.375
X56.474Y35.774
X55.374Y39.074
X53.475Y42.974
X51.475Y45.975
X49.474Y48.074
Y48.274
X45.975Y51.475
X42.974Y53.475
X39.974Y54.974
X35.774Y56.474
X32.375Y57.174
X29.674Y57.374
X23.674Y57.174
X20.274Y56.474
X16.974Y55.374
X13.074Y53.475
X10.074Y51.475
X7.974Y49.474
X7.774
X4.574Y45.975
X2.574Y42.974
X1.074Y39.974
X-0.425Y35.774
X-1.125Y32.375
X-1.325Y26.374
X-1.125Y23.674
X-0.425Y20.274
X0.674Y16.974
X2.574Y13.074
X4.574Y10.074
X6.575Y7.974
Y7.774
G0Z10
X19.974Y21.174
G1Z-10F500
X18.774Y22.875F1000
X17.774Y25.374
X17.475Y26.874
Y29.174
X17.774Y30.675
X18.774Y33.174
X19.974Y34.874
X21.174Y36.075
X22.875Y37.274
X25.374Y38.275
X26.874Y38.574
X29.174
X30.675Y38.275
X33.174Y37.274
X34.874Y36.075
X36.075Y34.874
X37.274Y33.174
X38.275Y30.675
X38.574Y29.074
Y26.874
X38.275Y25.374
X37.274Y22.875
X36.075Y21.174
X34.874Y19.974
X33.174Y18.774
X30.675Y17.774
X29.174Y17.475
X26.874
X25.374Y17.774
X22.875Y18.774
X21.174Y19.974
X19.974Y21.174
G0Z10
X7.974Y6.374
G1Z-11F500
X8.175F1000
X10.174Y4.474
X12.874Y2.674
X16.874Y0.674
X20.174Y-0.425
X23.574Y-1.125
X28.574Y-1.425
X32.474Y-1.125
X35.875Y-0.425
X39.175Y0.674
X43.174Y2.674
X45.874Y4.474
X49.674Y7.974
Y8.175
X51.574Y10.174
X53.374Y12.874
X55.374Y16.874
X56.474Y20.174
X57.174Y23.574
X57.374Y25.974
Y30.074
X57.174Y32.474
X56.474Y35.875
X55.374Y39.175
X53.374Y43.174
X51.174Y46.374
X48.374Y49.374
X46.374Y51.174
X43.174Y53.374
X39.175Y55.374
X35.875Y56.474
X31.574Y57.274
X25.974Y57.374
X23.574Y57.174
X20.574Y56.574
X16.874Y55.374
X12.874Y53.374
X10.174Y51.574
X6.374Y48.074
Y47.874
X4.474Y45.874
X2.674Y43.174
X0.674Y39.175
X-0.425Y35.875
X-1.125Y32.474
X-1.425Y27.474
X-1.125Y23.574
X-0.425Y20.174
X0.674Y16.874
X2.674Y12.874
X4.474Y10.174
X7.974Y6.374
G0Z10
X20.274Y20.874
G1Z-11F500
X18.874Y22.774F1000
X17.874Y25.175
X17.475Y26.974
Y29.074
X17.774Y30.574
X18.274Y32.074
X19.675Y34.474
X20.874Y35.774
X22.774Y37.175
X24.274Y37.875
X26.974Y38.574
X29.074
X30.574Y38.275
X32.074Y37.774
X34.474Y36.374
X35.774Y35.174
X37.175Y33.274
X38.275Y30.574
X38.574Y28.974
Y26.974
X38.275Y25.474
X37.774Y23.975
X36.374Y21.574
X35.174Y20.274
X33.274Y18.874
X32.074Y18.274
X29.074Y17.475
X26.974
X25.474Y17.774
X23.975Y18.274
X21.574Y19.675
X20.274Y20.874
G0Z10
X7.974Y6.374
G1Z-12F500
X8.175F1000
X10.174Y4.474
X12.874Y2.674
X16.874Y0.674
X20.174Y-0.425
X23.574Y-1.125
X28.574Y-1.425
X32.474Y-1.125
X35.875Y-0.425
X39.175Y0.674
X43.174Y2.674
X45.874Y4.474
X49.674Y7.974
Y8.175
X51.574Y10.174
X53.374Y12.874
X55.374Y16.874
X56.474Y20.174
X57.174Y23.574
X57.374Y25.974
Y30.074
X57.174Y32.474
X56.474Y35.875
X55.374Y39.175
X53.374Y43.174
X51.174Y46.374
X48.374Y49.374
X46.374Y51.174
X43.174Y53.374
X39.175Y55.374
X35.875Y56.474
X31.574Y57.274
X25.974Y57.374
X23.574Y57.174
X20.574Y56.574
X16.874Y55.374
X12.874Y53.374
X10.174Y51.574
X6.374Y48.074
Y47.874
X4.474Y45.874
X2.674Y43.174
X0.674Y39.175
X-0.425Y35.875
X-1.125Y32.474
X-1.425Y27.474
X-1.125Y23.574
X-0.425Y20.174
X0.674Y16.874
X2.674Y12.874
X4.474Y10.174
X7.974Y6.374
G0Z10
X20.274Y20.874
G1Z-12F500
X18.874Y22.774F1000
X17.874Y25.175
X17.475Y26.974
Y29.074
X17.774Y30.574
X18.274Y32.074
X19.675Y34.474
X20.874Y35.774
X22.774Y37.175
X24.274Y37.875
X26.974Y38.574
X29.074
X30.574Y38.275
X32.074Y37.774
X34.474Y36.374
X35.774Y35.174
X37.175Y33.274
X38.275Y30.574
X38.574Y28.974
Y26.974
X38.275Y25.474
X37.774Y23.975
X36.374Y21.574
X35.174Y20.274
X33.274Y18.874
X32.074Y18.274
X29.074Y17.475
X26.974
X25.474Y17.774
X23.975Y18.274
X21.574Y19.675
X20.274Y20.874
G0Z10
X7.974Y6.374
G1Z-13F500
X8.175F1000
X10.174Y4.474
X12.874Y2.674
X16.874Y0.674
X20.174Y-0.425
X23.574Y-1.125
X28.574Y-1.425
X32.474Y-1.125
X35.875Y-0.425
X39.175Y0.674
X43.174Y2.674
X45.874Y4.474
X49.674Y7.974
Y8.175
X51.574Y10.174
X53.374Y12.874
X55.374Y16.874
X56.474Y20.174
X57.174Y23.574
X57.374Y25.974
Y30.074
X57.174Y32.474
X56.474Y35.875
X55.374Y39.175
X53.374Y43.174
X51.174Y46.374
X48.374Y49.374
X46.374Y51.174
X43.174Y53.374
X39.175Y55.374
X35.875Y56.474
X31.574Y57.274
X25.974Y57.374
X23.574Y57.174
X20.574Y56.574
X16.874Y55.374
X12.874Y53.374
X10.174Y51.574
X6.374Y48.074
Y47.874
X4.474Y45.874
X2.674Y43.174
X0.674Y39.175
X-0.425Y35.875
X-1.125Y32.474
X-1.425Y27.474
X-1.125Y23.574
X-0.425Y20.174
X0.674Y16.874
X2.674Y12.874
X4.474Y10.174
X7.974Y6.374
G0Z10
X20.274Y20.874
G1Z-13F500
X18.874Y22.774F1000
X17.874Y25.175
X17.475Y26.974
Y29.074
X17.774Y30.574
X18.274Y32.074
X19.675Y34.474
X20.874Y35.774
X22.774Y37.175
X24.274Y37.875
X26.974Y38.574
X29.074
X30.574Y38.275
X32.074Y37.774
X34.474Y36.374
X35.774Y35.174
X37.175Y33.274
X38.275Y30.574
X38.574Y28.974
Y26.974
X38.275Y25.474
X37.774Y23.975
X36.374Y21.574
X35.174Y20.274
X33.274Y18.874
X32.074Y18.274
X29.074Y17.475
X26.974
X25.474Y17.774
X23.975Y18.274
X21.574Y19.675
X20.274Y20.874
G0Z10
X7.974Y6.374
G1Z-14F500
X8.175F1000
X10.174Y4.474
X12.874Y2.674
X16.874Y0.674
X20.174Y-0.425
X23.574Y-1.125
X28.574Y-1.425
X32.474Y-1.125
X35.875Y-0.425
X39.175Y0.674
X43.174Y2.674
X45.874Y4.474
X49.674Y7.974
Y8.175
X51.574Y10.174
X53.374Y12.874
X55.374Y16.874
X56.474Y20.174
X57.174Y23.574
X57.374Y25.974
Y30.074
X57.174Y32.474
X56.474Y35.875
X55.374Y39.175
X53.374Y43.174
X51.174Y46.374
X48.374Y49.374
X46.374Y51.174
X43.174Y53.374
X39.175Y55.374
X35.875Y56.474
X31.574Y57.274
X25.974Y57.374
X23.574Y57.174
X20.574Y56.574
X16.874Y55.374
X12.874Y53.374
X10.174Y51.574
X6.374Y48.074
Y47.874
X4.474Y45.874
X2.674Y43.174
X0.674Y39.175
X-0.425Y35.875
X-1.125Y32.474
X-1.425Y27.474
X-1.125Y23.574
X-0.425Y20.174
X0.674Y16.874
X2.674Y12.874
X4.474Y10.174
X7.974Y6.374
G0Z10
X20.274Y20.874
G1Z-14F500
X18.874Y22.774F1000
X17.874Y25.175
X17.475Y26.974
Y29.074
X17.774Y30.574
X18.274Y32.074
X19.675Y34.474
X20.874Y35.774
X22.774Y37.175
X24.274Y37.875
X26.974Y38.574
X29.074
X30.574Y38.275
X32.074Y37.774
X34.474Y36.374
X35.774Y35.174
X37.175Y33.274
X38.275Y30.574
X38.574Y28.974
Y26.974
X38.275Y25.474
X37.774Y23.975
X36.374Y21.574
X35.174Y20.274
X33.274Y18.874
X32.074Y18.274
X29.074Y17.475
X26.974
X25.474Y17.774
X23.975Y18.274
X21.574Y19.675
X20.274Y20.874
G0Z10
X7.974Y6.374
G1Z-15F500
X8.175F1000
X10.174Y4.474
X12.874Y2.674
X16.874Y0.674
X20.174Y-0.425
X23.574Y-1.125
X28.574Y-1.425
X32.474Y-1.125
X35.875Y-0.425
X39.175Y0.674
X43.174Y2.674
X45.874Y4.474
X49.674Y7.974
Y8.175
X51.574Y10.174
X53.374Y12.874
X55.374Y16.874
X56.474Y20.174
X57.174Y23.574
X57.374Y25.974
Y30.074
X57.174Y32.474
X56.474Y35.875
X55.374Y39.175
X53.374Y43.174
X51.174Y46.374
X48.374Y49.374
X46.374Y51.174
X43.174Y53.374
X39.175Y55.374
X35.875Y56.474
X31.574Y57.274
X25.974Y57.374
X23.574Y57.174
X20.574Y56.574
X16.874Y55.374
X12.874Y53.374
X10.174Y51.574
X6.374Y48.074
Y47.874
X4.474Y45.874
X2.674Y43.174
X0.674Y39.175
X-0.425Y35.875
X-1.125Y32.474
X-1.425Y27.474
X-1.125Y23.574
X-0.425Y20.174
X0.674Y16.874
X2.674Y12.874
X4.474Y10.174
X7.974Y6.374
G0Z10
X20.274Y20.874
G1Z-15F500
X18.874Y22.774F1000
X17.874Y25.175
X17.475Y26.974
Y29.074
X17.774Y30.574
X18.274Y32.074
X19.675Y34.474
X20.874Y35.774
X22.774Y37.175
X24.274Y37.875
X26.974Y38.574
X29.074
X30.574Y38.275
X32.074Y37.774
X34.474Y36.374
X35.774Y35.174
X37.175Y33.274
X38.275Y30.574
X38.574Y28.974
Y26.974
X38.275Y25.474
X37.774Y23.975
X36.374Y21.574
X35.174Y20.274
X33.274Y18.874
X32.074Y18.274
X29.074Y17.475
X26.974
X25.474Y17.774
X23.975Y18.274
X21.574Y19.675
X20.274Y20.874
G0Z10
X7.974Y6.374
G1Z-16F500
X8.175F1000
X10.174Y4.474
X12.874Y2.674
X16.874Y0.674
X20.174Y-0.425
X23.574Y-1.125
X28.574Y-1.425
X32.474Y-1.125
X35.875Y-0.425
X39.175Y0.674
X43.174Y2.674
X45.874Y4.474
X49.674Y7.974
Y8.175
X51.574Y10.174
X53.374Y12.874
X55.374Y16.874
X56.474Y20.174
X57.174Y23.574
X57.374Y25.974
Y30.074
X57.174Y32.474
X56.474Y35.875
X55.374Y39.175
X53.374Y43.174
X51.174Y46.374
X48.374Y49.374
X46.374Y51.174
X43.174Y53.374
X39.175Y55.374
X35.875Y56.474
X31.574Y57.274
X25.974Y57.374
X23.574Y57.174
X20.574Y56.574
X16.874Y55.374
X12.874Y53.374
X10.174Y51.574
X6.374Y48.074
Y47.874
X4.474Y45.874
X2.674Y43.174
X0.674Y39.175
X-0.425Y35.875
X-1.125Y32.474
X-1.425Y27.474
X-1.125Y23.574
X-0.425Y20.174
X0.674Y16.874
X2.674Y12.874
X4.474Y10.174
X7.974Y6.374
G0Z10
X20.274Y20.874
G1Z-16F500
X18.874Y22.774F1000
X17.874Y25.175
X17.475Y26.974
Y29.074
X17.774Y30.574
X18.274Y32.074
X19.675Y34.474
X20.874Y35.774
X22.774Y37.175
X24.274Y37.875
X26.974Y38.574
X29.074
X30.574Y38.275
X32.074Y37.774
X34.474Y36.374
X35.774Y35.174
X37.175Y33.274
X38.275Y30.574
X38.574Y28.974
Y26.974
X38.275Y25.474
X37.774Y23.975
X36.374Y21.574
X35.174Y20.274
X33.274Y18.874
X32.074Y18.274
X29.074Y17.475
X26.974
X25.474Y17.774
X23.975Y18.274
X21.574Y19.675
X20.274Y20.874
G0Z10
X7.974Y6.374
G1Z-17F500
X8.175F1000
X10.174Y4.474
X12.874Y2.674
X16.874Y0.674
X20.174Y-0.425
X23.574Y-1.125
X28.574Y-1.425
X32.474Y-1.125
X35.875Y-0.425
X39.175Y0.674
X43.174Y2.674
X45.874Y4.474
X49.674Y7.974
Y8.175
X51.574Y10.174
X53.374Y12.874
X55.374Y16.874
X56.474Y20.174
X57.174Y23.574
X57.374Y25.974
Y30.074
X57.174Y32.474
X56.474Y35.875
X55.374Y39.175
X53.374Y43.174
X51.174Y46.374
X48.374Y49.374
X46.374Y51.174
X43.174Y53.374
X39.175Y55.374
X35.875Y56.474
X31.574Y57.274
X25.974Y57.374
X23.574Y57.174
X20.574Y56.574
X16.874Y55.374
X12.874Y53.374
X10.174Y51.574
X6.374Y48.074
Y47.874
X4.474Y45.874
X2.674Y43.174
X0.674Y39.175
X-0.425Y35.875
X-1.125Y32.474
X-1.425Y27.474
X-1.125Y23.574
X-0.425Y20.174
X0.674Y16.874
X2.674Y12.874
X4.474Y10.174
X7.974Y6.374
G0Z10
X20.274Y20.874
G1Z-17F500
X18.874Y22.774F1000
X17.874Y25.175
X17.475Y26.974
Y29.074
X17.774Y30.574
X18.274Y32.074
X19.675Y34.474
X20.874Y35.774
X22.774Y37.175
X24.274Y37.875
X26.974Y38.574
X29.074
X30.574Y38.275
X32.074Y37.774
X34.474Y36.374
X35.774Y35.174
X37.175Y33.274
X38.275Y30.574
X38.574Y28.974
Y26.974
X38.275Y25.474
X37.774Y23.975
X36.374Y21.574
X35.174Y20.274
X33.274Y18.874
X32.074Y18.274
X29.074Y17.475
X26.974
X25.474Y17.774
X23.975Y18.274
X21.574Y19.675
X20.274Y20.874
G0Z10
X7.974Y6.374
G1Z-17.999F500
X8.175F1000
X10.174Y4.474
X12.874Y2.674
X16.874Y0.674
X20.174Y-0.425
X23.574Y-1.125
X28.574Y-1.425
X32.474Y-1.125
X35.875Y-0.425
X39.175Y0.674
X43.174Y2.674
X45.874Y4.474
X49.674Y7.974
Y8.175
X51.574Y10.174
X53.374Y12.874
X55.374Y16.874
X56.474Y20.174
X57.174Y23.574
X57.374Y25.974
Y30.074
X57.174Y32.474
X56.474Y35.875
X55.374Y39.175
X53.374Y43.174
X51.174Y46.374
X48.374Y49.374
X46.374Y51.174
X43.174Y53.374
X39.175Y55.374
X35.875Y56.474
X31.574Y57.274
X25.974Y57.374
X23.574Y57.174
X20.574Y56.574
X16.874Y55.374
X12.874Y53.374
X10.174Y51.574
X6.374Y48.074
Y47.874
X4.474Y45.874
X2.674Y43.174
X0.674Y39.175
X-0.425Y35.875
X-1.125Y32.474
X-1.425Y27.474
X-1.125Y23.574
X-0.425Y20.174
X0.674Y16.874
X2.674Y12.874
X4.474Y10.174
X7.974Y6.374
G0Z10
X20.274Y20.874
G1Z-17.999F500
X18.874Y22.774F1000
X17.874Y25.175
X17.475Y26.974
Y29.074
X17.774Y30.574
X18.274Y32.074
X19.675Y34.474
X20.874Y35.774
X22.774Y37.175
X24.274Y37.875
X26.974Y38.574
X29.074
X30.574Y38.275
X32.074Y37.774
X34.474Y36.374
X35.774Y35.174
X37.175Y33.274
X38.275Y30.574
X38.574Y28.974
Y26.974
X38.275Y25.474
X37.774Y23.975
X36.374Y21.574
X35.174Y20.274
X33.274Y18.874
X32.074Y18.274
X29.074Y17.475
X26.974
X25.474Y17.774
X23.975Y18.274
X21.574Y19.675
X20.274Y20.874
G0Z10
X7.974Y6.374
G1Z-18.099F500
X8.175F1000
X10.174Y4.474
X12.874Y2.674
X16.874Y0.674
X20.174Y-0.425
X23.574Y-1.125
X28.574Y-1.425
X32.474Y-1.125
X35.875Y-0.425
X39.175Y0.674
X43.174Y2.674
X45.874Y4.474
X49.674Y7.974
Y8.175
X51.574Y10.174
X53.374Y12.874
X55.374Y16.874
X56.474Y20.174
X57.174Y23.574
X57.374Y25.974
Y30.074
X57.174Y32.474
X56.474Y35.875
X55.374Y39.175
X53.374Y43.174
X51.174Y46.374
X48.374Y49.374
X46.374Y51.174
X43.174Y53.374
X39.175Y55.374
X35.875Y56.474
X31.574Y57.274
X25.974Y57.374
X23.574Y57.174
X20.574Y56.574
X16.874Y55.374
X12.874Y53.374
X10.174Y51.574
X6.374Y48.074
Y47.874
X4.474Y45.874
X2.674Y43.174
X0.674Y39.175
X-0.425Y35.875
X-1.125Y32.474
X-1.425Y27.474
X-1.125Y23.574
X-0.425Y20.174
X0.674Y16.874
X2.674Y12.874
X4.474Y10.174
X7.974Y6.374
G0Z10
X20.274Y20.874
G1Z-18.099F500
X18.874Y22.774F1000
X17.874Y25.175
X17.475Y26.974
Y29.074
X17.774Y30.574
X18.274Y32.074
X19.675Y34.474
X20.874Y35.774
X22.774Y37.175
X24.274Y37.875
X26.974Y38.574
X29.074
X30.574Y38.275
X32.074Y37.774
X34.474Y36.374
X35.774Y35.174
X37.175Y33.274
X38.275Y30.574
X38.574Y28.974
Y26.974
X38.275Y25.474
X37.774Y23.975
X36.374Y21.574
X35.174Y20.274
X33.274Y18.874
X32.074Y18.274
X29.074Y17.475
X26.974
X25.474Y17.774
X23.975Y18.274
X21.574Y19.675
X20.274Y20.874
G0Z10
 
