(Created with grbl post processor 2026/07/09 12:54)
G21
(G-code Generated with Fabex and NC library)
(Rapids: 5000.0/min)
G17G90
S12000M03
G00 Z10.0 F5000.0

G0X0Y0Z10
X15.276Y12.658
G1Z-2.101F500
X15.944Y12.034F1000
X16.518Y11.651
X16.685Y11.54Z-2.102
X17.683Y10.874Z-2.103
X17.744Y10.844
X16.726Y11.592
X16.565Y11.71Z-2.101
X15.276Y12.658
G0Z10
X8.368Y24.541
G1Z-2.101F500
X8.329Y24.849F1000
X8.305Y25.047
X8.131Y26.436Z-2.1
X8.106Y26.635
X8.081Y26.833
X8.077Y26.647
X8.096Y26.384
X8.153Y25.586
X8.247Y25.129
X8.287Y24.933Z-2.101
X8.368Y24.541
G0Z10
X10.844Y38.305
G1Z-2.103F500
X11.474Y39.161F1000
X11.592Y39.323Z-2.102
X11.711Y39.484Z-2.101
X12.658Y40.773
X12.034Y40.105
X11.651Y39.531
X11.54Y39.364Z-2.102
X11.429Y39.198Z-2.103
X10.874Y38.366
X10.844Y38.305
G0Z10
X24.541Y47.681
G1Z-2.101F500
X24.897Y47.726F1000
X25.095Y47.75Z-2.1
X26.088Y47.874
X25.48
X25.129Y47.802
X24.933Y47.762Z-2.101
X24.541Y47.681
G0Z10
X38.305Y45.205
G1Z-2.103F500
X39.323Y44.457Z-2.102F1000
X39.484Y44.338Z-2.101
X40.773Y43.391
X40.105Y44.015
X39.531Y44.398
X39.364Y44.509Z-2.103
X38.366Y45.175
X38.305Y45.205
G0Z10
X46.962Y34.425
G1Z-2.1F500
X47.314Y33.29F1000
X47.272Y33.495
X46.962Y34.425
G0Z10
X47.747Y31.188
G1Z-2.101F500
X47.786Y30.836Z-2.1F1000
X47.874Y30.041
Y30.569
X47.828Y30.796
X47.747Y31.188Z-2.101
G0Z10
X45.205Y17.744
G1Z-2.103F500
X44.457Y16.726F1000
X44.339Y16.565Z-2.101
X43.391Y15.276
X44.015Y15.944
X44.398Y16.518
X44.509Y16.685Z-2.103
X45.175Y17.683
X45.205Y17.744
G0Z10
X31.508Y8.368
G1Z-2.101F500
X31.152Y8.323F1000
X30.954Y8.299
X29.961Y8.175Z-2.1
X30.569
X30.92Y8.247
X31.116Y8.287Z-2.101
X31.508Y8.368
X31.399Y9.362
X30.606Y9.263
X30.407Y9.238Z-2.1
X29.216Y9.089
X29.018Y9.064
X28.41Y8.989
X28.362Y8.983
X28.313Y8.979
X28.264Y8.977
X28.215Y8.975
X28.166
X28.117
X28.069Y8.977
X28.025Y8.98
X27.027Y9.051
X26.828Y9.066
X25.631Y9.151
X25.431Y9.165
X25.221Y9.18Z-2.101
X25.175Y9.184
X25.13Y9.189
X25.085Y9.196
X25.041Y9.203
X24.996Y9.211
X24.962Y9.217
X23.454Y9.535
X23.05Y9.62
X23Y9.632Z-2.1
X22.949Y9.645
X22.9Y9.659
X22.851Y9.674
X22.814Y9.687
X22.702Y9.726
X20.802Y10.391
X20.753Y10.409
X20.705Y10.428
X20.658Y10.449
X20.623Y10.465
X20.371Y10.584
X19.828Y10.839Z-2.101
X19.647Y10.924
X19.466Y11.009
X19.285Y11.095
X18.912Y11.27Z-2.102
X18.868Y11.292
X18.825Y11.314
X18.783Y11.338
X18.741Y11.362
X18.7Y11.388Z-2.103
X18.659Y11.414
X18.619Y11.442
X18.573Y11.475
X16.962Y12.66
X16.801Y12.778Z-2.101
X15.18Y13.971
X15.14Y14.001
X15.1Y14.033
X15.062Y14.065
X15.025Y14.099
X14.988Y14.133
X14.952Y14.169
X14.917Y14.205
X14.87Y14.256
X12.983Y16.342
X12.951Y16.379
X12.92Y16.417
X12.889Y16.455
X12.86Y16.495
X12.831Y16.535
X12.81Y16.565
X12.742Y16.668
X12.631Y16.835
X12.52Y17.001Z-2.103
X11.404Y18.675
X11.377Y18.717Z-2.102
X11.351Y18.759
X11.327Y18.802
X11.303Y18.846
X11.281Y18.89
X11.265Y18.923
X10.891Y19.718Z-2.101
X10.806Y19.899
X10.55Y20.442Z-2.1
X10.46Y20.634
X10.441Y20.677
X10.422Y20.72
X10.405Y20.764
X10.389Y20.809
X10.377Y20.842
X9.83Y22.483
X9.573Y23.254Z-2.101
X9.559Y23.301
X9.545Y23.348
X9.533Y23.396
X9.521Y23.444
X9.511Y23.492
X9.503Y23.541
X9.495Y23.59
X9.486Y23.657
X9.288Y25.245
X9.238Y25.642Z-2.1
X9.089Y26.833
X9.064Y27.031
X8.989Y27.639
X8.983Y27.687
X8.979Y27.736
X8.977Y27.785
X8.975Y27.834
Y27.883
Y27.932
X8.977Y27.98
X8.98Y28.024
X9.051Y29.022
X9.066Y29.221
X9.151Y30.418
X9.18Y30.828Z-2.101
X9.184Y30.874
X9.189Y30.919
X9.196Y30.964
X9.203Y31.008
X9.211Y31.053
X9.217Y31.087
X9.535Y32.595
X9.62Y32.999Z-2.1
X9.632Y33.049
X9.645Y33.1
X9.659Y33.149
X9.674Y33.198
X9.687Y33.235
X10.391Y35.247
X10.409Y35.296
X10.428Y35.344
X10.449Y35.391
X10.465Y35.426
X10.584Y35.678
X10.754Y36.04Z-2.101
X11.095Y36.764
X11.18Y36.945Z-2.102
X11.27Y37.137
X11.292Y37.181
X11.314Y37.224
X11.338Y37.266
X11.362Y37.308
X11.388Y37.349Z-2.103
X11.414Y37.39
X11.442Y37.43
X11.475Y37.476
X12.66Y39.087
X12.778Y39.248Z-2.101
X13.971Y40.869
X14.001Y40.909
X14.033Y40.949
X14.065Y40.987
X14.099Y41.024
X14.133Y41.061
X14.169Y41.097
X14.205Y41.132
X14.256Y41.179
X16.342Y43.066
X16.379Y43.098
X16.417Y43.129
X16.455Y43.16
X16.495Y43.189
X16.535Y43.218
X16.565Y43.239
X16.835Y43.418
X17.001Y43.529Z-2.103
X18.675Y44.645Z-2.102
X18.717Y44.672
X18.759Y44.698
X18.802Y44.722
X18.846Y44.746
X18.89Y44.768
X18.923Y44.784
X19.175Y44.903Z-2.101
X19.356Y44.988
X19.899Y45.244
X20.261Y45.414Z-2.1
X20.634Y45.589
X20.677Y45.608
X20.72Y45.627
X20.764Y45.644
X20.809Y45.66
X20.842Y45.672
X22.673Y46.282
X23.254Y46.476Z-2.101
X23.301Y46.49
X23.348Y46.504
X23.396Y46.516
X23.444Y46.528
X23.492Y46.538
X23.541Y46.546
X23.59Y46.554
X23.657Y46.563
X25.245Y46.761
X25.642Y46.811Z-2.1
X26.833Y46.96
X27.031Y46.985
X27.639Y47.06
X27.687Y47.066
X27.736Y47.07
X27.785Y47.072
X27.834Y47.074
X27.883
X27.932
X27.98Y47.072
X28.024Y47.069
X29.022Y46.998
X29.221Y46.983
X30.618Y46.884
X30.828Y46.869Z-2.101
X30.874Y46.865
X30.919Y46.86
X30.964Y46.853
X31.008Y46.846
X31.053Y46.838
X31.087Y46.832
X32.595Y46.514
X32.999Y46.429Z-2.1
X33.049Y46.417
X33.1Y46.404
X33.149Y46.39
X33.198Y46.375
X33.235Y46.362
X33.347Y46.323
X35.247Y45.658
X35.296Y45.64
X35.344Y45.621
X35.391Y45.6
X35.426Y45.584
X35.678Y45.465
X36.221Y45.21Z-2.101
X36.402Y45.125
X36.583Y45.04
X37.137Y44.779Z-2.102
X37.181Y44.757
X37.224Y44.735
X37.266Y44.711
X37.308Y44.687
X37.349Y44.661
X37.39Y44.635Z-2.103
X37.43Y44.607
X37.476Y44.574
X39.087Y43.389
X39.248Y43.271Z-2.101
X40.869Y42.078
X40.909Y42.048
X40.949Y42.016
X40.987Y41.984
X41.024Y41.95
X41.061Y41.916
X41.097Y41.88
X41.132Y41.844
X41.179Y41.793
X43.066Y39.707
X43.098Y39.67
X43.129Y39.632
X43.16Y39.594
X43.189Y39.554
X43.218Y39.514
X43.239Y39.484
X43.418Y39.214
X43.529Y39.048Z-2.102
X43.64Y38.882Z-2.103
X44.645Y37.374
X44.672Y37.332Z-2.102
X44.698Y37.29
X44.722Y37.247
X44.746Y37.203
X44.768Y37.159
X44.784Y37.126
X44.903Y36.874Z-2.101
X45.244Y36.15
X45.329Y35.969Z-2.1
X45.589Y35.416
X45.608Y35.373
X45.626Y35.331
X45.643Y35.288
X45.659Y35.244
X45.674Y35.2
X45.695Y35.132
X46.229Y33.413
X46.525Y32.458Z-2.101
X46.588Y32.256
X46.601Y32.21
X46.614Y32.164
X46.625Y32.118
X46.635Y32.072
X46.644Y32.025
X46.651Y31.978
X46.658Y31.931
X46.665Y31.873
X46.797Y30.681
X46.819Y30.482Z-2.1
X46.952Y29.289
X47.063Y28.284
X47.068Y28.238
X47.071Y28.192
X47.073Y28.146
X47.074Y28.1
Y28.054
X47.073Y28.007
X47.071Y27.961
X47.069Y27.927
X47.002Y27.022
X46.884Y25.426
X46.868Y25.213Z-2.101
X46.863Y25.16
X46.857Y25.107
X46.849Y25.054
X46.839Y25.002
X46.832Y24.962
X46.514Y23.454
X46.429Y23.05
X46.417Y23Z-2.1
X46.404Y22.949
X46.39Y22.9
X46.375Y22.851
X46.362Y22.814
X46.323Y22.702
X45.658Y20.802
X45.64Y20.753
X45.621Y20.705
X45.6Y20.658
X45.584Y20.623
X45.465Y20.371
X45.38Y20.19
X45.295Y20.009
X45.21Y19.828Z-2.101
X45.125Y19.647
X44.779Y18.912Z-2.102
X44.757Y18.868
X44.735Y18.825
X44.711Y18.783
X44.687Y18.741
X44.661Y18.7
X44.635Y18.659
X44.607Y18.619Z-2.103
X44.574Y18.573
X43.389Y16.962
X43.271Y16.801Z-2.101
X42.078Y15.18
X42.048Y15.14
X42.016Y15.1
X41.984Y15.062
X41.95Y15.025
X41.916Y14.988
X41.88Y14.952
X41.844Y14.917
X41.793Y14.87
X39.707Y12.983
X39.67Y12.951
X39.632Y12.92
X39.594Y12.889
X39.554Y12.86
X39.514Y12.831
X39.484Y12.81
X39.214Y12.631
X39.048Y12.52Z-2.102
X38.882Y12.409Z-2.103
X37.374Y11.404
X37.332Y11.377
X37.29Y11.351Z-2.102
X37.247Y11.327
X37.203Y11.303
X37.159Y11.281
X37.126Y11.265
X36.512Y10.976Z-2.101
X36.331Y10.891
X36.15Y10.806
X35.607Y10.55Z-2.1
X35.415Y10.46
X35.372Y10.441
X35.329Y10.422
X35.285Y10.405
X35.24Y10.389
X35.207Y10.377
X33.376Y9.767
X32.795Y9.573Z-2.101
X32.748Y9.559
X32.701Y9.545
X32.653Y9.533
X32.605Y9.521
X32.557Y9.511
X32.508Y9.503
X32.459Y9.495
X32.392Y9.486
X31.399Y9.362
X31.796Y7.406
X33.167Y7.688
X33.755Y7.809Z-2.1
X33.911Y7.861
X34.1Y7.925
X35.618Y8.431
X36.36Y8.791
X36.54Y8.878
X37.619Y9.402Z-2.102
X37.799Y9.49
X37.979Y9.577
X38.159Y9.665Z-2.103
X38.878Y10.014
X40.367Y11.007Z-2.102
X40.534Y11.118Z-2.101
X40.7Y11.229
X41.869Y12.397
X41.904Y12.431
X41.941Y12.465
X41.977Y12.497
X42.015Y12.528
X42.054Y12.559
X42.093Y12.588
X42.133Y12.617
X42.174Y12.644
X42.215Y12.671
X42.257Y12.696
X42.299Y12.721
X42.343Y12.744
X42.386Y12.766
X42.433Y12.789
X44.802Y15.321
X44.932Y15.516
X45.043Y15.683Z-2.103
X46.041Y17.18
X46.354Y17.805
X46.443Y17.984Z-2.102
X46.801Y18.7Z-2.101
X46.891Y18.879
X47.427Y19.952Z-2.1
X48.111Y21.928
X48.242Y22.306
X48.35Y22.832Z-2.101
X48.794Y24.986
X48.834Y25.182
X48.874Y25.378Z-2.1
Y26.671
Y26.871
Y29.071
Y30.471
Y30.671Z-2.101
X48.845Y30.816
X48.361Y33.167
X48.24Y33.755Z-2.1
X48.061Y34.29
X47.618Y35.618
X47.258Y36.36
X46.996Y36.899Z-2.101
X46.647Y37.619Z-2.102
X46.559Y37.799
X46.472Y37.979
X46.384Y38.159Z-2.103
X46.035Y38.878
X45.042Y40.367
X44.931Y40.534Z-2.101
X44.82Y40.7
X43.652Y41.869
X43.618Y41.904
X43.584Y41.941
X43.552Y41.977
X43.521Y42.015
X43.49Y42.054
X43.461Y42.093
X43.432Y42.133
X43.405Y42.174
X43.378Y42.215
X43.353Y42.257
X43.328Y42.299
X43.305Y42.343
X43.283Y42.386
X43.26Y42.433
X40.728Y44.802
X40.533Y44.932
X40.366Y45.043Z-2.103
X38.869Y46.041
X38.065Y46.443Z-2.102
X37.707Y46.622
X37.528Y46.712Z-2.101
X37.349Y46.801
X37.17Y46.891
X36.812Y47.069
X36.276Y47.338Z-2.1
X36.097Y47.427
X34.121Y48.111
X33.743Y48.242
X33.217Y48.35Z-2.101
X30.867Y48.834
X30.671Y48.874
X30.578Z-2.1
X29.378
X29.178
X26.778
X26.578
X25.378
X25.037Y48.804Z-2.101
X22.686Y48.32
X22.294Y48.24Z-2.1
X21.759Y48.061
X20.431Y47.618
X19.689Y47.258
X19.509Y47.171
X19.33Y47.083
X19.15Y46.996Z-2.101
X18.79Y46.821
X18.61Y46.734
X18.43Y46.647
X18.25Y46.559Z-2.102
X18.07Y46.472
X17.89Y46.384Z-2.103
X17.171Y46.035
X15.681Y45.042
X15.515Y44.931Z-2.101
X15.349Y44.82
X14.18Y43.652
X14.145Y43.618
X14.108Y43.584
X14.072Y43.552
X14.034Y43.521
X13.995Y43.49
X13.956Y43.461
X13.916Y43.432
X13.875Y43.405
X13.834Y43.378
X13.792Y43.353
X13.75Y43.328
X13.706Y43.305
X13.663Y43.283
X13.616Y43.26
X11.247Y40.728
X11.117Y40.533
X11.006Y40.366Z-2.102
X10.008Y38.869Z-2.103
X9.606Y38.065Z-2.102
X9.427Y37.707
X9.337Y37.528Z-2.101
X9.248Y37.349
X9.158Y37.17
X8.98Y36.812
X8.711Y36.276Z-2.1
X8.622Y36.097
X7.938Y34.121
X7.807Y33.743
X7.775Y33.586Z-2.101
X7.734Y33.39
X7.694Y33.194
X7.25Y31.04
X7.21Y30.844
X7.17Y30.648Z-2.1
X7.141Y29.422
X7.081Y26.823
X7.076Y26.623
X7.16Y25.449
X7.202Y25.244Z-2.101
X7.242Y25.048
X7.726Y22.697
X7.807Y22.306Z-2.1
X8.622Y19.952
X8.755Y19.685
X8.845Y19.506
X8.934Y19.327
X9.024Y19.148Z-2.101
X9.203Y18.79
X9.292Y18.611
X9.382Y18.432
X9.471Y18.254Z-2.102
X9.56Y18.075
X9.65Y17.896Z-2.103
X10.008Y17.179
X11.007Y15.681Z-2.102
X11.118Y15.515Z-2.101
X11.229Y15.349
X12.397Y14.18
X12.431Y14.145
X12.465Y14.108
X12.497Y14.072
X12.528Y14.034
X12.559Y13.995
X12.588Y13.956
X12.617Y13.916
X12.644Y13.875
X12.671Y13.834
X12.696Y13.792
X12.721Y13.75
X12.744Y13.706
X12.766Y13.663
X12.789Y13.616
X15.321Y11.247
X15.516Y11.117
X15.683Y11.006Z-2.102
X17.18Y10.008Z-2.103
X17.805Y9.695
X17.984Y9.606Z-2.102
X18.7Y9.248Z-2.101
X18.879Y9.158
X19.415Y8.89Z-2.1
X19.594Y8.801
X19.952Y8.622
X21.928Y7.938
X22.117Y7.873
X22.306Y7.807
X22.44Y7.779Z-2.101
X24.986Y7.255
X25.378Y7.175Z-2.1
X26.671
X26.871
X29.071
X30.671
X31.012Y7.245Z-2.101
X31.796Y7.406
X32.056Y6.439Z-2.236
X33.427Y6.721Z-2.234
X33.819Y6.802
X34.015Y6.842Z-2.24
X35.237Y7.25Z-2.242
X35.427Y7.313
X35.996Y7.503Z-2.243
X36.318Y7.659Z-2.232
X36.498Y7.746Z-2.231
X36.678Y7.834
X36.858Y7.921
X37.038Y8.008Z-2.232
X37.218Y8.096
X37.397Y8.183Z-2.233
X38.477Y8.707Z-2.235
X38.657Y8.795
X39.017Y8.97Z-2.236
X39.197Y9.057Z-2.238
X39.376Y9.144Z-2.245
X40.006Y9.564
X40.173Y9.675Z-2.246
X40.339Y9.786
X40.505Y9.897
X40.672Y10.008
X41.005Y10.23
X41.337Y10.452
X41.436Y10.55Z-2.241
X42.143Y11.257Z-2.223
X42.567Y11.682Z-2.213
X42.585Y11.699Z-2.212
X42.603Y11.715
X42.621Y11.732
X42.64Y11.748
X42.659Y11.763
X42.679Y11.778Z-2.213
X42.699Y11.792Z-2.214
X42.719Y11.806
X42.74Y11.819Z-2.215
X42.76Y11.832Z-2.216
X42.782Y11.845Z-2.218
X42.803Y11.856Z-2.219
X42.825Y11.868Z-2.221
X42.847Y11.878Z-2.222
X42.869Y11.889Z-2.224
X42.892Y11.898Z-2.226
X42.915Y11.907Z-2.228
X42.938Y11.916Z-2.231
X42.961Y11.924Z-2.233
X42.984Y11.931Z-2.236
X43.006Y11.938Z-2.238
X43.265Y12.215Z-2.228
X43.402Y12.361Z-2.225
X43.675Y12.653Z-2.221
X44.222Y13.237Z-2.228
X45.178Y14.259Z-2.24
X45.451Y14.552Z-2.243
X45.588Y14.698Z-2.25
X45.688Y14.847
X45.799Y15.013
X46.02Y15.346Z-2.249
X46.353Y15.845
X46.464Y16.012
X46.797Y16.511
X46.908Y16.677
X47.009Y16.88Z-2.243
X47.367Y17.596Z-2.244
X47.456Y17.774
X47.814Y18.49Z-2.246
X47.904Y18.669
X47.993Y18.848
X48.083Y19.027
X48.351Y19.563Z-2.247
X48.358Y19.583
X48.423Y19.772Z-2.245
X48.816Y20.906Z-2.247
X49.208Y22.04Z-2.249
X49.229Y22.142Z-2.245
X49.27Y22.338Z-2.244
X49.471Y23.317Z-2.246
X49.512Y23.513
X49.552Y23.709
X49.592Y23.905Z-2.247
X49.874Y25.276Z-2.249
Y25.373Z-2.246
Y25.773Z-2.239
Y25.973Z-2.236
Y27.573Z-2.207
Y27.973Z-2.201
Y28.173Z-2.203
Y28.373Z-2.206
Y29.973Z-2.235
Y30.573Z-2.245
Y30.773Z-2.252
X49.731Y31.468Z-2.251
X49.691Y31.664Z-2.25
X49.651Y31.86
X49.61Y32.056
X49.57Y32.252Z-2.249
X49.53Y32.448
X49.489Y32.643Z-2.248
X49.288Y33.623Z-2.247
X49.247Y33.819
X49.207Y34.015Z-2.253
X48.546Y35.996Z-2.256
X48.39Y36.318Z-2.244
X48.303Y36.498Z-2.243
X48.128Y36.858
X47.691Y37.757Z-2.245
X47.604Y37.937Z-2.246
X47.516Y38.117
X47.429Y38.297
X47.342Y38.477
X47.079Y39.017Z-2.248
X46.992Y39.197Z-2.25
X46.905Y39.376Z-2.256
X46.818Y39.507Z-2.257
X46.707Y39.673
X46.596Y39.84
X46.485Y40.006
X45.93Y40.838
X45.819Y41.005
X45.708Y41.171
X45.597Y41.337
X45.499Y41.436Z-2.251
X44.367Y42.567Z-2.223
X44.35Y42.585Z-2.222
X44.334Y42.603
X44.317Y42.621
X44.301Y42.64
X44.286Y42.659Z-2.223
X44.271Y42.679
X44.257Y42.699Z-2.224
X44.243Y42.719
X44.23Y42.74Z-2.225
X44.217Y42.76Z-2.226
X44.204Y42.782Z-2.227
X44.193Y42.803Z-2.229
X44.181Y42.825Z-2.23
X44.171Y42.847Z-2.232
X44.16Y42.869Z-2.234
X44.151Y42.892Z-2.236
X44.142Y42.915Z-2.238
X44.133Y42.938Z-2.241
X44.125Y42.961Z-2.243
X44.118Y42.984Z-2.246
X44.111Y43.006Z-2.249
X43.688Y43.402Z-2.233
X43.542Y43.539Z-2.232
X43.396Y43.675Z-2.23
X42.812Y44.222Z-2.236
X42.666Y44.358Z-2.238
X42.228Y44.768Z-2.243
X42.082Y44.905Z-2.245
X41.497Y45.451Z-2.252
X41.351Y45.588Z-2.257
X41.202Y45.688
X41.036Y45.799
X40.703Y46.02
X39.704Y46.686
X39.538Y46.797
X39.372Y46.908
X39.169Y47.009Z-2.25
X38.453Y47.367
X37.559Y47.814Z-2.251
X37.38Y47.904Z-2.252
X37.201Y47.993
X36.665Y48.261Z-2.253
X36.486Y48.351
X36.466Y48.358
X36.277Y48.423Z-2.249
X34.009Y49.208Z-2.253
X33.907Y49.229Z-2.25
X33.711Y49.27Z-2.247
X32.927Y49.431Z-2.248
X31.164Y49.794Z-2.251
X30.969Y49.834
X30.773Y49.874Z-2.252
X30.676Z-2.247
X30.476Z-2.243
X30.276Z-2.24
X30.076Z-2.237
X28.476Z-2.208
X28.076Z-2.202
X27.876
X25.876Z-2.237
X25.676Z-2.241
X25.476Z-2.244
X25.276Z-2.249
X24.973Y49.812
X24.777Y49.772Z-2.248
X24.581Y49.731
X24.385Y49.691
X24.189Y49.651Z-2.247
X23.993Y49.61
X23.797Y49.57Z-2.246
X23.601Y49.53
X23.406Y49.489
X23.21Y49.449
X23.014Y49.409Z-2.245
X22.818Y49.368
X22.23Y49.247Z-2.244
X22.034Y49.207Z-2.249
X20.812Y48.799Z-2.251
X20.622Y48.736
X20.053Y48.546Z-2.252
X19.731Y48.39Z-2.24
X19.551Y48.303Z-2.237
X19.191Y48.128Z-2.238
X18.292Y47.691Z-2.239
X18.112Y47.604Z-2.24
X17.932Y47.516
X17.752Y47.429
X17.392Y47.254Z-2.241
X16.852Y46.992Z-2.243
X16.673Y46.905Z-2.249
X16.542Y46.818
X16.376Y46.707
X16.209Y46.596
X16.043Y46.485
X15.044Y45.819Z-2.25
X14.878Y45.708
X14.712Y45.597
X14.613Y45.499Z-2.242
X14.189Y45.074Z-2.231
X13.482Y44.367Z-2.214
X13.464Y44.35Z-2.213
X13.446Y44.334
X13.428Y44.317
X13.409Y44.301
X13.39Y44.286Z-2.214
X13.37Y44.271
X13.35Y44.257Z-2.215
X13.33Y44.243Z-2.216
X13.309Y44.23Z-2.217
X13.289Y44.217Z-2.218
X13.267Y44.204Z-2.219
X13.246Y44.193Z-2.22
X13.224Y44.181Z-2.222
X13.202Y44.171Z-2.223
X13.18Y44.16Z-2.225
X13.157Y44.151Z-2.227
X13.134Y44.142Z-2.23
X13.111Y44.133Z-2.232
X13.088Y44.125Z-2.234
X13.065Y44.118Z-2.237
X13.043Y44.111Z-2.24
X12.647Y43.688Z-2.225
X12.374Y43.396Z-2.221
X12.237Y43.25
X11.827Y42.812Z-2.226
X10.598Y41.497Z-2.242
X10.461Y41.351Z-2.246
X9.807Y40.37
X9.696Y40.204
X9.474Y39.871Z-2.245
X9.141Y39.372
X9.04Y39.169Z-2.238
X8.95Y38.99Z-2.237
X8.771Y38.632
X8.593Y38.275Z-2.238
X8.503Y38.096
X8.414Y37.917Z-2.239
X7.698Y36.486Z-2.241
X7.626Y36.277Z-2.236
X7.495Y35.899Z-2.237
X7.299Y35.332Z-2.238
X6.972Y34.387Z-2.24
X6.841Y34.009
X6.817Y33.895Z-2.237
X6.777Y33.7Z-2.234
X6.696Y33.308
X6.656Y33.112
X6.616Y32.916Z-2.235
X6.575Y32.72
X6.535Y32.524
X6.495Y32.328Z-2.236
X6.454Y32.132
X6.414Y31.936Z-2.237
X6.374Y31.741
X6.333Y31.545
X6.293Y31.349
X6.253Y31.153Z-2.238
X6.212Y30.957
X6.172Y30.761Z-2.239
X6.168Y30.597Z-2.234
X6.159Y30.198Z-2.229
X6.154Y29.998Z-2.227
X6.117Y28.398Z-2.209
X6.113Y28.198Z-2.207
X6.108Y27.998Z-2.205
X6.103Y27.798Z-2.209
X6.075Y26.599Z-2.238
X6.11Y26.11Z-2.237
X6.153Y25.511Z-2.236
X6.167Y25.312
X6.236Y24.978Z-2.235
X6.276Y24.782
X6.317Y24.587
X6.357Y24.391
X6.397Y24.195Z-2.234
X6.438Y23.999
X6.478Y23.803Z-2.233
X6.599Y23.215Z-2.232
X6.639Y23.019
X6.679Y22.824
X6.72Y22.628Z-2.231
X6.8Y22.236
X6.841Y22.04Z-2.236
X7.633Y19.752Z-2.232
X7.698Y19.563Z-2.235
X7.889Y19.182Z-2.234
X8.694Y17.572Z-2.232
X8.783Y17.393Z-2.231
X8.962Y17.035
X9.052Y16.856Z-2.232
X9.141Y16.677Z-2.238
X9.564Y16.043
X9.675Y15.876
X9.786Y15.71
X9.897Y15.544
X10.008Y15.377
X10.452Y14.712Z-2.239
X10.55Y14.613Z-2.232
X10.975Y14.189Z-2.221
X11.682Y13.482Z-2.204
X11.699Y13.464Z-2.203
X11.715Y13.446
X11.732Y13.428
X11.748Y13.409
X11.763Y13.39Z-2.204
X11.778Y13.37
X11.792Y13.35Z-2.205
X11.806Y13.33
X11.819Y13.309Z-2.206
X11.832Y13.289Z-2.208
X11.845Y13.267Z-2.209
X11.856Y13.246Z-2.21
X11.868Y13.224Z-2.212
X11.878Y13.202Z-2.214
X11.889Y13.18Z-2.215
X11.898Y13.157Z-2.217
X11.907Y13.134Z-2.22
X11.916Y13.111Z-2.222
X11.924Y13.088Z-2.224
X11.931Y13.065Z-2.227
X11.938Y13.043Z-2.23
X12.215Y12.784Z-2.22
X12.361Y12.647Z-2.215
X12.507Y12.51Z-2.214
X12.653Y12.374Z-2.212
X12.799Y12.237
X13.091Y11.964Z-2.216
X13.675Y11.417Z-2.223
X14.552Y10.598Z-2.233
X14.698Y10.461Z-2.239
X15.679Y9.807Z-2.238
X15.845Y9.696
X16.178Y9.474
X16.677Y9.141
X16.88Y9.04Z-2.231
X17.417Y8.771
X18.132Y8.414Z-2.233
X19.563Y7.698Z-2.235
X19.583Y7.691
X19.772Y7.626Z-2.232
X21.095Y7.168Z-2.234
X22.04Y6.841Z-2.236
X22.142Y6.82Z-2.232
X22.338Y6.779Z-2.231
X22.73Y6.699
X23.317Y6.578Z-2.232
X23.513Y6.537Z-2.233
X23.709Y6.497
X23.905Y6.457
X24.101Y6.416Z-2.234
X24.689Y6.295Z-2.235
X24.885Y6.255
X25.08Y6.215
X25.276Y6.175Z-2.236
X25.373Z-2.233
X25.773Z-2.225
X25.973Z-2.222
X27.573Z-2.194
X27.973Z-2.187
X28.373Z-2.193
X29.973Z-2.221
X30.573Z-2.232
X30.773Z-2.239
X30.88Y6.197Z-2.238
X32.056Y6.439Z-2.236
G0Z10
X31.474Y10.379
G1Z-2.241F500
X31.275Y10.354Z-2.245F1000
X31.077Y10.33Z-2.249
X30.878Y10.305Z-2.252
X30.68Y10.28Z-2.256
X30.482Y10.255Z-2.258
X29.886Y10.181Z-2.249
X29.688Y10.156Z-2.245
X28.299Y9.982Z-2.224
X28.274Y9.979Z-2.223
X28.25Y9.977
X28.225Y9.976
X28.201Y9.975Z-2.224
X28.177
X28.152
X28.128Y9.976Z-2.225
X28.096Y9.978Z-2.226
X27.897Y9.992Z-2.23
X26.301Y10.106Z-2.232
X26.101Y10.12Z-2.233
X25.503Y10.163
X25.303Y10.177Z-2.228
X25.281Y10.179
X25.258Y10.181Z-2.227
X25.236Y10.184
X25.213Y10.188
X25.191Y10.192Z-2.226
X25.168Y10.196
X25.03Y10.225Z-2.227
X24.834Y10.266
X24.638Y10.308Z-2.228
X24.443Y10.349Z-2.229
X24.247Y10.39
X24.051Y10.431Z-2.23
X23.856Y10.472
X23.66Y10.514Z-2.231
X23.464Y10.555
X23.268Y10.596Z-2.226
X23.243Y10.602Z-2.225
X23.218Y10.608Z-2.224
X23.193Y10.615
X23.169Y10.622
X23.144Y10.631
X22.088Y11Z-2.226
X21.144Y11.331Z-2.229
X21.12Y11.339
X21.096Y11.349Z-2.23
X21.072Y11.359
X21.049Y11.37
X20.977Y11.403Z-2.231
X19.711Y11.999Z-2.224
X19.53Y12.085Z-2.223
X19.349Y12.17Z-2.222
X19.327Y12.18
X19.305Y12.191
X19.284Y12.203Z-2.223
X19.263Y12.215
X19.242Y12.228Z-2.224
X19.222Y12.241
X19.202Y12.255Z-2.225
X19.166Y12.281Z-2.227
X19.005Y12.399Z-2.231
X18.199Y12.992Z-2.243
X18.038Y13.11Z-2.246
X17.555Y13.466Z-2.253
X17.232Y13.703Z-2.258
X17.071Y13.821Z-2.259
X16.91Y13.94Z-2.255
X16.588Y14.176Z-2.246
X16.427Y14.295Z-2.241
X15.782Y14.769Z-2.223
X15.762Y14.784Z-2.222
X15.742Y14.8
X15.723Y14.816
X15.704Y14.832
X15.686Y14.85
X15.668Y14.867
X15.65Y14.885Z-2.223
X15.612Y14.927Z-2.225
X15.343Y15.224Z-2.237
X15.209Y15.372Z-2.239
X14.136Y16.559Z-2.232
X14.001Y16.707Z-2.231
X13.733Y17.004Z-2.23
X13.717Y17.022Z-2.229
X13.701Y17.041
X13.686Y17.06Z-2.228
X13.671Y17.08
X13.656Y17.1
X13.642Y17.12
X13.463Y17.389
X13.13Y17.889
X12.797Y18.388
X12.353Y19.053
X12.242Y19.22Z-2.224
X12.229Y19.241
X12.216Y19.262Z-2.223
X12.204Y19.283
X12.192Y19.305Z-2.222
X12.18Y19.326
X12.17Y19.349
X11.881Y19.963Z-2.225
X11.795Y20.144Z-2.227
X11.71Y20.325
X11.625Y20.506Z-2.229
X11.54Y20.687
X11.455Y20.868Z-2.231
X11.37Y21.049Z-2.23
X11.36Y21.07
X11.351Y21.092
X11.342Y21.114Z-2.229
X11.334Y21.136
X11.326Y21.158
X10.589Y23.369Z-2.233
X10.526Y23.558Z-2.229
X10.518Y23.582Z-2.228
X10.511Y23.605
X10.505Y23.629Z-2.227
X10.499Y23.653
X10.494Y23.677
X10.49Y23.702
X10.486Y23.726
X10.478Y23.781Z-2.228
X10.379Y24.575Z-2.244
X10.305Y25.171Z-2.255
X10.28Y25.369Z-2.259
X10.255Y25.567
X10.205Y25.964Z-2.253
X9.982Y27.75Z-2.225
X9.979Y27.775Z-2.224
X9.977Y27.799
X9.976Y27.824
X9.975Y27.848
Y27.872Z-2.225
Y27.897
X9.976Y27.921Z-2.226
X9.978Y27.953Z-2.227
X9.992Y28.152Z-2.229
X10.092Y29.549Z-2.231
X10.149Y30.347Z-2.232
X10.163Y30.546
X10.177Y30.746Z-2.226
X10.179Y30.768Z-2.225
X10.181Y30.791
X10.184Y30.813Z-2.224
X10.188Y30.836
X10.192Y30.858
X10.196Y30.881
X10.349Y31.606Z-2.226
X10.39Y31.802
X10.431Y31.998Z-2.227
X10.472Y32.193Z-2.228
X10.514Y32.389
X10.555Y32.585Z-2.227
X10.596Y32.781Z-2.221
X10.602Y32.806
X10.608Y32.831Z-2.22
X10.615Y32.856
X10.622Y32.88
X10.631Y32.905
X10.802Y33.395Z-2.221
X11Y33.961Z-2.222
X11.331Y34.905Z-2.225
X11.339Y34.929
X11.349Y34.953
X11.359Y34.977
X11.37Y35
X11.829Y35.976Z-2.22
X11.914Y36.157Z-2.219
X11.999Y36.338Z-2.218
X12.085Y36.519Z-2.217
X12.17Y36.7Z-2.216
X12.18Y36.722
X12.191Y36.744
X12.203Y36.765Z-2.217
X12.215Y36.786
X12.228Y36.807Z-2.218
X12.241Y36.827
X12.255Y36.847Z-2.219
X12.281Y36.883Z-2.221
X12.399Y37.044Z-2.224
X12.992Y37.85Z-2.236
X13.11Y38.011Z-2.239
X13.466Y38.494Z-2.245
X13.703Y38.817Z-2.25
X13.821Y38.978Z-2.251
X14.058Y39.3Z-2.241
X14.413Y39.783Z-2.227
X14.769Y40.267Z-2.214
X14.784Y40.287Z-2.213
X14.8Y40.307
X14.816Y40.326
X14.832Y40.345
X14.85Y40.363
X14.867Y40.381
X14.885Y40.399Z-2.214
X14.904Y40.416
X15.076Y40.572Z-2.222
X15.224Y40.706Z-2.228
X15.372Y40.84Z-2.229
X16.114Y41.511Z-2.225
X16.262Y41.645Z-2.224
X16.559Y41.913Z-2.222
X17.004Y42.316Z-2.219
X17.022Y42.332
X17.041Y42.348Z-2.218
X17.06Y42.363Z-2.217
X17.08Y42.378
X17.1Y42.393
X17.12Y42.407
X17.389Y42.586
X17.556Y42.697
X17.722Y42.808
X18.388Y43.252
X18.554Y43.363
X19.053Y43.696
X19.22Y43.807Z-2.212
X19.241Y43.82
X19.262Y43.833Z-2.211
X19.283Y43.845Z-2.21
X19.305Y43.857
X19.326Y43.869
X19.349Y43.879
X19.601Y43.998Z-2.212
X19.782Y44.083
X20.868Y44.594Z-2.218
X21.049Y44.679
X21.07Y44.689
X21.092Y44.698Z-2.217
X21.114Y44.707
X21.136Y44.715
X21.158Y44.723Z-2.216
X22.61Y45.207Z-2.219
X23.369Y45.46Z-2.22
X23.558Y45.523Z-2.216
X23.582Y45.531Z-2.215
X23.605Y45.538Z-2.214
X23.629Y45.544
X23.653Y45.55
X23.677Y45.555
X23.702Y45.559
X23.726Y45.563
X23.781Y45.571Z-2.215
X23.98Y45.595Z-2.219
X24.575Y45.67Z-2.23
X24.774Y45.695Z-2.234
X25.369Y45.769Z-2.246
X25.567Y45.794
X25.964Y45.844Z-2.24
X27.75Y46.067Z-2.211
X27.775Y46.07
X27.799Y46.072
X27.824Y46.073
X27.848Y46.074
X27.872
X27.897Z-2.212
X27.921Y46.073
X27.953Y46.071Z-2.214
X28.152Y46.057Z-2.216
X29.748Y45.943Z-2.218
X29.948Y45.929
X30.347Y45.9Z-2.219
X30.546Y45.886Z-2.218
X30.746Y45.872Z-2.213
X30.768Y45.87Z-2.212
X30.791Y45.868Z-2.211
X30.813Y45.865
X30.836Y45.861
X30.858Y45.857
X30.881Y45.853
X31.019Y45.824
X31.215Y45.783Z-2.212
X31.411Y45.741
X31.606Y45.7Z-2.213
X31.802Y45.659
X31.998Y45.618Z-2.214
X32.193Y45.577
X32.389Y45.535Z-2.215
X32.585Y45.494
X32.781Y45.453Z-2.209
X32.806Y45.447Z-2.208
X32.831Y45.441Z-2.207
X32.856Y45.434
X32.88Y45.427
X32.905Y45.418
X34.905Y44.718Z-2.212
X34.929Y44.71
X34.953Y44.7Z-2.213
X34.977Y44.69
X35Y44.679
X35.253Y44.561Z-2.212
X35.434Y44.475Z-2.211
X35.615Y44.39Z-2.21
X35.795Y44.305Z-2.209
X36.7Y43.879Z-2.204
X36.722Y43.869
X36.744Y43.858
X36.765Y43.846Z-2.205
X36.786Y43.834
X36.807Y43.821Z-2.206
X36.827Y43.808
X36.847Y43.794Z-2.207
X36.883Y43.768Z-2.209
X37.044Y43.65Z-2.213
X37.367Y43.413Z-2.218
X37.689Y43.176Z-2.222
X38.333Y42.702Z-2.232
X38.817Y42.346Z-2.239
X38.978Y42.228Z-2.24
X39.3Y41.991Z-2.231
X39.461Y41.873Z-2.227
X40.267Y41.28Z-2.204
X40.287Y41.265Z-2.203
X40.307Y41.249
X40.326Y41.233
X40.345Y41.217
X40.363Y41.199
X40.381Y41.182
X40.399Y41.164Z-2.204
X40.437Y41.122Z-2.205
X40.706Y40.825Z-2.218
X40.84Y40.677Z-2.22
X42.316Y39.045Z-2.211
X42.332Y39.027Z-2.21
X42.348Y39.008
X42.363Y38.989
X42.378Y38.969
X42.393Y38.949Z-2.209
X42.407Y38.929
X42.697Y38.493
X42.919Y38.16
X43.252Y37.661
X43.363Y37.495Z-2.21
X43.696Y36.996
X43.807Y36.829Z-2.206
X43.82Y36.808
X43.833Y36.787Z-2.205
X43.845Y36.766
X43.857Y36.744Z-2.204
X43.869Y36.723
X43.879Y36.7
X43.998Y36.448Z-2.206
X44.083Y36.267
X44.594Y35.181Z-2.213
X44.679Y35
X44.689Y34.979
X44.698Y34.958
X44.707Y34.936Z-2.212
X44.715Y34.915
X44.722Y34.893
X44.74Y34.836
X45.392Y32.735Z-2.228
X45.452Y32.544
X45.511Y32.353Z-2.224
X45.57Y32.162Z-2.218
X45.63Y31.971Z-2.212
X45.636Y31.948
X45.643Y31.925Z-2.211
X45.648Y31.902
X45.653Y31.879
X45.658Y31.856
X45.662Y31.832
X45.665Y31.809
X45.671Y31.763Z-2.212
X45.737Y31.167Z-2.226
X45.759Y30.968Z-2.23
X45.781Y30.769Z-2.235
X45.803Y30.57Z-2.239
X45.825Y30.371
X45.87Y29.974Z-2.234
X45.892Y29.775Z-2.231
X46.068Y28.185Z-2.212
X46.071Y28.162
X46.072Y28.139
X46.074Y28.116
Y28.093
Y28.07
Y28.047Z-2.213
X46.073Y28.024Z-2.214
X46.072Y28.001
X45.946Y26.298Z-2.218
X45.931Y26.098Z-2.219
X45.887Y25.5Z-2.22
X45.872Y25.301Z-2.215
X45.869Y25.274Z-2.214
X45.866Y25.247
X45.863Y25.221Z-2.213
X45.858Y25.195
X45.853Y25.168
X45.659Y24.247Z-2.216
X45.618Y24.051Z-2.217
X45.577Y23.856
X45.535Y23.66Z-2.218
X45.494Y23.464
X45.453Y23.268Z-2.213
X45.447Y23.243Z-2.212
X45.441Y23.218
X45.434Y23.193Z-2.211
X45.427Y23.169
X45.418Y23.144
X44.983Y21.899Z-2.214
X44.718Y21.144Z-2.217
X44.71Y21.12
X44.7Y21.096
X44.69Y21.072Z-2.218
X44.679Y21.049
X44.646Y20.977Z-2.219
X44.561Y20.796Z-2.218
X44.475Y20.615Z-2.217
X44.39Y20.434Z-2.216
X44.305Y20.254Z-2.215
X43.879Y19.349Z-2.21
X43.869Y19.327
X43.858Y19.305
X43.846Y19.284
X43.834Y19.263Z-2.211
X43.821Y19.242Z-2.212
X43.808Y19.222
X43.794Y19.202Z-2.213
X43.768Y19.166Z-2.215
X43.65Y19.005Z-2.22
X42.82Y17.877Z-2.237
X42.702Y17.716Z-2.24
X42.228Y17.071Z-2.249
X42.109Y16.91Z-2.245
X41.991Y16.749Z-2.24
X41.636Y16.266Z-2.226
X41.517Y16.104Z-2.222
X41.28Y15.782Z-2.212
X41.265Y15.762
X41.249Y15.742
X41.233Y15.723Z-2.211
X41.217Y15.704
X41.199Y15.686Z-2.212
X41.182Y15.668
X41.164Y15.65Z-2.213
X41.122Y15.612Z-2.214
X40.973Y15.477Z-2.221
X40.825Y15.343Z-2.227
X40.677Y15.209Z-2.23
X40.528Y15.075Z-2.229
X40.38Y14.941Z-2.228
X39.935Y14.538Z-2.226
X39.787Y14.404Z-2.225
X39.49Y14.136Z-2.224
X39.045Y13.733Z-2.221
X39.027Y13.717
X39.008Y13.701
X38.989Y13.686
X38.969Y13.671
X38.949Y13.656Z-2.22
X38.929Y13.642
X38.66Y13.463
X38.16Y13.13Z-2.221
X37.661Y12.797Z-2.22
X37.328Y12.575Z-2.221
X36.996Y12.353
X36.829Y12.242Z-2.218
X36.808Y12.229
X36.787Y12.216Z-2.217
X36.766Y12.204
X36.744Y12.192Z-2.216
X36.723Y12.18
X36.7Y12.17
X36.086Y11.881Z-2.219
X35.905Y11.795Z-2.221
X35.724Y11.71Z-2.222
X35.181Y11.455Z-2.225
X35Y11.37
X34.979Y11.36
X34.957Y11.351
X34.935Y11.342
X34.913Y11.334
X34.891Y11.326
X34.388Y11.158Z-2.226
X32.68Y10.589Z-2.228
X32.491Y10.526Z-2.226
X32.467Y10.518Z-2.225
X32.444Y10.511
X32.42Y10.505
X32.396Y10.499Z-2.224
X32.372Y10.494
X32.347Y10.49
X32.323Y10.486Z-2.225
X32.268Y10.478
X31.672Y10.404Z-2.237
X31.474Y10.379Z-2.241
G0Z10
X10.975Y12.575
G1Z-2.5F500
X14.075Y9.675F1000
X16.175Y8.274
X19.174Y6.775
X21.775Y5.875
X25.175Y5.175
X30.874
X34.274Y5.875
X36.374Y6.575
X39.875Y8.274
X41.974Y9.675
X43.274Y10.975
X43.474
X46.374Y14.075
X47.775Y16.175
X49.275Y19.174
X50.175Y21.775
X50.874Y25.175
Y30.874
X50.175Y34.274
X49.474Y36.374
X47.775Y39.875
X46.374Y41.974
X45.074Y43.274
Y43.474
X41.974Y46.374
X39.875Y47.775
X36.874Y49.275
X34.274Y50.175
X30.874Y50.874
X25.175
X21.775Y50.175
X19.675Y49.474
X16.175Y47.775
X14.075Y46.374
X12.774Y45.074
X12.575
X9.675Y41.974
X8.274Y39.875
X6.775Y36.874
X5.875Y34.274
X5.175Y30.874
X5.075Y26.574
X5.175Y25.175
X5.875Y21.775
X6.775Y19.174
X8.274Y16.175
X9.675Y14.075
X10.975Y12.774
Y12.575
G0Z10
X16.375Y15.574
G1Z-2.5F500
X14.474Y17.674F1000
X13.075Y19.774
X12.275Y21.475
X11.475Y23.875
X10.975Y27.874
X11.175Y30.675
X11.574Y32.575
X12.275Y34.575
X13.075Y36.274
X15.574Y39.674
X17.674Y41.575
X19.774Y42.974
X21.475Y43.775
X23.875Y44.574
X27.874Y45.074
X30.675Y44.875
X32.575Y44.475
X34.575Y43.775
X36.274Y42.974
X39.674Y40.475
X41.575Y38.374
X42.974Y36.274
X43.775Y34.575
X44.675Y31.675
X45.074Y28.074
X44.875Y25.374
X44.475Y23.474
X43.775Y21.475
X42.974Y19.774
X40.475Y16.375
X38.374Y14.474
X36.274Y13.075
X34.575Y12.275
X32.175Y11.475
X28.175Y10.975
X25.374Y11.175
X23.474Y11.574
X21.475Y12.275
X19.774Y13.075
X16.375Y15.574
G0Z10
X10.775Y10.075
G1Z-3F500
X10.975F1000
X12.975Y8.175
X15.374Y6.575
X18.375Y5.075
X21.274Y4.075
X24.674Y3.375
X28.874Y3.175
X31.374Y3.375
X34.375Y3.975
X37.675Y5.075
X40.674Y6.575
X43.074Y8.175
X45.975Y10.775
Y10.975
X47.874Y12.975
X49.474Y15.374
X50.974Y18.375
X51.974Y21.274
X52.674Y24.674
X52.874Y28.874
X52.674Y31.374
X52.074Y34.375
X50.974Y37.675
X49.474Y40.674
X47.874Y43.074
X45.274Y45.975
X45.074
X43.074Y47.874
X40.674Y49.474
X37.675Y50.974
X34.775Y51.974
X31.374Y52.674
X27.175Y52.874
X24.674Y52.674
X21.675Y52.074
X18.375Y50.974
X15.374Y49.474
X12.975Y47.874
X10.075Y45.274
Y45.074
X8.175Y43.074
X6.575Y40.674
X5.075Y37.675
X4.075Y34.775
X3.375Y31.374
X3.175Y27.175
X3.375Y24.674
X3.975Y21.675
X5.075Y18.375
X6.575Y15.374
X8.175Y12.975
X10.775Y10.075
G0Z10
X17.375Y17.175
G1Z-3F500
X15.975Y18.774F1000
X14.075Y21.974
X13.274Y24.374
X12.875Y27.375
X12.975Y30.174
X13.874Y33.574
X14.775Y35.475
X17.175Y38.674
X18.774Y40.075
X21.974Y41.974
X24.374Y42.774
X27.375Y43.175
X30.174Y43.074
X32.074Y42.675
X34.074Y41.974
X37.274Y40.075
X38.474Y38.874
X38.674
X40.075Y37.274
X41.974Y34.074
X42.774Y31.675
X43.175Y28.574
X43.074Y25.874
X42.174Y22.474
X41.274Y20.575
X38.874Y17.375
X37.274Y15.975
X34.074Y14.075
X31.675Y13.274
X28.674Y12.875
X25.874Y12.975
X22.474Y13.874
X20.575Y14.775
X17.375Y17.175
G0Z10
X9.875Y9.575
G1Z-3.5F500
X10.075F1000
X12.275Y7.475
X14.974Y5.675
X15.674Y5.475
X18.275Y4.075
X21.274Y3.075
X24.774Y2.375
X28.475Y2.175
X31.275Y2.375
X34.775Y3.075
X37.774Y4.075
X40.374Y5.475
X41.074Y5.675
X43.775Y7.475
X46.474Y9.875
Y10.075
X48.574Y12.275
X50.375Y14.974
X50.574Y15.674
X51.974Y18.275
X52.974Y21.274
X53.675Y24.774
X53.874Y28.475
X53.675Y31.275
X52.974Y34.775
X51.974Y37.774
X50.574Y40.374
X50.375Y41.074
X48.974Y43.175
X46.174Y46.474
X45.174Y47.174
X43.775Y48.574
X41.074Y50.375
X40.374Y50.574
X37.774Y51.974
X34.775Y52.974
X31.275Y53.675
X27.574Y53.874
X24.774Y53.675
X21.274Y52.974
X18.275Y51.974
X14.675Y50.175
X12.275Y48.574
X9.575Y46.174
X8.175Y44.374
X7.475Y43.775
X5.675Y41.074
X5.475Y40.374
X4.075Y37.774
X3.075Y34.775
X2.375Y31.275
X2.175Y27.574
X2.375Y24.774
X3.075Y21.274
X4.075Y18.275
X5.475Y15.674
X5.675Y14.974
X7.275Y12.575
X9.875Y9.575
G0Z10
X17.674Y18.275
G1Z-3.5F500
X15.674Y20.974F1000
X14.874Y22.575
X13.975Y25.774
X13.874Y29.074
X14.175Y31.275
X14.874Y33.475
X16.674Y36.575
X18.275Y38.374
X20.974Y40.374
X22.575Y41.175
X25.774Y42.075
X29.074Y42.174
X31.675Y41.774
X33.475Y41.175
X35.074Y40.374
X36.975Y39.074
X39.074Y36.975
X40.374Y35.074
X41.175Y33.475
X41.774Y31.675
X42.174Y28.974
X42.075Y25.774
X41.774Y24.374
X41.175Y22.575
X40.374Y20.974
X39.074Y19.074
X36.975Y16.974
X35.074Y15.674
X33.475Y14.874
X30.274Y13.975
X26.974Y13.874
X24.774Y14.175
X22.575Y14.874
X19.475Y16.674
X17.674Y18.275
G0Z10
X9.575Y9.175
G1Z-4F500
X10.574Y8.475F1000
X11.975Y7.075
X14.675Y5.275
X18.175Y3.575
X21.174Y2.575
X24.674Y1.875
X28.475Y1.675
X31.374Y1.875
X34.874Y2.575
X37.875Y3.575
X41.375Y5.275
X43.175Y6.475
X46.875Y9.575
X48.274Y11.375
X48.974Y11.975
X50.774Y14.675
X52.474Y18.175
X53.475Y21.174
X54.174Y24.674
X54.375Y28.475
X54.174Y31.374
X53.475Y34.874
X52.474Y37.875
X50.175Y42.275
X48.974Y44.074
X46.474Y46.875
X45.474Y47.574
X44.074Y48.974
X41.375Y50.774
X37.875Y52.474
X34.874Y53.475
X31.374Y54.174
X27.574Y54.375
X24.674Y54.174
X21.174Y53.475
X18.175Y52.474
X13.774Y50.175
X11.975Y48.974
X9.175Y46.474
Y46.274
X7.075Y44.074
X5.275Y41.375
X3.575Y37.875
X2.575Y34.874
X1.875Y31.374
X1.675Y27.574
X1.875Y24.674
X2.575Y21.174
X3.575Y18.175
X5.275Y14.675
X7.075Y11.975
X9.575Y9.175
G0Z10
X18.074Y18.575
G1Z-4F500
X16.075Y21.274F1000
X15.374Y22.675
X14.474Y25.874
X14.374Y29.074
X14.775Y31.574
X15.374Y33.374
X17.075Y36.274
X18.575Y37.974
X21.274Y39.974
X22.675Y40.674
X25.874Y41.575
X29.074Y41.674
X31.574Y41.274
X34.775Y39.974
X36.674Y38.674
X38.674Y36.674
X39.974Y34.775
X41.274Y31.574
X41.674Y28.974
Y26.974
X41.274Y24.474
X39.974Y21.274
X38.674Y19.375
X36.674Y17.375
X34.775Y16.075
X33.374Y15.374
X30.174Y14.474
X26.974Y14.374
X24.474Y14.775
X22.675Y15.374
X19.774Y17.075
X18.074Y18.575
G0Z10
X9.275Y8.775
G1Z-4.5F500
X10.275Y8.075F1000
X11.674Y6.675
X14.374Y4.875
X18.375Y2.975
X20.775Y2.175
X24.674Y1.375
X28.475Y1.175
X31.374Y1.375
X34.874Y2.075
X38.874Y3.475
X41.674Y4.875
X44.374Y6.675
X47.274Y9.275
X48.674Y11.074
X49.374Y11.674
X51.174Y14.374
X53.074Y18.375
X53.874Y20.775
X54.674Y24.674
X54.874Y28.475
X54.674Y31.374
X53.974Y34.874
X52.575Y38.874
X51.174Y41.674
X49.374Y44.374
X46.774Y47.274
X44.974Y48.674
X44.374Y49.374
X41.674Y51.174
X37.675Y53.074
X35.274Y53.874
X31.374Y54.674
X27.574Y54.874
X24.674Y54.674
X21.174Y53.974
X17.175Y52.575
X14.374Y51.174
X11.674Y49.374
X8.775Y46.774
X7.375Y44.974
X6.675Y44.374
X4.875Y41.674
X2.975Y37.675
X2.175Y35.274
X1.375Y31.374
X1.175Y27.574
X1.375Y24.674
X2.075Y21.174
X3.475Y17.175
X4.875Y14.374
X6.675Y11.674
X9.275Y8.775
G0Z10
X18.475Y18.874
G1Z-4.5F500
X16.474Y21.575F1000
X15.374Y24.174
X14.974Y25.874
X14.874Y29.074
X15.175Y31.174
X15.874Y33.275
X17.475Y35.974
X18.874Y37.574
X21.575Y39.574
X24.174Y40.674
X25.874Y41.074
X29.074Y41.175
X31.574Y40.774
X34.474Y39.574
X36.374Y38.275
X38.275Y36.374
X39.574Y34.474
X40.774Y31.574
X41.175Y28.974
Y26.974
X40.774Y24.474
X39.574Y21.575
X38.275Y19.675
X36.374Y17.774
X34.474Y16.474
X31.874Y15.374
X30.174Y14.974
X26.974Y14.874
X24.875Y15.175
X22.775Y15.874
X20.074Y17.475
X18.475Y18.874
G0Z10
X1.5Y1.5
G1Z-5F500
X1.712F1000
X1.542Y1.685
X1.5Y1.732
Y1.5
X2.349Y2.283
X2.285Y2.354
X0.5Y4.338
Y0.5
X4.377Y0.501
X3.935Y0.918
X3.783Y1.023
X3.604Y1.153
X3.427Y1.287
X3.254Y1.426
X3.085Y1.569
X2.919Y1.716
X2.757Y1.868
X2.598Y2.023
X2.444Y2.182
X2.349Y2.283
X3.084Y2.961
X3.028Y3.023
X0.272Y6.086
X0.146Y6.232
X0.024Y6.382
X-0.094Y6.534
X-0.209Y6.689
X-0.32Y6.847
X-0.381Y6.937
X-0.499Y7.115
Y-0.499
X7.111Y-0.497
X6.865Y-0.332
X6.702Y-0.218
X6.542Y-0.1
X6.385Y0.022
X6.231Y0.148
X6.08Y0.277
X5.932Y0.411
X4.563Y1.701
X4.442Y1.782
X4.281Y1.896
X4.123Y2.014
X3.968Y2.135
X3.815Y2.26
X3.666Y2.389
X3.52Y2.522
X3.378Y2.658
X3.239Y2.798
X3.103Y2.941
X3.084Y2.961
X3.82Y3.638
X3.771Y3.692
X1.023Y6.746
X0.913Y6.874
X0.806Y7.005
X0.702Y7.138
X0.602Y7.274
X0.504Y7.412
X0.45Y7.492
X-1.39Y10.254
X-1.483Y10.401
X-1.499Y10.428
Y-1.499
X10.427
X10.275Y-1.403
X10.192Y-1.349
X7.43Y0.492
X7.287Y0.592
X7.147Y0.695
X7.01Y0.802
X6.875Y0.912
X6.743Y1.026
X6.614Y1.143
X6.546Y1.206
X5.21Y2.473
X5.081Y2.557
X4.939Y2.655
X4.8Y2.756
X4.662Y2.861
X4.528Y2.968
X4.396Y3.08
X4.267Y3.194
X4.141Y3.312
X4.017Y3.432
X3.897Y3.556
X3.82Y3.638
X4.556Y4.316
X4.515Y4.361
X1.775Y7.406
X1.68Y7.516
X1.588Y7.628
X1.499Y7.742
X1.413Y7.858
X1.33Y7.976
X1.282Y8.046
X-0.551Y10.798
X-0.631Y10.924
X-0.708Y11.052
X-0.781Y11.182
X-0.852Y11.314
X-0.891Y11.391
X-2.499Y14.608
Y-2.499
X14.608
X11.336Y-0.863
X11.204Y-0.793
X11.074Y-0.72
X10.945Y-0.644
X10.819Y-0.565
X10.746Y-0.517
X7.995Y1.317
X7.872Y1.403
X7.752Y1.491
X7.635Y1.583
X7.519Y1.677
X7.406Y1.775
X7.295Y1.875
X7.235Y1.931
X5.84Y3.259
X5.701Y3.346
X5.578Y3.429
X5.457Y3.514
X5.338Y3.602
X5.222Y3.693
X5.108Y3.787
X4.996Y3.884
X4.886Y3.983
X4.779Y4.085
X4.675Y4.19
X4.573Y4.297
X4.556Y4.316
X5.291Y4.993
X5.258Y5.03
X2.526Y8.066
X2.447Y8.157
X2.371Y8.25
X2.296Y8.346
X2.224Y8.442
X2.155Y8.541
X2.114Y8.601
X0.287Y11.343
X0.22Y11.448
X0.156Y11.554
X0.095Y11.662
X0.036Y11.772
X0.002Y11.838
X-1.718Y15.281
X-1.768Y15.388
X-1.816Y15.496
X-1.862Y15.605
X-1.905Y15.715
X-1.945Y15.826
X-1.968Y15.893
X-3.183Y19.541
X-3.22Y19.659
X-3.254Y19.779
X-3.284Y19.9
X-3.312Y20.021
X-3.327Y20.094
X-3.499Y20.954
Y-3.499
X21.02
X19.619Y-3.212
X19.494Y-3.183
X19.369Y-3.151
X19.245Y-3.116
X19.122Y-3.077
X19.049Y-3.053
X15.799Y-1.935
X15.675Y-1.889
X15.552Y-1.84
X15.43Y-1.787
X15.31Y-1.732
X15.238Y-1.697
X11.794Y0.025
X11.684Y0.083
X11.576Y0.144
X11.469Y0.207
X11.363Y0.273
X11.301Y0.314
X8.56Y2.142
X8.458Y2.213
X8.358Y2.287
X8.259Y2.363
X8.163Y2.442
X8.069Y2.523
X7.977Y2.607
X7.924Y2.656
X6.449Y4.059
X6.352Y4.117
X6.248Y4.183
X6.146Y4.252
X6.045Y4.323
X5.946Y4.396
X5.849Y4.472
X5.754Y4.55
X5.66Y4.631
X5.569Y4.714
X5.48Y4.799
X5.393Y4.886
X5.308Y4.975
X5.291Y4.993
G0Z10
X27.618Y27.531
G1Z-5F500
X27.827Y27.407F1000
X28.31Y27.422
X28.36Y27.436
X28.378Y27.448
X28.548Y27.618
X28.674Y27.935
Y28.114
X28.548Y28.431
X28.431Y28.548
X28.197Y28.641
X27.739Y28.627
X27.736Y28.626
X27.5Y28.379
X27.407Y28.222
X27.42Y27.798
X27.618Y27.531
X26.935Y26.773
X27.561Y26.402
X27.585Y26.399
X28.466Y26.426
X28.791Y26.519
X29.019Y26.676
X29.373Y27.03
X29.412Y27.085
X29.672Y27.735
X29.674Y27.756
Y28.228
X29.658Y28.347
X29.412Y28.964
X29.373Y29.019
X29.019Y29.373
X28.964Y29.412
X28.374Y29.647
X27.583Y29.623
X27.258Y29.53
X27.136Y29.446
X26.698Y28.987
X26.402Y28.488
X26.399Y28.464
X26.426Y27.583
X26.484Y27.382
X26.935Y26.773
X26.252Y26.016
X27.222Y25.441
X27.53Y25.397
X28.621Y25.431
X29.222Y25.602
X29.661Y25.903
X30.146Y26.388
X30.299Y26.612
X30.645Y27.475
X30.675Y27.685
Y28.296
X30.633Y28.604
X30.299Y29.437
X30.146Y29.661
X29.661Y30.146
X29.437Y30.299
X28.574Y30.645
X28.519Y30.652
X27.428Y30.618
X26.827Y30.447
X26.485Y30.213
X25.896Y29.595
X25.441Y28.827
X25.397Y28.519
X25.431Y27.428
X25.572Y26.933
X26.252Y26.016
X25.658Y25.205
X26.834Y24.508
X26.951Y24.469
X27.474Y24.395
X28.776Y24.435
X29.652Y24.685
X30.302Y25.13
X30.919Y25.747
X31.187Y26.138
X31.618Y27.215
X31.675Y27.614
Y28.364
X31.607Y28.861
X31.187Y29.911
X30.919Y30.302
X30.302Y30.919
X29.911Y31.187
X28.834Y31.618
X28.575Y31.654
X27.273Y31.614
X26.397Y31.364
X25.834Y30.979
X25.094Y30.203
X24.508Y29.215
X24.469Y29.098
X24.395Y28.575
X24.435Y27.273
X24.661Y26.483
X25.517Y25.327
X25.658Y25.205
X25.071Y24.391
X26.416Y23.593
X26.72Y23.492
X27.419Y23.392
X28.932Y23.44
X30.062Y23.762
X30.108Y23.786
X30.943Y24.357
X31.692Y25.106
X32.074Y25.664
X32.591Y26.955
X32.674Y27.543
Y28.432
X32.581Y29.118
X32.074Y30.385
X31.692Y30.943
X30.943Y31.692
X30.385Y32.074
X29.094Y32.591
X28.63Y32.657
X27.117Y32.609
X25.987Y32.287
X25.941Y32.263
X25.183Y31.745
X24.292Y30.811
X23.593Y29.633
X23.492Y29.329
X23.392Y28.63
X23.44Y27.117
X23.749Y26.034
X24.779Y24.644
X25.071Y24.391
X24.484Y23.576
X25.999Y22.678
X26.489Y22.515
X27.363Y22.39
X29.087Y22.444
X30.426Y22.826
X30.616Y22.922
X31.585Y23.584
X32.465Y24.464
X32.962Y25.191
X33.564Y26.695
X33.675Y27.472
Y28.499
X33.555Y29.375
X32.962Y30.858
X32.465Y31.585
X31.585Y32.465
X30.858Y32.962
X29.354Y33.564
X28.686Y33.659
X26.962Y33.605
X25.623Y33.223
X25.433Y33.127
X24.532Y32.511
X23.489Y31.419
X22.678Y30.05
X22.515Y29.56
X22.39Y28.686
X22.444Y26.962
X22.826Y25.623
X22.863Y25.551
X24.041Y23.96
X24.484Y23.576
X23.897Y22.762
X25.581Y21.764
X26.259Y21.538
X27.308Y21.388
X29.242Y21.448
X30.79Y21.89
X31.125Y22.058
X32.226Y22.811
X33.238Y23.823
X33.849Y24.717
X34.537Y26.435
X34.674Y27.401
Y28.567
X34.529Y29.632
X33.849Y31.332
X33.238Y32.226
X32.226Y33.238
X31.332Y33.849
X29.614Y34.537
X28.741Y34.661
X26.807Y34.601
X25.259Y34.159
X24.924Y33.991
X23.881Y33.277
X22.687Y32.027
X21.764Y30.468
X21.538Y29.79
X21.388Y28.741
X21.448Y26.807
X21.89Y25.259
X22.007Y25.026
X23.303Y23.276
X23.897Y22.762
X23.31Y21.947
X25.163Y20.849
X26.028Y20.56
X27.252Y20.386
X29.398Y20.453
X31.154Y20.954
X31.633Y21.194
X32.868Y22.039
X34.01Y23.181
X34.737Y24.243
X35.51Y26.175
X35.675Y27.33
Y28.635
X35.504Y29.889
X34.737Y31.806
X34.01Y32.868
X32.868Y34.01
X31.806Y34.737
X29.874Y35.51
X28.797Y35.663
X26.651Y35.596
X24.895Y35.095
X24.416Y34.855
X23.23Y34.044
X21.885Y32.635
X20.849Y30.886
X20.56Y30.021
X20.386Y28.797
X20.453Y26.651
X20.954Y24.895
X21.152Y24.5
X22.565Y22.593
X23.31Y21.947
G0Z10
X54.317Y1.5
G1Z-5F500
X54.499F1000
Y1.666
X54.364Y1.542
X54.317Y1.5
X53.695Y2.285
X51.711Y0.5
X55.5
Y4.326
X55.131Y3.935
X55.026Y3.783
X54.896Y3.604
X54.762Y3.427
X54.623Y3.254
X54.48Y3.085
X54.333Y2.919
X54.181Y2.757
X54.026Y2.598
X53.867Y2.444
X53.695Y2.285
X53.026Y3.028
X49.963Y0.272
X49.817Y0.146
X49.667Y0.024
X49.515Y-0.094
X49.36Y-0.209
X49.202Y-0.32
X49.112Y-0.381
X48.934Y-0.499
X56.499
Y7.04
X56.382Y6.865
X56.268Y6.702
X56.15Y6.542
X56.027Y6.385
X55.901Y6.231
X55.772Y6.08
X55.638Y5.932
X54.348Y4.563
X54.267Y4.442
X54.153Y4.281
X54.035Y4.123
X53.914Y3.968
X53.789Y3.815
X53.66Y3.666
X53.527Y3.52
X53.391Y3.378
X53.251Y3.239
X53.108Y3.103
X53.026Y3.028
X52.357Y3.771
X49.303Y1.023
X49.175Y0.913
X49.044Y0.806
X48.911Y0.702
X48.775Y0.602
X48.637Y0.504
X48.557Y0.45
X45.795Y-1.39
X45.648Y-1.483
X45.621Y-1.499
X57.499
Y10.347
X57.399Y10.192
X55.557Y7.43
X55.457Y7.287
X55.354Y7.147
X55.247Y7.01
X55.137Y6.875
X55.023Y6.743
X54.906Y6.614
X54.843Y6.546
X53.576Y5.21
X53.492Y5.081
X53.394Y4.939
X53.293Y4.8
X53.188Y4.662
X53.081Y4.528
X52.969Y4.396
X52.855Y4.267
X52.737Y4.141
X52.617Y4.017
X52.493Y3.897
X52.357Y3.771
X51.688Y4.515
X48.643Y1.775
X48.533Y1.68
X48.421Y1.588
X48.307Y1.499
X48.191Y1.413
X48.073Y1.33
X48.003Y1.282
X45.251Y-0.551
X45.125Y-0.631
X44.997Y-0.708
X44.867Y-0.781
X44.735Y-0.852
X44.658Y-0.891
X41.441Y-2.499
X58.499
Y14.508
X56.913Y11.336
X56.843Y11.204
X56.77Y11.074
X56.694Y10.945
X56.615Y10.819
X56.567Y10.746
X54.732Y7.995
X54.646Y7.872
X54.558Y7.752
X54.466Y7.635
X54.372Y7.519
X54.274Y7.406
X54.174Y7.295
X54.118Y7.235
X52.79Y5.84
X52.703Y5.701
X52.62Y5.578
X52.535Y5.457
X52.447Y5.338
X52.356Y5.222
X52.262Y5.108
X52.165Y4.996
X52.066Y4.886
X51.964Y4.779
X51.859Y4.675
X51.752Y4.573
X51.688Y4.515
X51.019Y5.258
X47.983Y2.526
X47.892Y2.447
X47.799Y2.371
X47.703Y2.296
X47.607Y2.224
X47.508Y2.155
X47.448Y2.114
X44.706Y0.287
X44.601Y0.22
X44.495Y0.156
X44.387Y0.095
X44.277Y0.036
X44.211Y0.002
X40.768Y-1.718
X40.661Y-1.768
X40.553Y-1.816
X40.444Y-1.862
X40.334Y-1.905
X40.223Y-1.945
X40.156Y-1.968
X36.508Y-3.183
X36.39Y-3.22
X36.27Y-3.254
X36.149Y-3.284
X36.028Y-3.312
X35.955Y-3.327
X35.095Y-3.499
X59.499
Y20.776
X59.262Y19.619
X59.233Y19.494
X59.201Y19.369
X59.166Y19.245
X59.127Y19.122
X59.103Y19.049
X57.985Y15.799
X57.939Y15.675
X57.89Y15.552
X57.837Y15.43
X57.782Y15.31
X57.747Y15.238
X56.024Y11.794
X55.966Y11.684
X55.905Y11.576
X55.842Y11.469
X55.776Y11.363
X55.735Y11.301
X53.907Y8.56
X53.836Y8.458
X53.762Y8.358
X53.686Y8.259
X53.607Y8.163
X53.526Y8.069
X53.442Y7.977
X53.393Y7.924
X51.99Y6.449
X51.932Y6.352
X51.866Y6.248
X51.797Y6.146
X51.726Y6.045
X51.653Y5.946
X51.577Y5.849
X51.499Y5.754
X51.418Y5.66
X51.335Y5.569
X51.25Y5.48
X51.163Y5.393
X51.074Y5.308
X51.019Y5.258
G0Z10
X54.499Y54.373
G1Z-5F500
Y54.499F1000
X54.383
X54.499Y54.373
X53.757Y53.703
X55.5Y51.767
Y55.5
X51.677
X51.881Y55.296
X52.318Y54.989
X52.501Y54.854
X52.681Y54.715
X52.857Y54.571
X53.029Y54.423
X53.197Y54.271
X53.362Y54.114
X53.523Y53.953
X53.679Y53.788
X53.757Y53.703
X53.015Y53.033
X55.777Y49.963
X55.903Y49.817
X56.025Y49.667
X56.144Y49.515
X56.259Y49.36
X56.37Y49.202
X56.431Y49.112
X56.499Y49.009
Y56.499
X49.009
X49.184Y56.383
X49.345Y56.269
X49.504Y56.152
X49.66Y56.031
X49.813Y55.906
X49.963Y55.777
X50.109Y55.645
X50.252Y55.509
X50.331Y55.431
X51.236Y54.527
X51.734Y54.177
X51.897Y54.057
X52.057Y53.934
X52.213Y53.806
X52.366Y53.674
X52.516Y53.539
X52.662Y53.399
X52.805Y53.257
X52.944Y53.11
X53.015Y53.033
X52.272Y52.363
X55.026Y49.303
X55.136Y49.175
X55.243Y49.044
X55.347Y48.911
X55.447Y48.775
X55.545Y48.637
X55.599Y48.557
X57.44Y45.795
X57.499Y45.702
Y57.499
X45.702
X45.857Y57.399
X48.619Y55.557
X48.76Y55.458
X48.899Y55.356
X49.036Y55.25
X49.169Y55.141
X49.3Y55.028
X49.429Y54.912
X49.554Y54.793
X49.624Y54.724
X50.591Y53.758
X51.151Y53.365
X51.293Y53.261
X51.433Y53.152
X51.57Y53.041
X51.704Y52.925
X51.835Y52.807
X51.963Y52.685
X52.088Y52.56
X52.209Y52.432
X52.272Y52.363
X51.53Y51.693
X54.274Y48.643
X54.369Y48.533
X54.461Y48.421
X54.55Y48.307
X54.636Y48.191
X54.719Y48.073
X54.767Y48.003
X56.601Y45.251
X56.681Y45.125
X56.758Y44.997
X56.831Y44.867
X56.902Y44.735
X56.941Y44.658
X58.499Y41.541
Y58.499
X41.541
X44.713Y56.913
X44.845Y56.843
X44.975Y56.77
X45.104Y56.694
X45.23Y56.615
X45.303Y56.567
X48.054Y54.732
X48.175Y54.647
X48.294Y54.56
X48.411Y54.469
X48.526Y54.375
X48.638Y54.279
X48.748Y54.18
X48.856Y54.078
X48.917Y54.017
X49.946Y52.989
X50.567Y52.553
X50.689Y52.464
X50.809Y52.371
X50.926Y52.275
X51.041Y52.176
X51.153Y52.075
X51.263Y51.97
X51.37Y51.863
X51.475Y51.753
X51.53Y51.693
X50.788Y51.023
X53.523Y47.983
X53.602Y47.892
X53.678Y47.799
X53.753Y47.703
X53.825Y47.607
X53.894Y47.508
X53.935Y47.448
X55.762Y44.706
X55.829Y44.601
X55.893Y44.495
X55.954Y44.387
X56.013Y44.277
X56.047Y44.211
X57.768Y40.768
X57.818Y40.661
X57.866Y40.553
X57.912Y40.444
X57.955Y40.334
X57.995Y40.223
X58.018Y40.156
X59.233Y36.508
X59.27Y36.39
X59.304Y36.27
X59.334Y36.149
X59.362Y36.028
X59.377Y35.955
X59.499Y35.345
Y59.499
X35.273
X36.43Y59.262
X36.555Y59.233
X36.68Y59.201
X36.804Y59.166
X36.927Y59.127
X37Y59.103
X40.25Y57.985
X40.374Y57.939
X40.497Y57.89
X40.619Y57.837
X40.739Y57.782
X40.811Y57.747
X44.255Y56.024
X44.365Y55.966
X44.473Y55.905
X44.58Y55.842
X44.686Y55.776
X44.748Y55.735
X47.489Y53.907
X47.59Y53.836
X47.689Y53.763
X47.787Y53.688
X47.882Y53.61
X47.976Y53.529
X48.068Y53.447
X48.157Y53.362
X48.21Y53.31
X49.3Y52.22
X49.983Y51.741
X50.085Y51.667
X50.185Y51.589
X50.282Y51.51
X50.378Y51.427
X50.472Y51.343
X50.563Y51.256
X50.653Y51.167
X50.74Y51.075
X50.788Y51.023
G0Z10
X1.676Y54.499
G1Z-5F500
X1.5F1000
Y54.336
X1.676Y54.499
X2.346Y53.757
X4.282Y55.5
X0.5
Y51.627
X0.753Y51.881
X1.06Y52.318
X1.195Y52.501
X1.334Y52.681
X1.478Y52.857
X1.626Y53.029
X1.778Y53.197
X1.935Y53.362
X2.096Y53.523
X2.261Y53.679
X2.346Y53.757
X3.016Y53.015
X6.086Y55.777
X6.232Y55.903
X6.382Y56.025
X6.534Y56.144
X6.689Y56.259
X6.847Y56.37
X6.937Y56.431
X7.04Y56.499
X-0.499
Y48.934
X-0.333Y49.184
X-0.219Y49.345
X-0.102Y49.504
X0.018Y49.66
X0.143Y49.813
X0.272Y49.963
X0.404Y50.109
X0.54Y50.252
X0.618Y50.331
X1.522Y51.236
X1.872Y51.734
X1.992Y51.897
X2.115Y52.057
X2.243Y52.213
X2.375Y52.366
X2.51Y52.516
X2.65Y52.662
X2.792Y52.805
X2.939Y52.944
X3.016Y53.015
X3.686Y52.272
X6.746Y55.026
X6.874Y55.136
X7.005Y55.243
X7.138Y55.347
X7.274Y55.447
X7.412Y55.545
X7.492Y55.599
X10.254Y57.44
X10.347Y57.499
X-1.499
Y45.622
X-1.403Y45.774
X-1.349Y45.857
X0.492Y48.619
X0.591Y48.76
X0.693Y48.899
X0.799Y49.036
X0.908Y49.169
X1.021Y49.3
X1.137Y49.429
X1.256Y49.554
X1.325Y49.624
X2.291Y50.591
X2.684Y51.151
X2.788Y51.293
X2.897Y51.433
X3.008Y51.57
X3.124Y51.704
X3.242Y51.835
X3.364Y51.963
X3.489Y52.088
X3.617Y52.209
X3.686Y52.272
X4.356Y51.53
X7.406Y54.274
X7.516Y54.369
X7.628Y54.461
X7.742Y54.55
X7.858Y54.636
X7.976Y54.719
X8.046Y54.767
X10.798Y56.601
X10.924Y56.681
X11.052Y56.758
X11.182Y56.831
X11.314Y56.902
X11.391Y56.941
X14.508Y58.499
X-2.499
Y41.441
X-0.863Y44.713
X-0.793Y44.845
X-0.72Y44.975
X-0.644Y45.104
X-0.565Y45.23
X-0.517Y45.303
X1.317Y48.054
X1.402Y48.175
X1.489Y48.294
X1.58Y48.411
X1.674Y48.526
X1.77Y48.638
X1.869Y48.748
X1.971Y48.856
X2.032Y48.917
X3.06Y49.946
X3.496Y50.567
X3.585Y50.689
X3.678Y50.809
X3.774Y50.926
X3.873Y51.041
X3.974Y51.153
X4.079Y51.263
X4.186Y51.37
X4.296Y51.475
X4.356Y51.53
X5.026Y50.788
X8.066Y53.523
X8.157Y53.602
X8.25Y53.678
X8.346Y53.753
X8.442Y53.825
X8.541Y53.894
X8.601Y53.935
X11.343Y55.762
X11.448Y55.829
X11.554Y55.893
X11.662Y55.954
X11.772Y56.013
X11.838Y56.047
X15.281Y57.768
X15.388Y57.818
X15.496Y57.866
X15.605Y57.912
X15.715Y57.955
X15.826Y57.995
X15.893Y58.018
X19.541Y59.233
X19.659Y59.27
X19.779Y59.304
X19.9Y59.334
X20.021Y59.362
X20.094Y59.377
X20.704Y59.499
X-3.499
Y35.029
X-3.212Y36.43
X-3.183Y36.555
X-3.151Y36.68
X-3.116Y36.804
X-3.077Y36.927
X-3.053Y37
X-1.935Y40.25
X-1.889Y40.374
X-1.84Y40.497
X-1.787Y40.619
X-1.732Y40.739
X-1.697Y40.811
X0.025Y44.255
X0.083Y44.365
X0.144Y44.473
X0.207Y44.58
X0.273Y44.686
X0.314Y44.748
X2.142Y47.489
X2.213Y47.59
X2.286Y47.689
X2.361Y47.787
X2.439Y47.882
X2.52Y47.976
X2.602Y48.068
X2.687Y48.157
X2.739Y48.21
X3.829Y49.3
X4.308Y49.983
X4.382Y50.085
X4.46Y50.185
X4.539Y50.282
X4.622Y50.378
X4.706Y50.472
X4.793Y50.563
X4.882Y50.653
X4.974Y50.74
X5.026Y50.788
X5.696Y50.046
X8.726Y52.772
X8.799Y52.835
X8.873Y52.896
X8.949Y52.956
X9.027Y53.013
X9.106Y53.069
X9.156Y53.103
X11.887Y54.923
X11.971Y54.977
X12.056Y55.028
X12.143Y55.077
X12.23Y55.124
X12.286Y55.152
X15.717Y56.868
X15.803Y56.908
X15.889Y56.947
X15.977Y56.983
X16.065Y57.018
X16.154Y57.05
X16.21Y57.069
X19.845Y58.281
X19.94Y58.31
X20.036Y58.337
X20.132Y58.362
X20.229Y58.384
X20.29Y58.397
X23.829Y59.104
X23.932Y59.122
X24.035Y59.138
X24.139Y59.151
X24.243Y59.161
X24.308Y59.166
X27.344Y59.368
X27.438Y59.372
X27.532Y59.374
X27.626
X27.721Y59.372
X27.779Y59.369
X31.717Y59.167
X31.818Y59.16
X31.918Y59.15
X32.018Y59.137
X32.117Y59.122
X32.217Y59.105
X32.278Y59.093
X36.216Y58.285
X36.316Y58.262
X36.416Y58.236
X36.515Y58.208
X36.614Y58.178
X36.675Y58.157
X39.912Y57.044
X40.012Y57.007
X40.11Y56.968
X40.208Y56.926
X40.304Y56.881
X40.363Y56.852
X43.797Y55.135
X43.885Y55.089
X43.971Y55.04
X44.057Y54.99
X44.141Y54.937
X44.193Y54.903
X46.924Y53.082
X47.005Y53.025
X47.084Y52.967
X47.162Y52.907
X47.239Y52.844
X47.314Y52.78
X47.387Y52.714
X47.459Y52.646
X47.503Y52.603
X48.655Y51.451
X49.399Y50.93
X49.481Y50.87
X49.561Y50.808
X49.639Y50.744
X49.716Y50.679
X49.791Y50.611
X49.864Y50.541
X49.935Y50.47
X50.005Y50.397
X50.048Y50.35
X52.772Y47.323
X52.835Y47.25
X52.896Y47.176
X52.956Y47.1
X53.013Y47.022
X53.069Y46.943
X53.103Y46.893
X54.923Y44.162
X54.977Y44.078
X55.028Y43.993
X55.077Y43.906
X55.124Y43.819
X55.152Y43.763
X56.868Y40.332
X56.908Y40.246
X56.947Y40.16
X56.983Y40.072
X57.018Y39.984
X57.05Y39.895
X57.069Y39.839
X58.281Y36.204
X58.31Y36.109
X58.337Y36.013
X58.362Y35.917
X58.384Y35.82
X58.397Y35.759
X59.104Y32.22
X59.122Y32.117
X59.138Y32.014
X59.151Y31.91
X59.161Y31.806
X59.166Y31.741
X59.368Y28.705
X59.372Y28.611
X59.374Y28.517
Y28.423
X59.372Y28.328
X59.369Y28.27
X59.167Y24.332
X59.16Y24.231
X59.15Y24.131
X59.137Y24.031
X59.122Y23.932
X59.105Y23.832
X59.093Y23.771
X58.285Y19.833
X58.262Y19.733
X58.236Y19.633
X58.208Y19.534
X58.178Y19.435
X58.157Y19.374
X57.044Y16.137
X57.007Y16.037
X56.968Y15.939
X56.926Y15.841
X56.881Y15.745
X56.852Y15.686
X55.135Y12.252
X55.089Y12.164
X55.04Y12.078
X54.99Y11.992
X54.937Y11.908
X54.903Y11.856
X53.082Y9.125
X53.025Y9.043
X52.966Y8.963
X52.905Y8.884
X52.842Y8.807
X52.777Y8.732
X52.71Y8.658
X52.669Y8.613
X51.184Y7.055
X51.132Y6.963
X51.081Y6.879
X51.029Y6.795
X50.974Y6.713
X50.917Y6.633
X50.859Y6.554
X50.798Y6.476
X50.736Y6.4
X50.671Y6.325
X50.605Y6.252
X50.537Y6.181
X50.467Y6.111
X50.396Y6.043
X50.35Y6.001
X47.323Y3.277
X47.25Y3.214
X47.176Y3.153
X47.1Y3.093
X47.022Y3.036
X46.943Y2.98
X46.893Y2.946
X44.162Y1.126
X44.078Y1.072
X43.993Y1.021
X43.906Y0.972
X43.819Y0.925
X43.763Y0.897
X40.332Y-0.818
X40.246Y-0.858
X40.16Y-0.897
X40.072Y-0.933
X39.984Y-0.968
X39.895Y-1
X39.839Y-1.019
X36.204Y-2.231
X36.109Y-2.26
X36.013Y-2.287
X35.917Y-2.312
X35.82Y-2.334
X35.759Y-2.347
X32.22Y-3.054
X32.117Y-3.072
X32.014Y-3.088
X31.91Y-3.101
X31.806Y-3.111
X31.741Y-3.116
X28.705Y-3.318
X28.611Y-3.322
X28.517Y-3.324
X28.423
X28.328Y-3.322
X28.27Y-3.319
X24.332Y-3.117
X24.231Y-3.11
X24.131Y-3.1
X24.031Y-3.087
X23.932Y-3.072
X23.832Y-3.055
X23.771Y-3.043
X19.833Y-2.235
X19.733Y-2.212
X19.633Y-2.186
X19.534Y-2.158
X19.435Y-2.128
X19.374Y-2.107
X16.137Y-0.994
X16.037Y-0.957
X15.939Y-0.918
X15.841Y-0.876
X15.745Y-0.831
X15.686Y-0.802
X12.252Y0.914
X12.164Y0.96
X12.078Y1.009
X11.992Y1.059
X11.908Y1.112
X11.856Y1.146
X9.125Y2.967
X9.043Y3.024
X8.963Y3.083
X8.884Y3.144
X8.807Y3.207
X8.732Y3.272
X8.658Y3.339
X8.613Y3.38
X7.055Y4.865
X6.963Y4.917
X6.879Y4.968
X6.795Y5.02
X6.713Y5.075
X6.633Y5.132
X6.554Y5.19
X6.476Y5.251
X6.4Y5.313
X6.325Y5.378
X6.252Y5.444
X6.181Y5.512
X6.111Y5.582
X6.043Y5.653
X6.001Y5.699
X3.277Y8.726
X3.214Y8.799
X3.153Y8.873
X3.093Y8.949
X3.036Y9.027
X2.98Y9.106
X2.946Y9.156
X1.126Y11.887
X1.072Y11.971
X1.021Y12.056
X0.972Y12.143
X0.925Y12.23
X0.897Y12.286
X-0.818Y15.717
X-0.858Y15.803
X-0.897Y15.889
X-0.933Y15.977
X-0.968Y16.065
X-1Y16.154
X-1.019Y16.21
X-2.231Y19.845
X-2.26Y19.94
X-2.287Y20.036
X-2.312Y20.132
X-2.334Y20.229
X-2.347Y20.29
X-3.054Y23.829
X-3.072Y23.932
X-3.088Y24.035
X-3.101Y24.139
X-3.111Y24.243
X-3.116Y24.308
X-3.318Y27.344
X-3.322Y27.438
X-3.324Y27.532
Y27.626
X-3.322Y27.721
X-3.319Y27.779
X-3.117Y31.717
X-3.11Y31.818
X-3.1Y31.918
X-3.087Y32.018
X-3.072Y32.117
X-3.055Y32.217
X-3.043Y32.278
X-2.235Y36.216
X-2.212Y36.316
X-2.186Y36.416
X-2.158Y36.515
X-2.128Y36.614
X-2.107Y36.675
X-0.994Y39.912
X-0.957Y40.012
X-0.918Y40.11
X-0.876Y40.208
X-0.831Y40.304
X-0.802Y40.363
X0.914Y43.797
X0.96Y43.885
X1.009Y43.971
X1.059Y44.057
X1.112Y44.141
X1.146Y44.193
X2.967Y46.924
X3.024Y47.005
X3.082Y47.084
X3.142Y47.162
X3.205Y47.239
X3.269Y47.314
X3.335Y47.387
X3.403Y47.459
X3.446Y47.503
X4.598Y48.655
X5.119Y49.399
X5.179Y49.481
X5.241Y49.561
X5.305Y49.639
X5.37Y49.716
X5.438Y49.791
X5.508Y49.864
X5.579Y49.935
X5.652Y50.005
X5.696Y50.046
G0Z10
X-4.499Y60.5
G1Z-5F500
Y-4.499F1000
X60.5
Y60.5
X-4.499
G0Z10
X22.579Y34.81
G1Z-5F500
X21.083Y33.243F1000
X19.934Y31.304
X19.583Y30.252
X19.383Y28.852
X19.457Y26.496
X20.018Y24.531
X20.296Y23.975
X21.827Y21.909
X22.723Y21.133
X24.745Y19.934
X25.797Y19.583
X27.197Y19.383
X29.553Y19.457
X31.518Y20.018
X32.141Y20.33
X33.509Y21.266
X34.783Y22.54
X35.624Y23.769
X36.483Y25.915
X36.674Y27.259
Y28.703
X36.478Y30.146
X35.624Y32.28
X34.783Y33.509
X33.509Y34.783
X32.28Y35.624
X30.134Y36.483
X28.852Y36.666
X26.496Y36.592
X24.531Y36.031
X23.908Y35.719
X22.579Y34.81
X21.928Y35.576
X20.281Y33.851
X19.019Y31.721
X18.606Y30.482
X18.381Y28.908
X18.461Y26.341
X19.082Y24.167
X19.441Y23.45
X21.089Y21.225
X22.136Y20.318
X24.328Y19.019
X25.567Y18.606
X27.141Y18.381
X29.708Y18.461
X31.882Y19.082
X32.65Y19.466
X34.15Y20.493
X35.556Y21.899
X36.512Y23.296
X37.456Y25.655
X37.675Y27.188
Y28.771
X37.452Y30.403
X36.512Y32.753
X35.556Y34.15
X34.15Y35.556
X32.753Y36.512
X30.394Y37.456
X28.908Y37.668
X26.341Y37.588
X24.167Y36.967
X23.399Y36.583
X21.928Y35.576
G0Z10
X9.368Y52.004
G1Z-5F500
X9.413Y52.044F1000
X9.468Y52.091
X9.525Y52.136
X9.582Y52.18
X9.641Y52.223
X9.71Y52.271
X12.431Y54.084
X12.494Y54.124
X12.558Y54.163
X12.623Y54.2
X12.689Y54.235
X12.733Y54.258
X16.154Y55.968
X16.218Y55.999
X16.283Y56.028
X16.348Y56.055
X16.414Y56.081
X16.481Y56.105
X16.526Y56.121
X20.149Y57.328
X20.221Y57.35
X20.292Y57.371
X20.365Y57.389
X20.437Y57.406
X20.486Y57.416
X24.012Y58.121
X24.089Y58.135
X24.167Y58.147
X24.245Y58.156
X24.323Y58.164
X24.375Y58.168
X27.398Y58.369
X27.469Y58.373
X27.54Y58.374
X27.61
X27.681Y58.373
X27.728Y58.371
X31.653Y58.169
X31.729Y58.164
X31.804Y58.156
X31.879Y58.147
X31.953Y58.136
X32.028Y58.123
X32.077Y58.113
X36.003Y57.308
X36.078Y57.291
X36.153Y57.272
X36.227Y57.251
X36.301Y57.228
X36.35Y57.212
X39.575Y56.103
X39.649Y56.075
X39.723Y56.046
X39.796Y56.014
X39.868Y55.981
X39.916Y55.958
X43.338Y54.247
X43.404Y54.212
X43.469Y54.175
X43.534Y54.137
X43.597Y54.098
X43.639Y54.071
X46.359Y52.257
X46.42Y52.215
X46.479Y52.171
X46.538Y52.125
X46.595Y52.079
X46.652Y52.031
X46.707Y51.981
X46.761Y51.93
X46.796Y51.896
X48.01Y50.682
X48.815Y50.118
X48.877Y50.073
X48.937Y50.027
X48.995Y49.979
X49.053Y49.93
X49.109Y49.879
X49.164Y49.827
X49.218Y49.773
X49.27Y49.719
X49.304Y49.681
X52.02Y46.663
X52.068Y46.609
X52.114Y46.553
X52.158Y46.496
X52.202Y46.438
X52.244Y46.379
X52.271Y46.339
X54.084Y43.618
X54.124Y43.555
X54.163Y43.491
X54.2Y43.426
X54.235Y43.36
X54.258Y43.316
X55.968Y39.895
X55.999Y39.831
X56.028Y39.766
X56.055Y39.701
X56.081Y39.635
X56.105Y39.568
X56.121Y39.523
X57.328Y35.9
X57.35Y35.828
X57.371Y35.757
X57.389Y35.684
X57.406Y35.612
X57.416Y35.563
X58.121Y32.037
X58.135Y31.96
X58.147Y31.882
X58.156Y31.804
X58.164Y31.726
X58.168Y31.674
X58.369Y28.651
X58.373Y28.58
X58.374Y28.509
Y28.439
X58.373Y28.368
X58.371Y28.321
X58.169Y24.396
X58.164Y24.32
X58.156Y24.245
X58.147Y24.17
X58.136Y24.096
X58.123Y24.021
X58.113Y23.972
X57.308Y20.046
X57.291Y19.971
X57.272Y19.896
X57.251Y19.822
X57.228Y19.748
X57.212Y19.699
X56.103Y16.474
X56.075Y16.4
X56.046Y16.326
X56.014Y16.253
X55.981Y16.181
X55.958Y16.133
X54.247Y12.711
X54.212Y12.645
X54.175Y12.58
X54.137Y12.515
X54.098Y12.452
X54.071Y12.41
X52.257Y9.69
X52.214Y9.629
X52.17Y9.568
X52.124Y9.509
X52.077Y9.452
X52.029Y9.395
X51.979Y9.339
X51.945Y9.303
X50.366Y7.649
X50.34Y7.599
X50.306Y7.533
X50.269Y7.469
X50.231Y7.405
X50.192Y7.343
X50.151Y7.281
X50.108Y7.221
X50.064Y7.161
X50.019Y7.103
X49.972Y7.046
X49.924Y6.99
X49.874Y6.935
X49.823Y6.881
X49.771Y6.829
X49.718Y6.778
X49.681Y6.745
X46.663Y4.029
X46.609Y3.981
X46.553Y3.935
X46.496Y3.891
X46.438Y3.847
X46.379Y3.805
X46.339Y3.778
X43.618Y1.965
X43.555Y1.925
X43.491Y1.886
X43.426Y1.849
X43.36Y1.814
X43.316Y1.791
X39.895Y0.081
X39.831Y0.05
X39.766Y0.021
X39.701Y-0.005
X39.635Y-0.031
X39.568Y-0.055
X39.523Y-0.071
X35.9Y-1.278
X35.828Y-1.3
X35.757Y-1.321
X35.684Y-1.339
X35.612Y-1.356
X35.563Y-1.366
X32.037Y-2.071
X31.96Y-2.085
X31.882Y-2.097
X31.804Y-2.106
X31.726Y-2.114
X31.674Y-2.118
X28.651Y-2.319
X28.58Y-2.323
X28.509Y-2.324
X28.439
X28.368Y-2.323
X28.321Y-2.321
X24.396Y-2.119
X24.32Y-2.114
X24.245Y-2.106
X24.17Y-2.097
X24.096Y-2.086
X24.021Y-2.073
X23.972Y-2.063
X20.046Y-1.258
X19.971Y-1.241
X19.896Y-1.222
X19.822Y-1.201
X19.748Y-1.178
X19.699Y-1.162
X16.474Y-0.053
X16.4Y-0.025
X16.326Y0.003
X16.253Y0.035
X16.181Y0.068
X16.133Y0.091
X12.711Y1.802
X12.645Y1.837
X12.58Y1.874
X12.515Y1.912
X12.452Y1.951
X12.41Y1.978
X9.69Y3.792
X9.629Y3.835
X9.568Y3.879
X9.509Y3.925
X9.452Y3.972
X9.395Y4.02
X9.339Y4.07
X9.303Y4.104
X7.649Y5.683
X7.599Y5.709
X7.533Y5.743
X7.469Y5.78
X7.405Y5.818
X7.343Y5.857
X7.281Y5.898
X7.221Y5.941
X7.161Y5.985
X7.103Y6.03
X7.046Y6.077
X6.99Y6.125
X6.935Y6.175
X6.881Y6.226
X6.829Y6.278
X6.778Y6.331
X6.745Y6.368
X4.029Y9.386
X3.981Y9.44
X3.935Y9.496
X3.891Y9.553
X3.847Y9.611
X3.805Y9.67
X3.778Y9.71
X1.965Y12.431
X1.925Y12.494
X1.886Y12.558
X1.849Y12.623
X1.814Y12.689
X1.791Y12.733
X0.081Y16.154
X0.05Y16.218
X0.021Y16.283
X-0.005Y16.348
X-0.031Y16.414
X-0.055Y16.481
X-0.071Y16.526
X-1.278Y20.149
X-1.3Y20.221
X-1.321Y20.292
X-1.339Y20.365
X-1.356Y20.437
X-1.366Y20.486
X-2.071Y24.012
X-2.085Y24.089
X-2.097Y24.167
X-2.106Y24.245
X-2.114Y24.323
X-2.118Y24.375
X-2.319Y27.398
X-2.323Y27.469
X-2.324Y27.54
Y27.61
X-2.323Y27.681
X-2.321Y27.728
X-2.119Y31.653
X-2.114Y31.729
X-2.106Y31.804
X-2.097Y31.879
X-2.086Y31.953
X-2.073Y32.028
X-2.063Y32.077
X-1.258Y36.003
X-1.241Y36.078
X-1.222Y36.153
X-1.201Y36.227
X-1.178Y36.301
X-1.162Y36.35
X-0.053Y39.575
X-0.025Y39.649
X0.003Y39.723
X0.035Y39.796
X0.068Y39.868
X0.091Y39.916
X1.802Y43.338
X1.837Y43.404
X1.874Y43.469
X1.912Y43.534
X1.951Y43.597
X1.978Y43.639
X3.792Y46.359
X3.834Y46.42
X3.878Y46.479
X3.924Y46.538
X3.97Y46.595
X4.018Y46.652
X4.068Y46.707
X4.119Y46.761
X4.153Y46.796
X5.367Y48.01
X5.931Y48.815
X5.976Y48.877
X6.022Y48.937
X6.07Y48.995
X6.119Y49.053
X6.17Y49.109
X6.222Y49.164
X6.276Y49.218
X6.33Y49.27
X6.368Y49.304
X9.368Y52.004
G0Z10
X-5.5Y61.499
G1Z-5F500
Y-5.5F1000
X61.499
Y61.499
X-5.5
X-6.5Y62.5
Y-6.5
X62.5
Y62.5
X-6.5
G0Z10
X6.99Y48.518
G1Z-5F500
X7.037Y48.561F1000
X10.046Y51.269
X10.082Y51.301
X10.119Y51.331
X10.157Y51.361
X10.196Y51.39
X10.235Y51.418
X10.265Y51.439
X12.975Y53.245
X13.017Y53.272
X13.06Y53.298
X13.103Y53.323
X13.147Y53.346
X13.18Y53.363
X16.591Y55.069
X16.633Y55.089
X16.676Y55.108
X16.72Y55.127
X16.764Y55.144
X16.809Y55.16
X16.842Y55.172
X20.454Y56.376
X20.501Y56.391
X20.549Y56.404
X20.597Y56.417
X20.646Y56.428
X20.682Y56.436
X24.195Y57.138
X24.247Y57.147
X24.298Y57.155
X24.35Y57.162
X24.402Y57.167
X24.441Y57.17
X27.453Y57.371
X27.5Y57.373
X27.547Y57.374
X27.595
X27.642Y57.373
X27.677Y57.372
X31.59Y57.171
X31.64Y57.168
X31.69Y57.163
X31.74Y57.157
X31.79Y57.149
X31.839Y57.141
X31.876Y57.134
X35.789Y56.331
X35.839Y56.32
X35.889Y56.307
X35.939Y56.293
X35.988Y56.278
X36.025Y56.266
X39.237Y55.161
X39.287Y55.143
X39.336Y55.124
X39.385Y55.103
X39.433Y55.081
X39.469Y55.063
X42.88Y53.358
X42.924Y53.335
X42.968Y53.31
X43.01Y53.285
X43.053Y53.259
X43.084Y53.239
X45.794Y51.432
X45.835Y51.404
X45.875Y51.374
X45.914Y51.344
X45.952Y51.313
X45.99Y51.281
X46.026Y51.248
X46.062Y51.215
X46.089Y51.189
X47.365Y49.913
X48.232Y49.306
X48.273Y49.276
X48.313Y49.245
X48.352Y49.213
X48.39Y49.181
X48.428Y49.147
X48.465Y49.112
X48.501Y49.077
X48.535Y49.04
X48.561Y49.012
X51.269Y46.003
X51.301Y45.967
X51.331Y45.93
X51.361Y45.892
X51.39Y45.853
X51.418Y45.814
X51.439Y45.784
X53.245Y43.074
X53.272Y43.032
X53.298Y42.989
X53.323Y42.946
X53.346Y42.902
X53.363Y42.869
X55.069Y39.458
X55.089Y39.416
X55.108Y39.373
X55.127Y39.329
X55.144Y39.285
X55.16Y39.24
X55.172Y39.207
X56.376Y35.595
X56.391Y35.548
X56.404Y35.5
X56.417Y35.452
X56.428Y35.403
X56.436Y35.367
X57.138Y31.854
X57.147Y31.802
X57.155Y31.751
X57.162Y31.699
X57.167Y31.647
X57.17Y31.608
X57.371Y28.596
X57.373Y28.549
X57.374Y28.502
Y28.454
X57.373Y28.407
X57.372Y28.372
X57.171Y24.46
X57.168Y24.409
X57.163Y24.359
X57.157Y24.309
X57.149Y24.259
X57.141Y24.21
X57.134Y24.173
X56.331Y20.26
X56.32Y20.21
X56.307Y20.16
X56.293Y20.11
X56.278Y20.061
X56.266Y20.024
X55.161Y16.812
X55.143Y16.762
X55.124Y16.713
X55.103Y16.664
X55.081Y16.616
X55.063Y16.58
X53.358Y13.169
X53.335Y13.125
X53.31Y13.081
X53.285Y13.039
X53.259Y12.996
X53.239Y12.965
X51.432Y10.255
X51.403Y10.214
X51.374Y10.174
X51.344Y10.134
X51.312Y10.096
X51.28Y10.058
X51.247Y10.021
X51.221Y9.994
X49.525Y8.217
X49.506Y8.172
X49.486Y8.127
X49.465Y8.083
X49.442Y8.039
X49.419Y7.996
X49.394Y7.953
X49.368Y7.911
X49.341Y7.87
X49.314Y7.829
X49.285Y7.789
X49.255Y7.749
X49.225Y7.711
X49.193Y7.673
X49.16Y7.636
X49.127Y7.6
X49.093Y7.564
X49.058Y7.53
X49.012Y7.488
X46.003Y4.78
X45.967Y4.748
X45.93Y4.718
X45.892Y4.688
X45.853Y4.659
X45.814Y4.631
X45.784Y4.61
X43.074Y2.804
X43.032Y2.777
X42.989Y2.751
X42.946Y2.726
X42.902Y2.703
X42.869Y2.686
X39.458Y0.98
X39.416Y0.96
X39.373Y0.941
X39.329Y0.922
X39.285Y0.905
X39.24Y0.889
X39.207Y0.877
X35.595Y-0.326
X35.548Y-0.341
X35.5Y-0.354
X35.452Y-0.367
X35.403Y-0.378
X35.367Y-0.386
X31.854Y-1.088
X31.802Y-1.097
X31.751Y-1.105
X31.699Y-1.112
X31.647Y-1.117
X31.608Y-1.12
X28.596Y-1.321
X28.549Y-1.323
X28.502Y-1.324
X28.454
X28.407Y-1.323
X28.372Y-1.322
X24.459Y-1.121
X24.409Y-1.118
X24.359Y-1.113
X24.309Y-1.107
X24.259Y-1.099
X24.21Y-1.091
X24.173Y-1.084
X20.26Y-0.281
X20.21Y-0.27
X20.16Y-0.257
X20.11Y-0.243
X20.061Y-0.228
X20.024Y-0.216
X16.812Y0.888
X16.762Y0.906
X16.713Y0.925
X16.664Y0.946
X16.616Y0.968
X16.58Y0.986
X13.169Y2.691
X13.125Y2.714
X13.081Y2.739
X13.039Y2.764
X12.996Y2.79
X12.965Y2.81
X10.255Y4.617
X10.214Y4.646
X10.174Y4.675
X10.134Y4.705
X10.096Y4.737
X10.058Y4.769
X10.021Y4.802
X9.994Y4.828
X8.217Y6.524
X8.172Y6.543
X8.127Y6.563
X8.083Y6.584
X8.039Y6.607
X7.996Y6.63
X7.953Y6.655
X7.911Y6.681
X7.87Y6.707
X7.829Y6.735
X7.789Y6.764
X7.749Y6.794
X7.711Y6.824
X7.673Y6.856
X7.636Y6.889
X7.6Y6.922
X7.564Y6.956
X7.53Y6.991
X7.488Y7.037
X4.78Y10.046
X4.748Y10.082
X4.718Y10.119
X4.688Y10.157
X4.659Y10.196
X4.631Y10.235
X4.61Y10.265
X2.804Y12.975
X2.777Y13.017
X2.751Y13.06
X2.726Y13.103
X2.703Y13.147
X2.686Y13.18
X0.98Y16.591
X0.96Y16.633
X0.941Y16.676
X0.922Y16.72
X0.905Y16.764
X0.889Y16.809
X0.877Y16.842
X-0.326Y20.454
X-0.341Y20.501
X-0.354Y20.549
X-0.367Y20.597
X-0.378Y20.646
X-0.386Y20.682
X-1.088Y24.195
X-1.097Y24.247
X-1.105Y24.298
X-1.112Y24.35
X-1.117Y24.402
X-1.12Y24.441
X-1.321Y27.453
X-1.323Y27.5
X-1.324Y27.547
Y27.595
X-1.323Y27.642
X-1.322Y27.677
X-1.121Y31.59
X-1.118Y31.64
X-1.113Y31.69
X-1.107Y31.74
X-1.099Y31.79
X-1.091Y31.839
X-1.084Y31.876
X-0.281Y35.789
X-0.27Y35.839
X-0.257Y35.889
X-0.243Y35.939
X-0.228Y35.988
X-0.216Y36.025
X0.888Y39.237
X0.906Y39.287
X0.925Y39.336
X0.946Y39.385
X0.968Y39.433
X0.986Y39.469
X2.691Y42.88
X2.714Y42.924
X2.739Y42.968
X2.764Y43.01
X2.79Y43.053
X2.81Y43.084
X4.617Y45.794
X4.645Y45.835
X4.675Y45.875
X4.705Y45.914
X4.736Y45.952
X4.768Y45.99
X4.801Y46.026
X4.834Y46.062
X4.86Y46.089
X6.136Y47.365
X6.743Y48.232
X6.773Y48.273
X6.804Y48.313
X6.836Y48.352
X6.868Y48.39
X6.902Y48.428
X6.937Y48.465
X6.972Y48.501
X6.99Y48.518
G0Z10
X21.277Y36.342
G1Z-5F500
X19.479Y34.459F1000
X18.104Y32.139
X17.629Y30.713
X17.379Y28.963
X17.466Y26.185
X18.146Y23.803
X18.585Y22.925
X20.351Y20.542
X21.549Y19.504
X23.91Y18.104
X25.336Y17.629
X27.086Y17.379
X29.864Y17.466
X32.246Y18.146
X33.158Y18.602
X34.792Y19.72
X36.329Y21.257
X37.399Y22.822
X38.429Y25.395
X38.674Y27.117
Y28.839
X38.426Y30.66
X37.399Y33.227
X36.329Y34.792
X34.792Y36.329
X33.227Y37.399
X30.654Y38.429
X28.963Y38.67
X26.185Y38.583
X23.803Y37.903
X22.891Y37.447
X21.277Y36.342
X20.626Y37.108
X18.677Y35.067
X17.189Y32.557
X16.652Y30.944
X16.377Y29.019
X16.47Y26.03
X17.21Y23.439
X17.73Y22.4
X19.613Y19.858
X20.962Y18.689
X23.492Y17.189
X25.105Y16.652
X27.03Y16.377
X30.019Y16.47
X32.61Y17.21
X33.666Y17.738
X35.433Y18.947
X37.102Y20.616
X38.287Y22.348
X39.402Y25.135
X39.675Y27.046
Y28.907
X39.4Y30.917
X38.287Y33.701
X37.102Y35.433
X35.433Y37.102
X33.701Y38.287
X30.914Y39.402
X29.019Y39.672
X26.03Y39.579
X23.439Y38.839
X22.383Y38.311
X20.626Y37.108
G0Z10
X10.706Y50.518
G1Z-5F500
X10.724Y50.534F1000
X10.742Y50.549
X10.761Y50.564
X10.78Y50.579
X10.8Y50.593
X10.82Y50.607
X13.52Y52.407
X13.541Y52.42
X13.562Y52.433
X13.583Y52.446
X13.605Y52.458
X13.627Y52.469
X17.027Y54.169
X17.049Y54.179
X17.07Y54.189
X17.092Y54.198
X17.114Y54.207
X17.136Y54.215
X17.158Y54.223
X20.758Y55.423
X20.782Y55.431
X20.806Y55.438
X20.83Y55.444
X20.854Y55.45
X20.878Y55.455
X24.378Y56.155
X24.404Y56.16
X24.43Y56.164
X24.456Y56.167
X24.482Y56.17
X24.508Y56.172
X27.508Y56.372
X27.532Y56.374
X27.555
X27.579
X27.602
X27.626Y56.373
X31.526Y56.173
X31.551Y56.172
X31.576Y56.169
X31.601Y56.166
X31.626Y56.163
X31.651Y56.159
X31.675Y56.154
X35.575Y55.354
X35.601Y55.349
X35.626Y55.342
X35.65Y55.336
X35.675Y55.328
X35.7Y55.32
X38.9Y54.22
X38.925Y54.211
X38.949Y54.202
X38.974Y54.191
X38.998Y54.18
X39.022Y54.169
X42.422Y52.469
X42.444Y52.458
X42.466Y52.446
X42.487Y52.433
X42.508Y52.42
X42.529Y52.407
X45.229Y50.607
X45.25Y50.593
X45.27Y50.578
X45.289Y50.563
X45.308Y50.548
X45.327Y50.532
X45.346Y50.516
X45.364Y50.499
X45.382Y50.482
X46.72Y49.144
X47.648Y48.494
X47.668Y48.479
X47.689Y48.464
X47.708Y48.448
X47.728Y48.432
X47.747Y48.415
X47.765Y48.398
X47.783Y48.38
X47.801Y48.362
X47.818Y48.343
X50.518Y45.343
X50.534Y45.325
X50.549Y45.307
X50.564Y45.288
X50.579Y45.269
X50.593Y45.249
X50.607Y45.229
X52.407Y42.529
X52.42Y42.508
X52.433Y42.487
X52.446Y42.466
X52.458Y42.444
X52.469Y42.422
X54.169Y39.022
X54.179Y39
X54.189Y38.979
X54.198Y38.957
X54.207Y38.935
X54.215Y38.913
X54.223Y38.891
X55.423Y35.291
X55.431Y35.267
X55.438Y35.243
X55.444Y35.219
X55.45Y35.195
X55.455Y35.171
X56.155Y31.671
X56.16Y31.645
X56.164Y31.619
X56.167Y31.593
X56.17Y31.567
X56.172Y31.541
X56.372Y28.541
X56.374Y28.517
Y28.494
Y28.47
Y28.447
X56.373Y28.423
X56.173Y24.523
X56.172Y24.498
X56.169Y24.473
X56.166Y24.448
X56.163Y24.423
X56.159Y24.398
X56.154Y24.374
X55.354Y20.474
X55.349Y20.448
X55.342Y20.423
X55.336Y20.399
X55.328Y20.374
X55.32Y20.349
X54.22Y17.149
X54.211Y17.124
X54.202Y17.1
X54.191Y17.075
X54.18Y17.051
X54.169Y17.027
X52.469Y13.627
X52.458Y13.605
X52.446Y13.583
X52.433Y13.562
X52.42Y13.541
X52.407Y13.52
X50.607Y10.82
X50.592Y10.799
X50.578Y10.779
X50.563Y10.759
X50.547Y10.74
X50.531Y10.721
X50.515Y10.702
X50.498Y10.684
X48.648Y8.746
X48.644Y8.731
X48.638Y8.707
X48.631Y8.683
X48.624Y8.66
X48.616Y8.636
X48.607Y8.613
X48.598Y8.59
X48.588Y8.568
X48.578Y8.545
X48.567Y8.523
X48.555Y8.501
X48.544Y8.48
X48.531Y8.458
X48.518Y8.438
X48.505Y8.417
X48.491Y8.397
X48.476Y8.377
X48.461Y8.357
X48.446Y8.338
X48.43Y8.319
X48.413Y8.301
X48.397Y8.283
X48.379Y8.265
X48.362Y8.248
X48.343Y8.231
X45.343Y5.531
X45.325Y5.515
X45.307Y5.5
X45.288Y5.485
X45.269Y5.47
X45.249Y5.456
X45.229Y5.442
X42.529Y3.642
X42.508Y3.629
X42.487Y3.616
X42.466Y3.603
X42.444Y3.591
X42.422Y3.58
X39.022Y1.88
X39Y1.87
X38.979Y1.86
X38.957Y1.851
X38.935Y1.842
X38.913Y1.834
X38.891Y1.826
X35.291Y0.626
X35.267Y0.618
X35.243Y0.611
X35.219Y0.605
X35.195Y0.599
X35.171Y0.594
X31.671Y-0.105
X31.645Y-0.11
X31.619Y-0.114
X31.593Y-0.117
X31.567Y-0.12
X31.541Y-0.122
X28.541Y-0.322
X28.517Y-0.324
X28.494
X28.47
X28.447
X28.423Y-0.323
X24.523Y-0.123
X24.498Y-0.122
X24.473Y-0.119
X24.448Y-0.116
X24.423Y-0.113
X24.398Y-0.109
X24.374Y-0.104
X20.474Y0.695
X20.448Y0.7
X20.423Y0.707
X20.399Y0.713
X20.374Y0.721
X20.349Y0.729
X17.149Y1.829
X17.124Y1.838
X17.1Y1.847
X17.075Y1.858
X17.051Y1.869
X17.027Y1.88
X13.627Y3.58
X13.605Y3.591
X13.583Y3.603
X13.562Y3.616
X13.541Y3.629
X13.52Y3.642
X10.82Y5.442
X10.799Y5.457
X10.779Y5.471
X10.759Y5.486
X10.74Y5.502
X10.721Y5.518
X10.702Y5.534
X10.684Y5.551
X8.746Y7.401
X8.731Y7.405
X8.707Y7.411
X8.683Y7.418
X8.66Y7.425
X8.636Y7.433
X8.613Y7.442
X8.59Y7.451
X8.568Y7.461
X8.545Y7.471
X8.523Y7.482
X8.501Y7.494
X8.48Y7.505
X8.458Y7.518
X8.438Y7.531
X8.417Y7.544
X8.397Y7.558
X8.377Y7.573
X8.357Y7.588
X8.338Y7.603
X8.319Y7.619
X8.301Y7.636
X8.283Y7.652
X8.265Y7.67
X8.248Y7.687
X8.231Y7.706
X5.531Y10.706
X5.515Y10.724
X5.5Y10.742
X5.485Y10.761
X5.47Y10.78
X5.456Y10.8
X5.442Y10.82
X3.642Y13.52
X3.629Y13.541
X3.616Y13.562
X3.603Y13.583
X3.591Y13.605
X3.58Y13.627
X1.88Y17.027
X1.87Y17.049
X1.86Y17.07
X1.851Y17.092
X1.842Y17.114
X1.834Y17.136
X1.826Y17.158
X0.626Y20.758
X0.618Y20.782
X0.611Y20.806
X0.605Y20.83
X0.599Y20.854
X0.594Y20.878
X-0.105Y24.378
X-0.11Y24.404
X-0.114Y24.43
X-0.117Y24.456
X-0.12Y24.482
X-0.122Y24.508
X-0.322Y27.508
X-0.324Y27.532
Y27.555
Y27.579
Y27.602
X-0.323Y27.626
X-0.123Y31.526
X-0.122Y31.551
X-0.119Y31.576
X-0.116Y31.601
X-0.113Y31.626
X-0.109Y31.651
X-0.104Y31.675
X0.695Y35.575
X0.7Y35.601
X0.707Y35.626
X0.713Y35.65
X0.721Y35.675
X0.729Y35.7
X1.829Y38.9
X1.838Y38.925
X1.847Y38.949
X1.858Y38.974
X1.869Y38.998
X1.88Y39.022
X3.58Y42.422
X3.591Y42.444
X3.603Y42.466
X3.616Y42.487
X3.629Y42.508
X3.642Y42.529
X5.442Y45.229
X5.456Y45.25
X5.471Y45.27
X5.486Y45.289
X5.501Y45.308
X5.517Y45.327
X5.533Y45.346
X5.55Y45.364
X5.567Y45.382
X6.905Y46.72
X7.555Y47.648
X7.57Y47.668
X7.585Y47.689
X7.601Y47.708
X7.617Y47.728
X7.634Y47.747
X7.651Y47.765
X7.669Y47.783
X7.687Y47.801
X7.706Y47.818
X10.706Y50.518
G0Z10
X-7.499Y63.5
G1Z-5F500
Y-7.499F1000
X63.5
Y63.5
X-7.499
G0Z10
X8.375Y47.075
G1Z-5F500
X7.675Y46.074F1000
X6.275Y44.675
X4.475Y41.974
X2.775Y38.574
X1.675Y35.374
X0.875Y31.475
X0.675Y27.574
X0.875Y24.574
X1.575Y21.074
X2.775Y17.475
X4.475Y14.075
X6.275Y11.375
X8.975Y8.375
X9.175
X11.375Y6.275
X14.075Y4.475
X17.475Y2.775
X20.675Y1.675
X24.574Y0.875
X28.475Y0.675
X31.475Y0.875
X34.975Y1.575
X38.574Y2.775
X41.974Y4.475
X44.675Y6.275
X47.674Y8.975
Y9.175
X49.774Y11.375
X51.574Y14.075
X53.275Y17.475
X54.375Y20.675
X55.174Y24.574
X55.374Y28.475
X55.174Y31.475
X54.474Y34.975
X53.275Y38.574
X51.574Y41.974
X49.774Y44.675
X47.075Y47.674
X46.074Y48.374
X44.675Y49.774
X41.974Y51.574
X38.574Y53.275
X35.374Y54.375
X31.475Y55.174
X27.574Y55.374
X24.574Y55.174
X21.074Y54.474
X17.475Y53.275
X14.075Y51.574
X11.375Y49.774
X8.375Y47.075
G0Z10
X19.974Y37.875
G1Z-5F500
X21.875Y39.175F1000
X23.074Y39.774
X25.874Y40.574
X29.074Y40.674
X31.174Y40.374
X34.174Y39.175
X36.075Y37.875
X37.875Y36.075
X39.175Y34.174
X40.374Y31.174
X40.674Y28.974
Y26.974
X40.374Y24.875
X39.175Y21.875
X37.875Y19.974
X36.075Y18.175
X34.174Y16.874
X32.974Y16.275
X30.174Y15.474
X26.974Y15.374
X24.875Y15.674
X23.074Y16.275
X20.375Y17.874
X18.874Y19.174
X16.874Y21.875
X16.275Y23.074
X15.474Y25.874
X15.374Y29.074
X15.674Y31.174
X16.275Y32.974
X17.874Y35.675
X19.974Y37.875
G0Z10
X8.675Y7.975
G1Z-5.5F500
X9.675Y7.275F1000
X11.074Y5.875
X13.774Y4.075
X17.375Y2.275
X20.575Y1.175
X24.574Y0.375
X28.475Y0.175
X31.475Y0.375
X35.475Y1.175
X38.674Y2.275
X42.275Y4.075
X44.974Y5.875
X48.074Y8.675
X48.774Y9.675
X50.175Y11.074
X51.974Y13.774
X53.774Y17.375
X54.874Y20.575
X55.675Y24.574
X55.875Y28.475
X55.675Y31.475
X54.874Y35.475
X53.774Y38.674
X51.974Y42.275
X50.175Y44.974
X47.374Y48.074
X47.174
X44.974Y50.175
X42.275Y51.974
X38.674Y53.774
X35.475Y54.874
X31.475Y55.675
X27.574Y55.875
X24.574Y55.675
X20.575Y54.874
X17.375Y53.774
X13.774Y51.974
X11.074Y50.175
X7.975Y47.374
Y47.174
X5.875Y44.974
X4.075Y42.275
X2.275Y38.674
X1.175Y35.475
X0.375Y31.475
X0.175Y27.574
X0.375Y24.574
X1.175Y20.575
X2.275Y17.375
X4.075Y13.774
X5.875Y11.074
X8.675Y7.975
G0Z10
X18.575Y20.274
G1Z-5.5F500
X17.275Y22.174F1000
X16.674Y23.474
X15.975Y25.975
X15.874Y29.074
X16.175Y31.074
X16.974Y33.275
X18.275Y35.374
X20.274Y37.474
X22.174Y38.775
X23.474Y39.375
X25.975Y40.075
X29.074Y40.174
X31.074Y39.875
X33.875Y38.775
X35.774Y37.474
X37.474Y35.774
X38.775Y33.875
X39.875Y31.074
X40.174Y28.974
Y26.974
X39.875Y24.975
X38.775Y22.174
X37.474Y20.274
X35.774Y18.575
X33.875Y17.275
X32.575Y16.674
X30.074Y15.975
X26.974Y15.874
X24.975Y16.175
X22.775Y16.974
X20.675Y18.275
X18.575Y20.274
G0Z10
X8.375Y7.575
G1Z-6F500
X9.374Y6.875F1000
X10.775Y5.475
X13.475Y3.675
X17.275Y1.775
X20.575Y0.675
X24.574Y-0.125
X28.475Y-0.325
X31.475Y-0.125
X35.074Y0.575
X38.775Y1.775
X42.574Y3.675
X45.274Y5.475
X48.474Y8.375
Y8.575
X50.574Y10.775
X52.375Y13.475
X54.274Y17.275
X55.374Y20.575
X55.875Y22.975
X56.174Y24.574
X56.374Y28.475
X56.174Y31.475
X55.475Y35.074
X54.274Y38.775
X52.375Y42.574
X50.574Y45.274
X47.674Y48.474
X45.874Y49.874
X45.274Y50.574
X42.574Y52.375
X38.775Y54.274
X35.475Y55.374
X33.074Y55.875
X31.475Y56.174
X27.574Y56.374
X24.574Y56.174
X20.974Y55.475
X17.275Y54.274
X13.475Y52.375
X10.775Y50.574
X7.575Y47.674
X6.175Y45.874
X5.475Y45.274
X3.675Y42.574
X1.775Y38.775
X0.675Y35.475
X-0.125Y31.475
X-0.325Y27.574
X-0.125Y24.574
X0.575Y20.974
X1.775Y17.275
X3.675Y13.475
X5.475Y10.775
X8.375Y7.575
G0Z10
X20.575Y18.974
G1Z-6F500
X18.974Y20.575F1000
X17.874Y22.174
X16.674Y25.075
X16.375Y26.874
Y29.174
X16.674Y30.974
X17.874Y33.875
X18.974Y35.475
X20.575Y37.074
X22.174Y38.174
X25.075Y39.375
X26.974Y39.674
X29.074
X30.974Y39.375
X33.875Y38.174
X35.475Y37.074
X37.074Y35.475
X38.174Y33.875
X39.375Y30.974
X39.674Y28.974
Y26.974
X39.375Y25.075
X38.174Y22.174
X37.074Y20.575
X35.475Y18.974
X33.875Y17.874
X30.974Y16.674
X29.174Y16.375
X26.874
X25.075Y16.674
X22.174Y17.874
X20.575Y18.974
G0Z10
X8.175Y7.475
G1Z-6.5F500
X8.375F1000
X10.574Y5.375
X13.575Y3.375
X16.974Y1.675
X20.475Y0.475
X24.474Y-0.325
X28.574Y-0.525
X31.574Y-0.325
X35.574Y0.475
X39.074Y1.675
X42.475Y3.375
X45.474Y5.375
X48.574Y8.175
Y8.375
X50.674Y10.574
X52.674Y13.575
X54.375Y16.974
X55.574Y20.475
X56.374Y24.474
X56.575Y28.574
X56.374Y31.574
X55.574Y35.574
X54.375Y39.074
X52.674Y42.475
X50.674Y45.474
X47.874Y48.574
X47.674
X45.474Y50.674
X42.475Y52.674
X39.074Y54.375
X35.574Y55.574
X31.574Y56.374
X27.474Y56.575
X24.474Y56.374
X20.475Y55.574
X16.974Y54.375
X13.575Y52.674
X10.574Y50.674
X7.475Y47.874
X6.075Y46.074
X5.375Y45.474
X3.375Y42.475
X1.675Y39.074
X0.475Y35.574
X-0.325Y31.574
X-0.525Y27.474
X-0.325Y24.474
X0.475Y20.475
X1.675Y16.974
X3.375Y13.575
X5.375Y10.574
X8.175Y7.475
G0Z10
X19.774Y19.974
G1Z-6.5F500
X17.974Y22.374F1000
X17.275Y23.875
X16.674Y26.075
X16.574Y28.974
X16.874Y30.974
X17.475Y32.674
X18.774Y34.874
X19.974Y36.274
X22.374Y38.075
X23.875Y38.775
X26.075Y39.375
X28.974Y39.474
X30.974Y39.175
X33.675Y38.075
X35.274Y36.975
X36.975Y35.274
X38.075Y33.675
X39.175Y30.974
X39.474Y28.874
Y27.075
X39.175Y25.075
X38.075Y22.374
X36.975Y20.775
X35.274Y19.074
X33.675Y17.974
X32.175Y17.275
X29.974Y16.674
X27.075Y16.574
X25.075Y16.874
X23.374Y17.475
X21.174Y18.774
X19.774Y19.974
G0Z10
X7.975Y7.475
G1Z-7F500
X8.975Y6.775F1000
X10.474Y5.275
X13.475Y3.275
X17.375Y1.375
X20.375Y0.375
X24.274Y-0.425
X29.074Y-0.625
X31.774Y-0.425
X35.274Y0.275
X39.175Y1.575
X42.574Y3.275
X45.575Y5.275
X48.574Y7.975
X49.275Y8.975
X50.774Y10.474
X52.774Y13.475
X54.674Y17.375
X55.675Y20.375
X56.474Y24.274
X56.674Y29.074
X56.474Y31.774
X55.774Y35.274
X54.474Y39.175
X52.774Y42.574
X50.774Y45.575
X48.074Y48.574
X47.075Y49.275
X45.575Y50.774
X42.574Y52.774
X38.674Y54.674
X35.675Y55.675
X31.774Y56.474
X26.974Y56.674
X24.274Y56.474
X20.775Y55.774
X16.874Y54.474
X13.475Y52.774
X10.474Y50.774
X7.475Y48.074
X6.775Y47.075
X5.275Y45.575
X3.275Y42.574
X1.375Y38.674
X0.375Y35.675
X-0.425Y31.774
X-0.625Y26.974
X-0.425Y24.274
X0.275Y20.775
X1.575Y16.874
X3.275Y13.475
X5.275Y10.474
X7.975Y7.475
G0Z10
X20.074Y19.874
G1Z-7F500
X19.074Y20.974F1000
X17.574Y23.474
X16.974Y25.274
X16.674Y27.574
X16.774Y29.774
X17.574Y32.575
X19.074Y35.074
X19.874Y35.774
Y35.974
X20.974Y36.975
X23.474Y38.474
X25.274Y39.074
X27.574Y39.375
X29.774Y39.274
X32.575Y38.474
X35.074Y36.975
X35.774Y36.174
X35.974
X36.975Y35.074
X38.474Y32.575
X39.074Y30.774
X39.375Y28.375
X39.274Y26.275
X38.474Y23.474
X36.975Y20.974
X36.174Y20.274
Y20.074
X35.074Y19.074
X32.575Y17.574
X30.774Y16.974
X28.475Y16.674
X26.275Y16.774
X23.474Y17.574
X20.974Y19.074
X20.274Y19.874
X20.074
G0Z10
X7.775Y7.475
G1Z-7.5F500
X7.975F1000
X10.275Y5.275
X11.574Y4.375
X13.375Y3.175
X16.774Y1.475
X20.575Y0.175
X24.075Y-0.525
X28.074Y-0.825
X31.974Y-0.525
X35.475Y0.175
X39.274Y1.475
X42.675Y3.175
X45.375Y4.975
X48.574Y7.775
Y7.975
X50.774Y10.275
X51.674Y11.574
X52.874Y13.375
X54.575Y16.774
X55.875Y20.575
X56.575Y24.075
X56.874Y28.074
X56.575Y31.974
X55.875Y35.475
X54.575Y39.274
X52.874Y42.675
X51.075Y45.375
X48.274Y48.574
X48.074
X45.375Y51.075
X42.675Y52.874
X39.274Y54.575
X35.475Y55.875
X31.974Y56.575
X27.974Y56.874
X24.075Y56.575
X20.575Y55.875
X16.774Y54.575
X13.375Y52.874
X10.675Y51.075
X7.475Y48.274
Y48.074
X4.975Y45.375
X3.175Y42.675
X1.475Y39.274
X0.175Y35.475
X-0.525Y31.974
X-0.825Y27.974
X-0.525Y24.075
X0.175Y20.575
X1.475Y16.774
X3.175Y13.375
X4.975Y10.675
X7.775Y7.475
G0Z10
X21.074Y19.174
G1Z-7.5F500
X19.174Y21.074F1000
X18.175Y22.575
X17.075Y25.374
X16.874Y26.574
Y29.475
X17.075Y30.675
X17.674Y32.474
X19.174Y34.975
X21.074Y36.874
X22.575Y37.875
X25.374Y38.975
X26.574Y39.175
X29.475
X30.675Y38.975
X32.474Y38.374
X34.975Y36.874
X36.874Y34.975
X37.875Y33.475
X38.975Y30.675
X39.175Y29.375
Y26.574
X38.975Y25.374
X38.374Y23.574
X36.874Y21.074
X34.975Y19.174
X33.475Y18.175
X30.675Y17.075
X29.475Y16.874
X26.574
X25.374Y17.075
X23.574Y17.674
X21.074Y19.174
G0Z10
X7.675Y7.375
G1Z-8F500
X7.875F1000
X10.574Y4.875
X13.274Y3.075
X17.175Y1.175
X20.375Y0.075
X23.374Y-0.525
X28.574Y-0.925
X31.574Y-0.725
X35.675Y0.075
X39.375Y1.375
X42.774Y3.075
X45.474Y4.875
X48.674Y7.675
Y7.875
X51.174Y10.574
X52.974Y13.274
X54.874Y17.175
X55.974Y20.375
X56.775Y24.474
X56.975Y28.574
X56.775Y31.574
X55.974Y35.675
X54.674Y39.375
X52.974Y42.774
X51.174Y45.474
X48.374Y48.674
X48.175
X45.474Y51.174
X42.774Y52.974
X38.874Y54.874
X35.675Y55.974
X31.574Y56.775
X27.474Y56.975
X24.474Y56.775
X20.375Y55.974
X16.674Y54.674
X13.274Y52.974
X10.574Y51.174
X7.375Y48.374
Y48.175
X4.875Y45.474
X3.075Y42.774
X1.175Y38.874
X0.075Y35.675
X-0.525Y32.674
X-0.925Y27.474
X-0.725Y24.474
X0.075Y20.375
X1.375Y16.674
X3.075Y13.274
X4.875Y10.574
X7.675Y7.375
G0Z10
X19.874Y20.475
G1Z-8F500
X18.375Y22.474F1000
X17.774Y23.675
X17.075Y26.075
X16.974Y28.974
X17.275Y30.874
X17.874Y32.575
X19.275Y34.874
X20.475Y36.174
X22.474Y37.675
X23.675Y38.275
X26.075Y38.975
X28.974Y39.074
X30.874Y38.775
X33.574Y37.675
X33.774Y37.374
X34.874Y36.775
X36.174Y35.574
X37.675Y33.574
X38.775Y30.874
X39.074Y28.874
Y27.075
X38.775Y25.175
X37.675Y22.474
X37.374Y22.274
X36.775Y21.174
X35.574Y19.874
X33.574Y18.375
X32.375Y17.774
X29.974Y17.075
X27.075Y16.974
X25.175Y17.275
X23.274Y17.974
X21.174Y19.275
X19.874Y20.475
G0Z10
X8.274Y6.675
G1Z-8.5F500
X8.475F1000
X10.375Y4.875
X12.375Y3.675
X13.175Y2.975
X17.075Y1.075
X20.274Y-0.025
X24.274Y-0.825
X29.074Y-1.025
X31.774Y-0.825
X35.774Y-0.025
X39.474Y1.275
X42.874Y2.975
X43.674Y3.675
X45.674Y4.875
X49.374Y8.274
Y8.475
X51.174Y10.375
X52.375Y12.375
X53.074Y13.175
X54.974Y17.075
X56.074Y20.274
X56.874Y24.274
X57.074Y29.074
X56.874Y31.774
X56.074Y35.774
X54.775Y39.474
X53.074Y42.874
X52.375Y43.674
X51.174Y45.674
X47.775Y49.374
X47.574
X45.674Y51.174
X43.674Y52.375
X42.874Y53.074
X38.975Y54.974
X35.774Y56.074
X31.774Y56.874
X26.974Y57.074
X24.274Y56.874
X20.274Y56.074
X16.574Y54.775
X13.175Y53.074
X12.375Y52.375
X10.375Y51.174
X6.675Y47.775
Y47.574
X4.875Y45.674
X3.675Y43.674
X2.975Y42.874
X1.075Y38.975
X-0.025Y35.774
X-0.825Y31.774
X-1.025Y26.974
X-0.825Y24.274
X-0.025Y20.274
X1.275Y16.574
X2.975Y13.175
X3.675Y12.375
X4.875Y10.375
X8.274Y6.675
G0Z10
X20.675Y19.874
G1Z-8.5F500
X19.275Y21.374F1000
X17.874Y23.775
X17.375Y25.274
X17.075Y27.574
X17.175Y29.774
X17.874Y32.274
X18.475Y33.475
X19.874Y35.374
X21.374Y36.775
X23.775Y38.174
X25.274Y38.674
X27.574Y38.975
X29.774Y38.874
X32.274Y38.174
X33.475Y37.574
X35.374Y36.174
X36.775Y34.674
X38.174Y32.274
X38.674Y30.774
X38.975Y28.375
X38.874Y26.275
X38.174Y23.775
X37.574Y22.575
X36.174Y20.675
X34.674Y19.275
X32.274Y17.874
X30.774Y17.375
X28.475Y17.075
X26.275Y17.175
X23.775Y17.874
X22.575Y18.475
X20.675Y19.874
G0Z10
X8.075Y6.675
G1Z-9F500
X8.274F1000
X10.275Y4.775
X13.274Y2.775
X17.475Y0.775
X20.174Y-0.125
X24.075Y-0.925
X28.074Y-1.225
X31.974Y-0.925
X35.475Y-0.225
X39.574Y1.175
X42.774Y2.775
X45.775Y4.775
X49.374Y8.075
Y8.274
X51.275Y10.275
X53.275Y13.274
X55.274Y17.475
X56.174Y20.174
X56.975Y24.075
X57.274Y28.074
X56.975Y31.974
X56.274Y35.475
X54.874Y39.574
X53.275Y42.774
X51.275Y45.775
X47.975Y49.374
X47.775
X45.775Y51.275
X42.774Y53.275
X38.574Y55.274
X35.875Y56.174
X31.974Y56.975
X27.974Y57.274
X24.075Y56.975
X20.575Y56.274
X16.474Y54.874
X13.274Y53.275
X10.275Y51.275
X6.675Y47.975
Y47.775
X4.775Y45.775
X2.775Y42.774
X0.775Y38.574
X-0.125Y35.875
X-0.925Y31.974
X-1.225Y27.974
X-0.925Y24.075
X-0.225Y20.575
X1.175Y16.474
X2.775Y13.274
X4.775Y10.275
X8.075Y6.675
G0Z10
X21.475Y19.375
G1Z-9F500
X19.874Y20.874F1000
X18.575Y22.675
X17.574Y25.075
X17.275Y26.574
Y29.475
X17.574Y30.974
X18.074Y32.375
X19.375Y34.575
X20.874Y36.174
X22.675Y37.474
X25.075Y38.474
X26.574Y38.775
X29.475
X30.974Y38.474
X32.575Y37.875
X34.575Y36.674
X36.174Y35.174
X37.474Y33.374
X38.474Y30.974
X38.775Y29.375
Y26.574
X38.474Y25.075
X37.675Y23.074
X36.674Y21.475
X35.174Y19.874
X33.374Y18.575
X30.974Y17.574
X29.475Y17.275
X26.574
X25.075Y17.574
X22.675Y18.575
X21.475Y19.375
G0Z10
X7.875Y6.675
G1Z-9.5F500
X8.075F1000
X10.175Y4.675
X13.175Y2.675
X17.075Y0.775
X20.375Y-0.325
X24.374Y-1.125
X28.574Y-1.325
X31.675Y-1.125
X35.675Y-0.325
X38.975Y0.775
X42.874Y2.675
X45.874Y4.675
X49.374Y7.875
Y8.075
X51.374Y10.175
X53.374Y13.175
X55.274Y17.075
X56.374Y20.375
X57.174Y24.374
X57.374Y28.574
X57.174Y31.675
X56.374Y35.675
X55.274Y38.975
X53.374Y42.874
X51.374Y45.874
X48.175Y49.374
X47.975
X45.874Y51.374
X42.874Y53.374
X38.975Y55.274
X35.675Y56.374
X31.675Y57.174
X27.474Y57.374
X24.374Y57.174
X20.375Y56.374
X17.075Y55.274
X13.175Y53.374
X10.175Y51.374
X6.675Y48.175
Y47.975
X4.675Y45.874
X2.675Y42.874
X0.775Y38.975
X-0.325Y35.675
X-1.125Y31.675
X-1.325Y27.474
X-1.125Y24.374
X-0.325Y20.375
X0.775Y17.075
X2.675Y13.175
X4.675Y10.175
X7.875Y6.675
G0Z10
X20.974Y19.974
G1Z-9.5F500
X19.475Y21.575F1000
X18.674Y22.775
X17.674Y25.274
X17.375Y27.075
Y28.974
X17.674Y30.774
X18.674Y33.275
X19.974Y35.074
X21.575Y36.575
X22.775Y37.374
X25.274Y38.374
X27.075Y38.674
X28.974
X30.774Y38.374
X33.275Y37.374
X35.074Y36.075
X36.575Y34.474
X37.374Y33.275
X38.374Y30.774
X38.674Y28.874
Y27.075
X38.374Y25.274
X37.374Y22.775
X36.075Y20.974
X34.474Y19.475
X33.275Y18.674
X30.774Y17.674
X28.974Y17.375
X27.075
X25.274Y17.674
X22.775Y18.674
X20.974Y19.974
G0Z10
X0.5Y0.503
G1Z-10F500
X1.131F1000
X0.5Y1.194
Y0.503
X-0.499Y-0.497
X3.785Y-0.493
X3.365Y-0.1
X3.199Y0.012
X3.04Y0.126
X2.884Y0.243
X2.731Y0.365
X2.581Y0.49
X2.434Y0.618
X2.29Y0.75
X2.15Y0.886
X2.012Y1.025
X1.87Y1.176
X-0.499Y3.769
Y-0.497
X-1.499Y-1.498
X6.553Y-1.49
X6.13Y-1.207
X5.988Y-1.108
X5.849Y-1.005
X5.713Y-0.899
X5.579Y-0.79
X5.447Y-0.677
X5.319Y-0.561
X5.253Y-0.5
X4Y0.679
X3.843Y0.783
X3.702Y0.881
X3.565Y0.982
X3.429Y1.086
X3.297Y1.194
X3.167Y1.305
X3.039Y1.419
X2.915Y1.536
X2.793Y1.656
X2.675Y1.78
X2.608Y1.851
X-0.642Y5.408
X-0.759Y5.542
X-0.872Y5.679
X-0.982Y5.819
X-1.089Y5.962
X-1.192Y6.107
X-1.249Y6.192
X-1.499Y6.568
Y-1.498
X-2.499Y-2.499
X9.874
X9.746Y-2.417
X6.695Y-0.382
X6.574Y-0.297
X6.454Y-0.209
X6.337Y-0.118
X6.222Y-0.024
X6.11Y0.071
X6Y0.171
X5.94Y0.226
X4.639Y1.459
X4.528Y1.529
X4.406Y1.61
X4.286Y1.693
X4.167Y1.78
X4.051Y1.869
X3.938Y1.962
X3.826Y2.057
X3.717Y2.154
X3.61Y2.255
X3.506Y2.358
X3.404Y2.463
X3.346Y2.526
X0.104Y6.073
X0.003Y6.188
X-0.093Y6.306
X-0.187Y6.426
X-0.279Y6.548
X-0.367Y6.673
X-0.417Y6.746
X-2.451Y9.798
X-2.499Y9.874
Y-2.499
X-3.499Y-3.499
X14.128
X10.836Y-1.896
X10.717Y-1.834
X10.599Y-1.769
X10.483Y-1.7
X10.369Y-1.629
X10.301Y-1.585
X7.26Y0.442
X7.159Y0.513
X7.059Y0.586
X6.962Y0.662
X6.866Y0.74
X6.772Y0.82
X6.68Y0.903
X6.628Y0.952
X5.256Y2.255
X5.174Y2.304
X5.071Y2.369
X4.969Y2.436
X4.869Y2.506
X4.77Y2.578
X4.674Y2.652
X4.579Y2.729
X4.486Y2.808
X4.395Y2.89
X4.306Y2.973
X4.219Y3.059
X4.134Y3.147
X4.084Y3.201
X0.85Y6.738
X0.767Y6.834
X0.685Y6.932
X0.607Y7.032
X0.531Y7.134
X0.457Y7.238
X0.414Y7.301
X-1.612Y10.343
X-1.679Y10.448
X-1.743Y10.554
X-1.804Y10.662
X-1.863Y10.772
X-1.897Y10.838
X-3.419Y13.885
X-3.474Y14.001
X-3.499Y14.057
Y-3.499
X-4.499Y-4.499
X20.234
X19.436Y-4.336
X19.342Y-4.314
X19.25Y-4.291
X19.158Y-4.265
X19.066Y-4.238
X19.01Y-4.219
X15.672Y-3.107
X15.573Y-3.071
X15.475Y-3.033
X15.378Y-2.992
X15.282Y-2.949
X15.223Y-2.92
X11.286Y-1.003
X11.191Y-0.953
X11.096Y-0.901
X11.003Y-0.847
X10.912Y-0.79
X10.856Y-0.753
X7.825Y1.267
X7.744Y1.324
X7.664Y1.382
X7.586Y1.443
X7.51Y1.505
X7.434Y1.57
X7.361Y1.636
X7.317Y1.677
X5.856Y3.065
X5.78Y3.107
X5.696Y3.157
X5.614Y3.209
X5.532Y3.262
X5.452Y3.318
X5.373Y3.376
X5.296Y3.435
X5.22Y3.497
X5.145Y3.56
X5.073Y3.625
X5.001Y3.692
X4.932Y3.76
X4.864Y3.831
X4.822Y3.875
X1.597Y7.404
X1.53Y7.48
X1.465Y7.559
X1.402Y7.639
X1.341Y7.72
X1.282Y7.803
X1.246Y7.856
X-0.773Y10.887
X-0.827Y10.971
X-0.878Y11.056
X-0.927Y11.143
X-0.974Y11.23
X-1.002Y11.286
X-2.519Y14.32
X-2.563Y14.414
X-2.605Y14.508
X-2.644Y14.603
X-2.681Y14.7
X-2.702Y14.76
X-4.314Y19.393
X-4.342Y19.48
X-4.368Y19.568
X-4.393Y19.656
X-4.415Y19.745
X-4.435Y19.834
X-4.447Y19.89
X-4.499Y20.153
Y-4.499
G0Z10
X27.604Y27.744
G1Z-10F500
X27.972Y27.512F1000
X27.981Y27.509
X28.033Y27.507
X28.174Y27.526
X28.305Y27.604
X28.537Y27.972
X28.541Y27.984
X28.514Y28.189
X28.445Y28.305
X28.077Y28.537
X28.068Y28.54
X28.016Y28.542
X27.875Y28.523
X27.744Y28.445
X27.512Y28.077
X27.509Y28.068
X27.507Y28.016
X27.526Y27.875
X27.604Y27.744
X26.814Y27.114
X26.941Y26.979
X27.562Y26.588
X27.82Y26.516
X28.077Y26.504
X28.509Y26.563
X28.935Y26.814
X29.07Y26.941
X29.461Y27.562
X29.536Y27.831
X29.545Y28.014
X29.479Y28.522
X29.235Y28.935
X29.108Y29.07
X28.487Y29.461
X28.229Y29.533
X27.972Y29.545
X27.54Y29.486
X27.114Y29.235
X26.979Y29.108
X26.588Y28.487
X26.516Y28.229
X26.504Y27.972
X26.563Y27.54
X26.814Y27.114
X26.01Y26.51
X26.301Y26.201
X27.152Y25.664
X27.66Y25.522
X28.121Y25.5
X28.844Y25.599
X29.539Y26.01
X29.848Y26.301
X30.385Y27.152
X30.529Y27.669
X30.548Y28.054
X30.444Y28.854
X30.039Y29.539
X29.748Y29.848
X28.897Y30.385
X28.389Y30.527
X27.928Y30.549
X27.205Y30.45
X26.51Y30.039
X26.201Y29.748
X25.664Y28.897
X25.522Y28.389
X25.5Y27.928
X25.599Y27.205
X26.01Y26.51
X25.205Y25.905
X25.66Y25.422
X26.742Y24.741
X27.499Y24.529
X28.166Y24.497
X29.081Y24.622
X29.254Y24.68
X30.144Y25.205
X30.627Y25.66
X31.308Y26.742
X31.522Y27.507
X31.552Y28.094
X31.421Y29.101
X31.369Y29.254
X30.844Y30.144
X30.389Y30.627
X29.307Y31.308
X28.55Y31.52
X27.884Y31.552
X26.968Y31.427
X26.795Y31.369
X25.905Y30.844
X25.422Y30.389
X24.741Y29.307
X24.529Y28.55
X24.497Y27.883
X24.622Y26.968
X24.68Y26.795
X25.205Y25.905
X24.401Y25.301
X25.019Y24.644
X26.333Y23.817
X27.338Y23.535
X28.21Y23.494
X29.309Y23.644
X29.672Y23.765
X30.748Y24.401
X31.405Y25.019
X32.232Y26.333
X32.516Y27.345
X32.555Y28.134
X32.4Y29.325
X32.284Y29.672
X31.648Y30.748
X31.03Y31.405
X29.716Y32.232
X28.711Y32.514
X27.839Y32.555
X26.74Y32.405
X26.377Y32.284
X25.301Y31.648
X24.644Y31.03
X23.817Y29.716
X23.535Y28.711
X23.494Y27.839
X23.644Y26.74
X23.765Y26.377
X24.401Y25.301
X23.596Y24.697
X24.378Y23.866
X25.923Y22.893
X27.178Y22.542
X28.254Y22.491
X29.536Y22.666
X30.089Y22.85
X31.352Y23.596
X32.183Y24.378
X33.156Y25.923
X33.509Y27.183
X33.558Y28.174
X33.379Y29.55
X33.199Y30.089
X32.453Y31.352
X31.671Y32.183
X30.126Y33.156
X28.871Y33.507
X27.795Y33.558
X26.513Y33.383
X25.96Y33.199
X24.697Y32.453
X23.866Y31.671
X22.893Y30.126
X22.542Y28.871
X22.491Y27.795
X22.666Y26.513
X22.85Y25.96
X23.596Y24.697
X22.792Y24.092
X23.738Y23.088
X25.513Y21.969
X27.017Y21.548
X28.298Y21.487
X29.764Y21.687
X30.506Y21.935
X31.957Y22.792
X32.961Y23.738
X34.08Y25.513
X34.502Y27.022
X34.561Y28.214
X34.358Y29.775
X34.114Y30.506
X33.257Y31.957
X32.311Y32.961
X30.536Y34.08
X29.032Y34.501
X27.751Y34.562
X26.285Y34.362
X25.543Y34.114
X24.092Y33.257
X23.088Y32.311
X21.969Y30.536
X21.548Y29.032
X21.487Y27.751
X21.687Y26.285
X21.935Y25.543
X22.792Y24.092
G0Z10
X0.5Y54.915
G1Z-10F500
X1.139Y55.5F1000
X0.5
Y54.915
X1.174Y54.176
X3.715Y56.499
X-0.499
Y52.257
X-0.1Y52.684
X0.012Y52.85
X0.126Y53.009
X0.243Y53.165
X0.365Y53.318
X0.49Y53.468
X0.618Y53.615
X0.75Y53.759
X0.886Y53.899
X1.025Y54.037
X1.174Y54.176
X1.849Y53.439
X5.408Y56.692
X5.542Y56.809
X5.679Y56.922
X5.819Y57.032
X5.962Y57.139
X6.107Y57.242
X6.192Y57.299
X6.493Y57.499
X-1.499
Y49.481
X-1.207Y49.919
X-1.108Y50.061
X-1.005Y50.2
X-0.899Y50.336
X-0.79Y50.47
X-0.677Y50.602
X-0.561Y50.73
X-0.5Y50.796
X0.679Y52.049
X0.783Y52.206
X0.881Y52.347
X0.982Y52.484
X1.086Y52.62
X1.194Y52.752
X1.305Y52.882
X1.419Y53.01
X1.536Y53.134
X1.656Y53.256
X1.78Y53.374
X1.849Y53.439
X2.524Y52.701
X6.073Y55.945
X6.188Y56.046
X6.306Y56.143
X6.426Y56.237
X6.548Y56.329
X6.673Y56.417
X6.746Y56.467
X9.796Y58.499
X-2.499
Y46.175
X-2.417Y46.303
X-0.382Y49.354
X-0.297Y49.475
X-0.209Y49.595
X-0.118Y49.712
X-0.024Y49.827
X0.071Y49.939
X0.171Y50.049
X0.226Y50.109
X1.459Y51.41
X1.529Y51.521
X1.61Y51.643
X1.693Y51.763
X1.78Y51.882
X1.869Y51.998
X1.962Y52.111
X2.057Y52.223
X2.154Y52.332
X2.255Y52.439
X2.358Y52.543
X2.463Y52.645
X2.524Y52.701
X3.2Y51.964
X6.738Y55.199
X6.834Y55.282
X6.932Y55.364
X7.032Y55.442
X7.134Y55.518
X7.238Y55.592
X7.301Y55.635
X10.343Y57.662
X10.448Y57.729
X10.554Y57.793
X10.662Y57.854
X10.772Y57.913
X10.838Y57.947
X13.885Y59.469
X13.948Y59.499
X-3.499
Y41.921
X-1.896Y45.213
X-1.834Y45.332
X-1.769Y45.45
X-1.7Y45.566
X-1.629Y45.68
X-1.585Y45.748
X0.442Y48.789
X0.513Y48.89
X0.586Y48.99
X0.662Y49.087
X0.74Y49.183
X0.82Y49.277
X0.903Y49.369
X0.952Y49.421
X2.255Y50.793
X2.304Y50.875
X2.369Y50.978
X2.436Y51.08
X2.506Y51.18
X2.578Y51.279
X2.652Y51.375
X2.729Y51.47
X2.808Y51.563
X2.89Y51.654
X2.973Y51.743
X3.059Y51.83
X3.147Y51.915
X3.2Y51.964
X3.875Y51.227
X7.404Y54.452
X7.48Y54.519
X7.559Y54.584
X7.639Y54.647
X7.72Y54.708
X7.803Y54.767
X7.856Y54.803
X10.887Y56.823
X10.971Y56.877
X11.056Y56.928
X11.143Y56.977
X11.23Y57.024
X11.286Y57.052
X14.32Y58.569
X14.414Y58.613
X14.508Y58.655
X14.603Y58.694
X14.7Y58.731
X14.76Y58.752
X19.393Y60.364
X19.48Y60.392
X19.568Y60.418
X19.656Y60.443
X19.745Y60.465
X19.834Y60.485
X19.903Y60.5
X-4.499
Y35.815
X-4.336Y36.613
X-4.314Y36.706
X-4.291Y36.799
X-4.265Y36.891
X-4.238Y36.983
X-4.219Y37.039
X-3.107Y40.377
X-3.071Y40.476
X-3.033Y40.574
X-2.992Y40.671
X-2.949Y40.767
X-2.92Y40.826
X-1.003Y44.763
X-0.953Y44.858
X-0.901Y44.953
X-0.847Y45.046
X-0.79Y45.137
X-0.753Y45.193
X1.267Y48.224
X1.324Y48.305
X1.382Y48.385
X1.443Y48.463
X1.505Y48.539
X1.57Y48.615
X1.636Y48.688
X1.677Y48.732
X3.065Y50.193
X3.107Y50.269
X3.157Y50.353
X3.209Y50.435
X3.262Y50.517
X3.318Y50.597
X3.376Y50.676
X3.435Y50.753
X3.497Y50.829
X3.56Y50.904
X3.625Y50.976
X3.692Y51.048
X3.76Y51.117
X3.831Y51.185
X3.875Y51.227
G0Z10
X54.961Y55.5
G1Z-10F500
X55.5Y54.91F1000
Y55.5
X54.961
X54.179Y54.873
X56.499Y52.334
Y56.499
X52.311
X52.684Y56.15
X52.85Y56.037
X53.009Y55.923
X53.165Y55.806
X53.318Y55.684
X53.468Y55.559
X53.615Y55.431
X53.759Y55.299
X53.899Y55.163
X54.037Y55.024
X54.179Y54.873
X53.441Y54.198
X56.692Y50.641
X56.809Y50.507
X56.922Y50.37
X57.032Y50.23
X57.139Y50.087
X57.242Y49.942
X57.299Y49.857
X57.499Y49.556
Y57.499
X49.556
X49.919Y57.257
X50.061Y57.158
X50.2Y57.055
X50.336Y56.949
X50.47Y56.84
X50.602Y56.727
X50.73Y56.611
X50.796Y56.55
X52.049Y55.37
X52.206Y55.266
X52.347Y55.168
X52.484Y55.067
X52.62Y54.963
X52.752Y54.855
X52.882Y54.744
X53.01Y54.63
X53.134Y54.513
X53.256Y54.393
X53.374Y54.269
X53.441Y54.198
X52.703Y53.523
X55.945Y49.976
X56.046Y49.861
X56.143Y49.743
X56.237Y49.623
X56.329Y49.501
X56.417Y49.376
X56.467Y49.303
X58.499Y46.253
Y58.499
X46.253
X46.303Y58.467
X49.354Y56.432
X49.475Y56.347
X49.595Y56.259
X49.712Y56.168
X49.827Y56.074
X49.939Y55.978
X50.049Y55.878
X50.109Y55.823
X51.41Y54.59
X51.521Y54.52
X51.643Y54.439
X51.763Y54.356
X51.882Y54.269
X51.998Y54.18
X52.111Y54.087
X52.223Y53.992
X52.332Y53.895
X52.439Y53.794
X52.543Y53.691
X52.645Y53.586
X52.703Y53.523
X51.965Y52.848
X55.199Y49.311
X55.282Y49.215
X55.364Y49.117
X55.442Y49.017
X55.518Y48.915
X55.592Y48.811
X55.635Y48.748
X57.662Y45.706
X57.729Y45.601
X57.793Y45.495
X57.854Y45.387
X57.913Y45.277
X57.947Y45.211
X59.469Y42.164
X59.499Y42.101
Y59.499
X42.024
X45.213Y57.946
X45.332Y57.884
X45.45Y57.819
X45.566Y57.75
X45.68Y57.679
X45.748Y57.635
X48.789Y55.607
X48.89Y55.536
X48.99Y55.463
X49.087Y55.387
X49.183Y55.309
X49.277Y55.229
X49.369Y55.146
X49.421Y55.097
X50.793Y53.794
X50.875Y53.745
X50.978Y53.68
X51.08Y53.613
X51.18Y53.543
X51.279Y53.471
X51.375Y53.397
X51.47Y53.32
X51.563Y53.241
X51.654Y53.159
X51.743Y53.076
X51.83Y52.99
X51.915Y52.902
X51.965Y52.848
X51.227Y52.174
X54.452Y48.645
X54.519Y48.569
X54.584Y48.49
X54.647Y48.41
X54.708Y48.329
X54.767Y48.246
X54.803Y48.193
X56.823Y45.162
X56.877Y45.078
X56.928Y44.993
X56.977Y44.906
X57.024Y44.819
X57.052Y44.763
X58.569Y41.729
X58.613Y41.635
X58.655Y41.541
X58.694Y41.446
X58.731Y41.349
X58.752Y41.289
X60.364Y36.656
X60.392Y36.569
X60.418Y36.481
X60.443Y36.393
X60.465Y36.304
X60.485Y36.215
X60.5Y36.146
Y60.5
X36.059
X36.613Y60.386
X36.706Y60.364
X36.799Y60.341
X36.891Y60.315
X36.983Y60.288
X37.039Y60.269
X40.377Y59.157
X40.476Y59.121
X40.574Y59.083
X40.671Y59.042
X40.767Y58.999
X40.826Y58.97
X44.763Y57.053
X44.858Y57.003
X44.953Y56.951
X45.046Y56.897
X45.137Y56.84
X45.193Y56.803
X48.224Y54.782
X48.305Y54.725
X48.385Y54.667
X48.463Y54.606
X48.539Y54.544
X48.615Y54.479
X48.688Y54.413
X48.732Y54.372
X50.193Y52.984
X50.269Y52.942
X50.353Y52.892
X50.435Y52.84
X50.517Y52.787
X50.597Y52.731
X50.676Y52.673
X50.753Y52.614
X50.829Y52.552
X50.904Y52.489
X50.976Y52.424
X51.048Y52.357
X51.117Y52.289
X51.185Y52.218
X51.227Y52.174
G0Z10
X55.496Y1.086
G1Z-10F500
X54.855Y0.5F1000
X55.497
X55.496Y1.086
X54.873Y1.87
X52.28Y-0.499
X56.498
X56.494Y3.733
X56.15Y3.365
X56.037Y3.199
X55.923Y3.04
X55.806Y2.884
X55.684Y2.731
X55.559Y2.581
X55.431Y2.434
X55.299Y2.29
X55.163Y2.15
X55.024Y2.012
X54.873Y1.87
X54.198Y2.608
X50.641Y-0.642
X50.507Y-0.759
X50.37Y-0.872
X50.23Y-0.982
X50.087Y-1.089
X49.942Y-1.192
X49.857Y-1.249
X49.481Y-1.499
X57.499
X57.492Y6.481
X57.257Y6.13
X57.158Y5.988
X57.055Y5.849
X56.949Y5.713
X56.84Y5.579
X56.727Y5.447
X56.611Y5.319
X56.55Y5.253
X55.37Y4
X55.266Y3.843
X55.168Y3.702
X55.067Y3.565
X54.963Y3.429
X54.855Y3.297
X54.744Y3.167
X54.63Y3.039
X54.513Y2.915
X54.393Y2.793
X54.269Y2.675
X54.198Y2.608
X53.523Y3.346
X49.976Y0.104
X49.861Y0.003
X49.743Y-0.093
X49.623Y-0.187
X49.501Y-0.279
X49.376Y-0.367
X49.303Y-0.417
X46.251Y-2.451
X46.175Y-2.499
X58.499
Y9.796
X58.467Y9.746
X56.432Y6.695
X56.347Y6.574
X56.259Y6.454
X56.168Y6.337
X56.074Y6.222
X55.978Y6.11
X55.878Y6
X55.823Y5.94
X54.59Y4.639
X54.52Y4.528
X54.439Y4.406
X54.356Y4.286
X54.269Y4.167
X54.18Y4.051
X54.087Y3.938
X53.992Y3.826
X53.895Y3.717
X53.794Y3.61
X53.691Y3.506
X53.586Y3.404
X53.523Y3.346
X52.848Y4.084
X49.311Y0.85
X49.215Y0.767
X49.117Y0.685
X49.017Y0.607
X48.915Y0.531
X48.811Y0.457
X48.748Y0.414
X45.706Y-1.612
X45.601Y-1.679
X45.495Y-1.743
X45.387Y-1.804
X45.277Y-1.863
X45.211Y-1.897
X42.164Y-3.419
X42.048Y-3.474
X41.992Y-3.499
X59.499
Y14.025
X57.946Y10.836
X57.884Y10.717
X57.819Y10.599
X57.75Y10.483
X57.679Y10.369
X57.635Y10.301
X55.607Y7.26
X55.536Y7.159
X55.463Y7.059
X55.387Y6.962
X55.309Y6.866
X55.229Y6.772
X55.146Y6.68
X55.097Y6.628
X53.794Y5.256
X53.745Y5.174
X53.68Y5.071
X53.613Y4.969
X53.543Y4.869
X53.471Y4.77
X53.397Y4.674
X53.32Y4.579
X53.241Y4.486
X53.159Y4.395
X53.076Y4.306
X52.99Y4.219
X52.902Y4.134
X52.848Y4.084
X52.174Y4.822
X48.645Y1.597
X48.569Y1.53
X48.49Y1.465
X48.41Y1.402
X48.329Y1.341
X48.246Y1.282
X48.193Y1.246
X45.162Y-0.773
X45.078Y-0.827
X44.993Y-0.878
X44.906Y-0.927
X44.819Y-0.974
X44.763Y-1.002
X41.729Y-2.519
X41.635Y-2.563
X41.541Y-2.605
X41.446Y-2.644
X41.349Y-2.681
X41.289Y-2.702
X36.656Y-4.314
X36.569Y-4.342
X36.481Y-4.368
X36.393Y-4.393
X36.304Y-4.415
X36.215Y-4.435
X36.159Y-4.447
X35.896Y-4.499
X60.5
Y19.99
X60.386Y19.436
X60.364Y19.343
X60.341Y19.25
X60.315Y19.158
X60.288Y19.066
X60.269Y19.01
X59.157Y15.672
X59.121Y15.573
X59.083Y15.475
X59.042Y15.378
X58.999Y15.282
X58.97Y15.223
X57.053Y11.286
X57.003Y11.191
X56.951Y11.096
X56.897Y11.003
X56.84Y10.912
X56.803Y10.856
X54.782Y7.825
X54.725Y7.744
X54.667Y7.664
X54.606Y7.586
X54.544Y7.51
X54.479Y7.434
X54.413Y7.361
X54.372Y7.317
X52.984Y5.856
X52.942Y5.78
X52.892Y5.696
X52.84Y5.614
X52.787Y5.532
X52.731Y5.452
X52.673Y5.373
X52.614Y5.296
X52.552Y5.22
X52.489Y5.145
X52.424Y5.073
X52.357Y5.001
X52.289Y4.932
X52.218Y4.864
X52.174Y4.822
X51.499Y5.56
X47.98Y2.343
X47.923Y2.293
X47.864Y2.244
X47.804Y2.197
X47.743Y2.151
X47.681Y2.107
X47.639Y2.078
X44.618Y0.065
X44.555Y0.025
X44.491Y-0.013
X44.426Y-0.05
X44.36Y-0.085
X44.316Y-0.108
X41.293Y-1.619
X41.223Y-1.652
X41.152Y-1.684
X41.081Y-1.713
X41.009Y-1.741
X40.96Y-1.758
X36.338Y-3.365
X36.273Y-3.387
X36.207Y-3.407
X36.141Y-3.425
X36.075Y-3.442
X36.008Y-3.457
X35.963Y-3.466
X32.439Y-4.171
X32.366Y-4.184
X32.292Y-4.195
X32.219Y-4.205
X32.145Y-4.212
X32.096Y-4.216
X29.373Y-4.418
X29.305Y-4.422
X29.237Y-4.424
X29.168
X29.1
X29.055Y-4.422
X24.031Y-4.221
X23.962Y-4.217
X23.893Y-4.211
X23.823Y-4.204
X23.754Y-4.195
X23.686Y-4.184
X23.617Y-4.172
X23.572Y-4.163
X19.648Y-3.358
X19.578Y-3.343
X19.509Y-3.325
X19.44Y-3.306
X19.371Y-3.285
X19.326Y-3.271
X16.001Y-2.162
X15.927Y-2.135
X15.853Y-2.107
X15.78Y-2.076
X15.708Y-2.044
X15.661Y-2.021
X11.736Y-0.11
X11.665Y-0.073
X11.594Y-0.034
X11.524Y0.006
X11.456Y0.049
X11.41Y0.078
X8.39Y2.092
X8.329Y2.135
X8.269Y2.178
X8.211Y2.224
X8.153Y2.271
X8.097Y2.319
X8.042Y2.368
X8.006Y2.402
X6.452Y3.882
X6.378Y3.919
X6.313Y3.954
X6.25Y3.991
X6.187Y4.029
X6.126Y4.068
X6.065Y4.109
X6.005Y4.152
X5.947Y4.196
X5.889Y4.241
X5.833Y4.288
X5.777Y4.336
X5.723Y4.385
X5.671Y4.436
X5.619Y4.488
X5.56Y4.55
X2.343Y8.069
X2.293Y8.126
X2.244Y8.185
X2.197Y8.245
X2.151Y8.306
X2.107Y8.368
X2.078Y8.41
X0.065Y11.431
X0.025Y11.494
X-0.013Y11.558
X-0.05Y11.623
X-0.085Y11.689
X-0.108Y11.733
X-1.619Y14.756
X-1.652Y14.826
X-1.684Y14.897
X-1.713Y14.968
X-1.741Y15.04
X-1.758Y15.089
X-3.365Y19.711
X-3.387Y19.776
X-3.407Y19.842
X-3.425Y19.908
X-3.442Y19.974
X-3.457Y20.041
X-3.466Y20.086
X-4.171Y23.61
X-4.184Y23.683
X-4.195Y23.757
X-4.205Y23.83
X-4.212Y23.904
X-4.216Y23.953
X-4.418Y26.676
X-4.422Y26.744
X-4.424Y26.812
Y26.881
Y26.949
X-4.422Y26.994
X-4.221Y32.018
X-4.217Y32.087
X-4.211Y32.156
X-4.204Y32.226
X-4.195Y32.295
X-4.184Y32.363
X-4.172Y32.432
X-4.163Y32.477
X-3.358Y36.401
X-3.343Y36.471
X-3.325Y36.54
X-3.306Y36.609
X-3.285Y36.678
X-3.271Y36.723
X-2.162Y40.048
X-2.135Y40.122
X-2.107Y40.196
X-2.076Y40.269
X-2.044Y40.341
X-2.021Y40.388
X-0.11Y44.313
X-0.073Y44.384
X-0.034Y44.455
X0.006Y44.525
X0.049Y44.593
X0.078Y44.639
X2.092Y47.659
X2.135Y47.72
X2.178Y47.78
X2.224Y47.838
X2.271Y47.896
X2.319Y47.952
X2.368Y48.007
X2.402Y48.043
X3.882Y49.597
X3.919Y49.671
X3.954Y49.736
X3.991Y49.799
X4.029Y49.862
X4.068Y49.923
X4.109Y49.984
X4.152Y50.044
X4.196Y50.102
X4.241Y50.16
X4.288Y50.216
X4.336Y50.272
X4.385Y50.326
X4.436Y50.378
X4.488Y50.43
X4.55Y50.489
X8.069Y53.706
X8.126Y53.756
X8.185Y53.805
X8.245Y53.852
X8.306Y53.898
X8.368Y53.942
X8.41Y53.971
X11.431Y55.984
X11.494Y56.024
X11.558Y56.063
X11.623Y56.1
X11.689Y56.135
X11.733Y56.158
X14.756Y57.669
X14.826Y57.702
X14.897Y57.734
X14.968Y57.763
X15.04Y57.791
X15.089Y57.808
X19.711Y59.415
X19.776Y59.437
X19.842Y59.457
X19.908Y59.475
X19.974Y59.492
X20.041Y59.507
X20.086Y59.516
X23.61Y60.221
X23.683Y60.234
X23.757Y60.245
X23.83Y60.255
X23.904Y60.262
X23.953Y60.266
X26.676Y60.468
X26.744Y60.472
X26.812Y60.474
X26.881
X26.949
