(Created with grbl post processor 2026/03/16 16:00)
G21
(G-code Generated with Fabex and NC library)
(Rapids: 5000.0/min)
G17G90
(Tool: D = 3.0 mm  type END flutes 2)
S12000M03
G00 Z10.0 F5000.0

G0X0Y0Z10
X-98Y-98.398
G1Z0F500
Y98.402F1000
G0Z10
X-97Y-98.398
G1Z0F500
Y98.402F1000
G0Z10
X-96Y-98.398
G1Z0F500
Y98.402F1000
G0Z10
X-95Y-98.398
G1Z0F500
Y98.402F1000
G0Z10
X-94Y-98.398
G1Z0F500
Y98.402F1000
G0Z10
X-93Y-98.398
G1Z0F500
Y98.402F1000
G0Z10
X-92Y-98.398
G1Z0F500
Y98.402F1000
G0Z10
X-91Y-98.398
G1Z0F500
Y98.402F1000
G0Z10
X-90Y-98.398
G1Z0F500
Y98.402F1000
G0Z10
X-89Y-98.398
G1Z0F500
Y98.402F1000
G0Z10
X-88Y-98.398
G1Z0F500
Y98.402F1000
G0Z10
X-87Y-98.398
G1Z0F500
Y98.402F1000
G0Z10
X-86Y-98.398
G1Z0F500
Y98.402F1000
G0Z10
X-85Y-98.398
G1Z0F500
Y98.402F1000
G0Z10
X-84Y-98.398
G1Z0F500
Y98.402F1000
G0Z10
X-83Y-98.398
G1Z0F500
Y98.402F1000
G0Z10
X-82Y-98.398
G1Z0F500
Y98.402F1000
G0Z10
X-81Y-98.398
G1Z0F500
Y98.402F1000
G0Z10
X-80Y-98.398
G1Z0F500
Y98.402F1000
G0Z10
X-79Y-98.398
G1Z0F500
Y98.402F1000
G0Z10
X-78Y-98.398
G1Z0F500
Y98.402F1000
G0Z10
X-77Y-98.398
G1Z0F500
Y98.402F1000
G0Z10
X-76Y-98.398
G1Z0F500
Y98.402F1000
G0Z10
X-75Y-98.398
G1Z0F500
Y98.402F1000
G0Z10
X-74Y-98.398
G1Z0F500
Y98.402F1000
G0Z10
X-73Y-98.398
G1Z0F500
Y98.402F1000
G0Z10
X-72Y-98.398
G1Z0F500
Y98.402F1000
G0Z10
X-71Y-98.398
G1Z0F500
Y98.402F1000
G0Z10
X-70Y-98.398
G1Z0F500
Y98.402F1000
G0Z10
X-69Y-98.398
G1Z0F500
Y98.402F1000
G0Z10
X-68Y-98.398
G1Z0F500
Y-8.397F1000
Y-7.597
Y-7.594Z-0.1F500
Y7.599F1000
Y7.602Z0
Y98.402
G0Z10
X-67Y-98.398
G1Z0F500
Y-13.797F1000
Y-13.397Z-0
Y-13.394Z-0.1F500
Y13.399F1000
Y13.402Z-0
Y98.402Z0
G0Z10
X-66Y-98.398
G1Z0F500
Y-17.797F1000
Y-17.597Z-0
Y-17.471Z-0.1F500
Y17.399F1000
Y17.402Z-0
Y17.602
Y17.802Z0
Y98.402
G0Z10
X-65Y-98.398
G1Z0F500
Y-20.797F1000
Y-20.671Z-0.1F500
Y20.599F1000
Y20.602Z0
Y98.402
G0Z10
X-64Y-98.398
G1Z0F500
Y-23.797F1000
Y-23.597Z-0
Y-23.471Z-0.1F500
Y23.399F1000
Y23.402Z-0
Y98.402Z0
G0Z10
X-63Y-98.398
G1Z0F500
Y-26.197F1000
Y-26.071Z-0.1F500
Y25.999F1000
Y26.002Z-0
Y26.202Z0
Y98.402
G0Z10
X-62Y-98.398
G1Z0F500
Y-28.397F1000
Y-28.271Z-0.1F500
Y28.199F1000
Y28.202Z-0
Y98.402Z0
G0Z10
X-61Y-98.398
G1Z0F500
Y-30.397F1000
Y-30.271Z-0.1F500
Y30.199F1000
Y30.202Z0
Y98.402
G0Z10
X-60Y-98.398
G1Z0F500
Y-32.397F1000
Y-32.197Z-0
Y-32.194Z-0.1F500
Y32.199F1000
Y32.202Z-0
Y98.402Z0
G0Z10
X-59Y-98.398
G1Z0F500
Y-34.197F1000
Y-33.997
Y-33.994Z-0.1F500
Y33.999F1000
Y34.002Z0
Y98.402
G0Z10
X-58Y-98.398
G1Z0F500
Y-35.797F1000
Y-35.597Z-0
Y-35.594Z-0.1F500
Y35.599F1000
Y35.602Z-0
Y98.402Z0
G0Z10
X-57Y-98.398
G1Z0F500
Y-37.397F1000
Y-37.197Z-0
Y-37.194Z-0.1F500
Y37.199F1000
Y37.202Z0
Y98.402
G0Z10
X-56Y-98.398
G1Z0F500
Y-38.797F1000
Y-38.672Z-0.1F500
Y38.599F1000
Y38.602Z-0
Y98.402Z0
G0Z10
X-55Y-98.398
G1Z0F500
Y-40.197F1000
Y-40.072Z-0.1F500
Y39.999F1000
Y40.002Z-0
Y98.402Z0
G0Z10
X-54Y-98.398
G1Z0F500
Y-41.397F1000
Y-41.394Z-0.1F500
Y41.399F1000
Y41.402Z0
Y98.402
G0Z10
X-53Y-98.398
G1Z0F500
Y-42.797F1000
Y-42.673Z-0.1F500
Y42.599F1000
Y42.602Z-0
Y98.402Z0
G0Z10
X-52Y-98.398
G1Z0F500
Y-43.997F1000
Y-43.873Z-0.1F500
Y43.799F1000
Y43.802Z-0
Y44.002Z0
Y98.402
G0Z10
X-51Y-98.398
G1Z0F500
Y-45.197F1000
Y-44.997Z-0
Y-44.994Z-0.1F500
Y44.999F1000
Y45.002Z-0
Y98.402Z0
G0Z10
X-50Y-98.398
G1Z0F500
Y-46.197F1000
Y-46.073Z-0.1F500
Y45.999F1000
Y46.002Z-0
Y46.202Z0
Y98.402
G0Z10
X-49Y-98.398
G1Z0F500
Y-47.197F1000
Y-47.194Z-0.1F500
Y47.199F1000
Y47.202Z0
Y98.402
G0Z10
X-48Y-98.398
G1Z0F500
Y-48.197F1000
Y-48.194Z-0.1F500
Y48.199F1000
Y48.202Z0
Y98.402
G0Z10
X-47Y-98.398
G1Z0F500
Y-49.197F1000
Y-49.194Z-0.1F500
Y49.199F1000
Y49.202Z0
Y98.402
G0Z10
X-46Y-98.398
G1Z0F500
Y-50.197F1000
Y-50.073Z-0.1F500
Y49.999F1000
Y50.002Z-0
Y98.402Z0
G0Z10
X-45Y-98.398
G1Z0F500
Y-50.997F1000
Y-50.994Z-0.1F500
Y50.999F1000
Y51.002Z0
Y98.402
G0Z10
X-44Y-98.398
G1Z0F500
Y-51.997F1000
Y-51.873Z-0.1F500
Y51.799F1000
Y51.802Z-0
Y98.402Z0
G0Z10
X-43Y-98.398
G1Z0F500
Y-52.797F1000
Y-52.794Z-0.1F500
Y52.799F1000
Y52.802Z0
Y98.402
G0Z10
X-42Y-98.398
G1Z0F500
Y-53.597F1000
Y-53.474Z-0.1F500
Y53.399F1000
Y53.402Z-0
Y98.402Z0
G0Z10
X-41Y-98.398
G1Z0F500
Y-54.397F1000
Y-54.274Z-0.1F500
Y54.199F1000
Y54.202Z-0
Y54.402Z0
Y98.402
G0Z10
X-40Y-98.398
G1Z0F500
Y-55.197F1000
Y-55.074Z-0.1F500
Y54.999F1000
Y55.002Z-0
Y98.402Z0
G0Z10
X-39Y-98.398
G1Z0F500
Y-55.797F1000
Y-55.794Z-0.1F500
Y55.799F1000
Y55.802Z0
Y98.402
G0Z10
X-38Y-98.398
G1Z0F500
Y-56.597F1000
Y-56.474Z-0.1F500
Y56.399F1000
Y56.402Z-0
Y98.402Z0
G0Z10
X-37Y-98.398
G1Z0F500
Y-57.197F1000
Y-57.194Z-0.1F500
Y57.199F1000
Y57.202Z0
Y98.402
G0Z10
X-36Y-98.398
G1Z0F500
Y-57.797F1000
Y-57.794Z-0.1F500
Y57.799F1000
Y57.802Z0
Y98.402
G0Z10
X-35Y-98.398
G1Z0F500
Y-58.397F1000
Y-58.394Z-0.1F500
Y58.399F1000
Y58.402Z0
Y98.402
G0Z10
X-34Y-98.398
G1Z0F500
Y-58.997F1000
Y-58.994Z-0.1F500
Y58.999F1000
Y59.002Z0
Y98.402
G0Z10
X-33Y-98.398
G1Z0F500
Y-59.597F1000
Y-59.594Z-0.1F500
Y59.599F1000
Y59.602Z0
Y98.402
G0Z10
X-32Y-98.398
G1Z0F500
Y-60.197F1000
Y-60.194Z-0.1F500
Y60.199F1000
Y60.202Z0
Y98.402
G0Z10
X-31Y-98.398
G1Z0F500
Y-60.797F1000
Y-60.674Z-0.1F500
Y60.599F1000
Y60.602Z0
Y98.402
G0Z10
X-30Y-98.398
G1Z0F500
Y-61.197F1000
Y-61.194Z-0.1F500
Y61.199F1000
Y61.202Z0
Y98.402
G0Z10
X-29Y-98.398
G1Z0F500
Y-61.797F1000
Y-61.674Z-0.1F500
Y61.599F1000
Y61.602Z0
Y98.402
G0Z10
X-28Y-98.398
G1Z0F500
Y-62.197F1000
Y-62.194Z-0.1F500
Y62.199F1000
Y62.202Z0
Y98.402
G0Z10
X-27Y-98.398
G1Z0F500
Y-62.597F1000
Y-62.594Z-0.1F500
Y62.599F1000
Y62.602Z0
Y98.402
G0Z10
X-26Y-98.398
G1Z0F500
Y-63.197F1000
Y-63.074Z-0.1F500
Y62.999F1000
Y63.002Z0
Y98.402
G0Z10
X-25Y-98.398
G1Z0F500
Y-63.597F1000
Y-63.473Z-0.1F500
Y63.399F1000
Y63.402Z0
Y98.402
G0Z10
X-24Y-98.398
G1Z0F500
Y-63.997F1000
Y-63.873Z-0.1F500
Y63.799F1000
Y63.802Z0
Y98.402
G0Z10
X-23Y-98.398
G1Z0F500
Y-64.197F1000
Y-64.194Z-0.1F500
Y64.199F1000
Y64.202Z0
Y98.402
G0Z10
X-22Y-98.398
G1Z0F500
Y-64.597F1000
Y-64.594Z-0.1F500
Y64.599F1000
Y64.602Z0
Y98.402
G0Z10
X-21Y-98.398
G1Z0F500
Y-64.997F1000
Y-64.872Z-0.1F500
Y64.799F1000
Y64.802Z-0
Y65.002Z0
Y98.402
G0Z10
X-20Y-98.398
G1Z0F500
Y-65.397F1000
Y-65.272Z-0.1F500
Y65.199F1000
Y65.202Z0
Y98.402
G0Z10
X-19Y-98.398
G1Z0F500
Y-65.597F1000
Y-65.594Z-0.1F500
Y65.599F1000
Y65.602Z0
Y98.402
G0Z10
X-18Y-98.398
G1Z0F500
Y-65.997F1000
Y-65.871Z-0.1F500
Y65.799F1000
Y65.802Z0
Y98.402
G0Z10
X-17Y-98.398
G1Z0F500
Y-66.197F1000
Y-66.194Z-0.1F500
Y66.199F1000
Y66.202Z0
Y98.402
G0Z10
X-16Y-98.398
G1Z0F500
Y-66.397F1000
Y-66.394Z-0.1F500
Y66.399F1000
Y66.402Z0
Y98.402
G0Z10
X-15Y-98.398
G1Z0F500
Y-66.797F1000
Y-66.67Z-0.1F500
Y66.599F1000
Y66.602Z0
Y98.402
G0Z10
X-14Y-98.398
G1Z0F500
Y-66.997F1000
Y-66.87Z-0.1F500
Y66.799F1000
Y66.802Z0
Y98.402
G0Z10
X-13Y-98.398
G1Z0F500
Y-67.197F1000
Y-67.071Z-0.1F500
Y66.999F1000
Y67.002Z-0
Y67.202Z0
Y98.402
G0Z10
X-12Y-98.398
G1Z0F500
Y-67.397F1000
Y-67.27Z-0.1F500
Y67.199F1000
Y67.202Z-0
Y67.402Z0
Y98.402
G0Z10
X-11Y-98.398
G1Z0F500
Y-67.597F1000
Y-67.47Z-0.1F500
Y67.399F1000
Y67.402Z0
Y98.402
G0Z10
X-10Y-98.398
G1Z0F500
Y-67.797F1000
Y-67.67Z-0.1F500
Y67.599F1000
Y67.602Z0
Y98.402
G0Z10
X-9Y-98.398
G1Z0F500
Y-67.997F1000
Y-67.869Z-0.1F500
Y67.799F1000
Y67.802Z0
Y98.402
G0Z10
X-8Y-98.398
G1Z0F500
Y-67.997F1000
Y-67.994Z-0.1F500
Y67.999F1000
Y68.002Z0
Y98.402
G0Z10
X-7Y-98.398
G1Z0F500
Y-68.197F1000
Y-68.069Z-0.1F500
Y67.999F1000
Y68.002Z0
Y98.402
G0Z10
X-6Y-98.398
G1Z0F500
Y-68.197F1000
Y-68.194Z-0.1F500
Y68.199F1000
Y68.202Z0
Y98.402
G0Z10
X-5Y-98.398
G1Z0F500
Y-68.397F1000
Y-68.269Z-0.1F500
Y68.199F1000
Y68.202Z-0
Y68.402Z0
Y98.402
G0Z10
X-4Y-98.398
G1Z0F500
Y-68.397F1000
Y-68.394Z-0.1F500
Y68.399F1000
Y68.402Z0
Y98.402
G0Z10
X-3Y-98.398
G1Z0F500
Y-68.597F1000
Y-68.469Z-0.1F500
Y68.399F1000
Y68.402Z0
Y98.402
G0Z10
X-2Y-98.398
G1Z0F500
Y-68.597F1000
Y-68.594Z-0.1F500
Y68.599F1000
Y68.602Z0
Y98.402
G0Z10
X-1Y-98.398
G1Z0F500
Y-68.597F1000
Y-68.594Z-0.1F500
Y68.599F1000
Y68.602Z0
Y98.402
G0Z10
X0Y-98.398
G1Z0F500
Y-68.597F1000
Y-68.594Z-0.1F500
Y68.599F1000
Y68.602Z0
Y98.402
G0Z10
X1Y-98.398
G1Z0F500
Y-68.597F1000
Y-68.594Z-0.1F500
Y68.599F1000
Y68.602Z0
Y98.402
G0Z10
X2Y-98.398
G1Z0F500
Y-68.597F1000
Y-68.594Z-0.1F500
Y68.599F1000
Y68.602Z0
Y98.402
G0Z10
X3Y-98.398
G1Z0F500
Y-68.597F1000
Y-68.469Z-0.1F500
Y68.399F1000
Y68.402Z0
Y98.402
G0Z10
X4Y-98.398
G1Z0F500
Y-68.397F1000
Y-68.394Z-0.1F500
Y68.399F1000
Y68.402Z0
Y98.402
G0Z10
X5Y-98.398
G1Z0F500
Y-68.397F1000
Y-68.269Z-0.1F500
Y68.199F1000
Y68.202Z0
Y98.402
G0Z10
X6Y-98.398
G1Z0F500
Y-68.197F1000
Y-68.194Z-0.1F500
Y68.199F1000
Y68.202Z0
Y98.402
G0Z10
X7Y-98.398
G1Z0F500
Y-68.197F1000
Y-68.069Z-0.1F500
Y67.999F1000
Y68.002Z0
Y98.402
G0Z10
X8Y-98.398
G1Z0F500
Y-67.997F1000
Y-67.994Z-0.1F500
Y67.999F1000
Y68.002Z0
Y98.402
G0Z10
X9Y-98.398
G1Z0F500
Y-67.997F1000
Y-67.869Z-0.1F500
Y67.799F1000
Y67.802Z0
Y98.402
G0Z10
X10Y-98.398
G1Z0F500
Y-67.797F1000
Y-67.67Z-0.1F500
Y67.599F1000
Y67.602Z0
Y98.402
G0Z10
X11Y-98.398
G1Z0F500
Y-67.597F1000
Y-67.47Z-0.1F500
Y67.399F1000
Y67.402Z0
Y98.402
G0Z10
X12Y-98.398
G1Z0F500
Y-67.397F1000
Y-67.27Z-0.1F500
Y67.199F1000
Y67.202Z0
Y98.402
G0Z10
X13Y-98.398
G1Z0F500
Y-67.197F1000
Y-67.07Z-0.1F500
Y66.999F1000
Y67.002Z0
Y98.402
G0Z10
X14Y-98.398
G1Z0F500
Y-66.997F1000
Y-66.87Z-0.1F500
Y66.799F1000
Y66.802Z0
Y98.402
G0Z10
X15Y-98.398
G1Z0F500
Y-66.797F1000
Y-66.67Z-0.1F500
Y66.599F1000
Y66.602Z0
Y98.402
G0Z10
X16Y-98.398
G1Z0F500
Y-66.397F1000
Y-66.394Z-0.1F500
Y66.399F1000
Y66.402Z0
Y98.402
G0Z10
X17Y-98.398
G1Z0F500
Y-66.197F1000
Y-66.194Z-0.1F500
Y66.199F1000
Y66.202Z0
Y98.402
G0Z10
X18Y-98.398
G1Z0F500
Y-65.997F1000
Y-65.871Z-0.1F500
Y65.799F1000
Y65.802Z0
Y98.402
G0Z10
X19Y-98.398
G1Z0F500
Y-65.597F1000
Y-65.594Z-0.1F500
Y65.599F1000
Y65.602Z0
Y98.402
G0Z10
X20Y-98.398
G1Z0F500
Y-65.397F1000
Y-65.272Z-0.1F500
Y65.199F1000
Y65.202Z0
Y98.402
G0Z10
X21Y-98.398
G1Z0F500
Y-64.997F1000
Y-64.872Z-0.1F500
Y64.799F1000
Y64.802Z0
Y98.402
G0Z10
X22Y-98.398
G1Z0F500
Y-64.597F1000
Y-64.594Z-0.1F500
Y64.599F1000
Y64.602Z0
Y98.402
G0Z10
X23Y-98.398
G1Z0F500
Y-64.197F1000
Y-64.194Z-0.1F500
Y64.199F1000
Y64.202Z0
Y98.402
G0Z10
X24Y-98.398
G1Z0F500
Y-63.997F1000
Y-63.873Z-0.1F500
Y63.799F1000
Y63.802Z0
Y98.402
G0Z10
X25Y-98.398
G1Z0F500
Y-63.597F1000
Y-63.473Z-0.1F500
Y63.399F1000
Y63.402Z0
Y98.402
G0Z10
X26Y-98.398
G1Z0F500
Y-63.197F1000
Y-63.074Z-0.1F500
Y62.999F1000
Y63.002Z0
Y98.402
G0Z10
X27Y-98.398
G1Z0F500
Y-62.597F1000
Y-62.594Z-0.1F500
Y62.599F1000
Y62.602Z0
Y98.402
G0Z10
X28Y-98.398
G1Z0F500
Y-62.197F1000
Y-62.194Z-0.1F500
Y62.199F1000
Y62.202Z0
Y98.402
G0Z10
X29Y-98.398
G1Z0F500
Y-61.797F1000
Y-61.674Z-0.1F500
Y61.599F1000
Y61.602Z0
Y98.402
G0Z10
X30Y-98.398
G1Z0F500
Y-61.197F1000
Y-61.194Z-0.1F500
Y61.199F1000
Y61.202Z0
Y98.402
G0Z10
X31Y-98.398
G1Z0F500
Y-60.797F1000
Y-60.674Z-0.1F500
Y60.599F1000
Y60.602Z0
Y98.402
G0Z10
X32Y-98.398
G1Z0F500
Y-60.197F1000
Y-60.194Z-0.1F500
Y60.199F1000
Y60.202Z0
Y98.402
G0Z10
X33Y-98.398
G1Z0F500
Y-59.597F1000
Y-59.594Z-0.1F500
Y59.599F1000
Y59.602Z0
Y98.402
G0Z10
X34Y-98.398
G1Z0F500
Y-58.997F1000
Y-58.994Z-0.1F500
Y58.999F1000
Y59.002Z0
Y98.402
G0Z10
X35Y-98.398
G1Z0F500
Y-58.397F1000
Y-58.394Z-0.1F500
Y58.399F1000
Y58.402Z0
Y98.402
G0Z10
X36Y-98.398
G1Z0F500
Y-57.797F1000
Y-57.794Z-0.1F500
Y57.799F1000
Y57.802Z0
Y98.402
G0Z10
X37Y-98.398
G1Z0F500
Y-57.197F1000
Y-57.194Z-0.1F500
Y57.199F1000
Y57.202Z0
Y98.402
G0Z10
X38Y-98.398
G1Z0F500
Y-56.597F1000
Y-56.474Z-0.1F500
Y56.399F1000
Y56.402Z0
Y98.402
G0Z10
X39Y-98.398
G1Z0F500
Y-55.797F1000
Y-55.794Z-0.1F500
Y55.799F1000
Y55.802Z0
Y98.402
G0Z10
X40Y-98.398
G1Z0F500
Y-55.197F1000
Y-55.073Z-0.1F500
Y54.999F1000
Y55.002Z0
Y98.402
G0Z10
X41Y-98.398
G1Z0F500
Y-54.397F1000
Y-54.273Z-0.1F500
Y54.199F1000
Y54.202Z0
Y98.402
G0Z10
X42Y-98.398
G1Z0F500
Y-53.597F1000
Y-53.473Z-0.1F500
Y53.399F1000
Y53.402Z0
Y98.402
G0Z10
X43Y-98.398
G1Z0F500
Y-52.797F1000
Y-52.794Z-0.1F500
Y52.799F1000
Y52.802Z0
Y98.402
G0Z10
X44Y-98.398
G1Z0F500
Y-51.997F1000
Y-51.873Z-0.1F500
Y51.799F1000
Y51.802Z0
Y98.402
G0Z10
X45Y-98.398
G1Z0F500
Y-50.997F1000
Y-50.994Z-0.1F500
Y50.999F1000
Y51.002Z0
Y98.402
G0Z10
X46Y-98.398
G1Z0F500
Y-50.197F1000
Y-50.073Z-0.1F500
Y49.999F1000
Y50.002Z0
Y98.402
G0Z10
X47Y-98.398
G1Z0F500
Y-49.197F1000
Y-49.194Z-0.1F500
Y49.199F1000
Y49.202Z0
Y98.402
G0Z10
X48Y-98.398
G1Z0F500
Y-48.197F1000
Y-48.194Z-0.1F500
Y48.199F1000
Y48.202Z0
Y98.402
G0Z10
X49Y-98.398
G1Z0F500
Y-47.197F1000
Y-47.194Z-0.1F500
Y47.199F1000
Y47.202Z0
Y98.402
G0Z10
X50Y-98.398
G1Z0F500
Y-46.197F1000
Y-46.073Z-0.1F500
Y45.999F1000
Y46.002Z0
Y98.402
G0Z10
X51Y-98.398
G1Z0F500
Y-44.997F1000
Y-44.994Z-0.1F500
Y44.999F1000
Y45.002Z0
Y98.402
G0Z10
X52Y-98.398
G1Z0F500
Y-43.997F1000
Y-43.872Z-0.1F500
Y43.799F1000
Y43.802Z0
Y98.402
G0Z10
X53Y-98.398
G1Z0F500
Y-42.797F1000
Y-42.672Z-0.1F500
Y42.599F1000
Y42.602Z0
Y98.402
G0Z10
X54Y-98.398
G1Z0F500
Y-41.397F1000
Y-41.394Z-0.1F500
Y41.399F1000
Y41.402Z0
Y98.402
G0Z10
X55Y-98.398
G1Z0F500
Y-40.197F1000
Y-40.072Z-0.1F500
Y39.999F1000
Y40.002Z0
Y98.402
G0Z10
X56Y-98.398
G1Z0F500
Y-38.797F1000
Y-38.672Z-0.1F500
Y38.599F1000
Y38.602Z0
Y98.402
G0Z10
X57Y-98.398
G1Z0F500
Y-37.197F1000
Y-37.194Z-0.1F500
Y37.199F1000
Y37.202Z0
Y98.402
G0Z10
X58Y-98.398
G1Z0F500
Y-35.597F1000
Y-35.594Z-0.1F500
Y35.599F1000
Y35.602Z0
Y98.402
G0Z10
X59Y-98.398
G1Z0F500
Y-33.997F1000
Y-33.994Z-0.1F500
Y33.999F1000
Y34.002Z0
Y98.402
G0Z10
X60Y-98.398
G1Z0F500
Y-32.197F1000
Y-32.194Z-0.1F500
Y32.199F1000
Y32.202Z0
Y98.402
G0Z10
X61Y-98.398
G1Z0F500
Y-30.397F1000
Y-30.271Z-0.1F500
Y30.199F1000
Y30.202Z0
Y98.402
G0Z10
X62Y-98.398
G1Z0F500
Y-28.397F1000
Y-28.271Z-0.1F500
Y28.199F1000
Y28.202Z0
Y98.402
G0Z10
X63Y-98.398
G1Z0F500
Y-26.197F1000
Y-26.071Z-0.1F500
Y25.999F1000
Y26.002Z0
Y98.402
G0Z10
X64Y-98.398
G1Z0F500
Y-23.597F1000
Y-23.471Z-0.1F500
Y23.399F1000
Y23.402Z0
Y98.402
G0Z10
X65Y-98.398
G1Z0F500
Y-20.797F1000
Y-20.67Z-0.1F500
Y20.599F1000
Y20.602Z0
Y98.402
G0Z10
X66Y-98.398
G1Z0F500
Y-17.597F1000
Y-17.47Z-0.1F500
Y17.399F1000
Y17.402Z0
Y98.402
G0Z10
X67Y-98.398
G1Z0F500
Y-13.397F1000
Y-13.394Z-0.1F500
Y13.399F1000
Y13.402Z0
Y98.402
G0Z10
X68Y-98.398
G1Z0F500
Y-7.597F1000
Y-7.594Z-0.1F500
Y7.599F1000
Y7.602Z0
Y98.402
G0Z10
X69Y-98.398
G1Z0F500
Y98.402F1000
G0Z10
X70Y-98.398
G1Z0F500
Y98.402F1000
G0Z10
X71Y-98.398
G1Z0F500
Y98.402F1000
G0Z10
X72Y-98.398
G1Z0F500
Y98.402F1000
G0Z10
X73Y-98.398
G1Z0F500
Y98.402F1000
G0Z10
X74Y-98.398
G1Z0F500
Y98.402F1000
G0Z10
X75Y-98.398
G1Z0F500
Y98.402F1000
G0Z10
X76Y-98.398
G1Z0F500
Y98.402F1000
G0Z10
X77Y-98.398
G1Z0F500
Y98.402F1000
G0Z10
X78Y-98.398
G1Z0F500
Y98.402F1000
G0Z10
X79Y-98.398
G1Z0F500
Y98.402F1000
G0Z10
X80Y-98.398
G1Z0F500
Y98.402F1000
G0Z10
X81Y-98.398
G1Z0F500
Y98.402F1000
G0Z10
X82Y-98.398
G1Z0F500
Y98.402F1000
G0Z10
X83Y-98.398
G1Z0F500
Y98.402F1000
G0Z10
X84Y-98.398
G1Z0F500
Y98.402F1000
G0Z10
X85Y-98.398
G1Z0F500
Y98.402F1000
G0Z10
X86Y-98.398
G1Z0F500
Y98.402F1000
G0Z10
X87Y-98.398
G1Z0F500
Y98.402F1000
G0Z10
X88Y-98.398
G1Z0F500
Y98.402F1000
G0Z10
X89Y-98.398
G1Z0F500
Y98.402F1000
G0Z10
X90Y-98.398
G1Z0F500
Y98.402F1000
G0Z10
X91Y-98.398
G1Z0F500
Y98.402F1000
G0Z10
X92Y-98.398
G1Z0F500
Y98.402F1000
G0Z10
X93Y-98.398
G1Z0F500
Y98.402F1000
G0Z10
X94Y-98.398
G1Z0F500
Y98.402F1000
G0Z10
X95Y-98.398
G1Z0F500
Y98.402F1000
G0Z10
X96Y-98.398
G1Z0F500
Y98.402F1000
G0Z10
X97Y-98.398
G1Z0F500
Y98.402F1000
G0Z10
X98Y-98.398
G1Z0F500
Y98.402F1000
G0Z10
X-68Y-7.594
G1Z-0.1F500
Y-7.591Z-0.2
Y7.596F1000
Y7.599Z-0.1
G0Z10
X-67Y-13.394
G1Z-0.1F500
Y-13.391Z-0.2
Y13.396F1000
Y13.399Z-0.1
G0Z10
X-66Y-17.471
G1Z-0.1F500
Y-17.397Z-0.157
Y-17.396Z-0.2
Y17.396F1000
Y17.399Z-0.1
G0Z10
X-65Y-20.671
G1Z-0.1F500
Y-20.597Z-0.157
Y-20.596Z-0.2
Y20.596F1000
Y20.599Z-0.1
G0Z10
X-64Y-23.471
G1Z-0.1F500
Y-23.397Z-0.158
Y-23.396Z-0.2
Y23.396F1000
Y23.399Z-0.1
G0Z10
X-63Y-26.071
G1Z-0.1F500
Y-25.997Z-0.158
Y-25.996Z-0.2
Y25.996F1000
Y25.999Z-0.1
G0Z10
X-62Y-28.271
G1Z-0.1F500
Y-28.197Z-0.158
Y-28.196Z-0.2
Y28.196F1000
Y28.199Z-0.1
G0Z10
X-61Y-30.271
G1Z-0.1F500
Y-30.197Z-0.158
Y-30.196Z-0.2
Y30.196F1000
Y30.199Z-0.1
G0Z10
X-60Y-32.194
G1Z-0.1F500
Y-32.191Z-0.2
Y32.196F1000
Y32.199Z-0.1
G0Z10
X-59Y-33.994
G1Z-0.1F500
Y-33.991Z-0.2
Y33.996F1000
Y33.999Z-0.1
G0Z10
X-58Y-35.594
G1Z-0.1F500
Y-35.591Z-0.2
Y35.596F1000
Y35.599Z-0.1
G0Z10
X-57Y-37.194
G1Z-0.1F500
Y-37.191Z-0.2
Y37.196F1000
Y37.199Z-0.1
G0Z10
X-56Y-38.672
G1Z-0.1F500
Y-38.597Z-0.159
Y-38.596Z-0.2
Y38.596F1000
Y38.599Z-0.1
G0Z10
X-55Y-40.072
G1Z-0.1F500
Y-39.997Z-0.16
Y-39.996Z-0.2
Y39.996F1000
Y39.999Z-0.1
G0Z10
X-54Y-41.394
G1Z-0.1F500
Y-41.391Z-0.2
Y41.396F1000
Y41.399Z-0.1
G0Z10
X-53Y-42.673
G1Z-0.1F500
Y-42.597Z-0.16
Y-42.596Z-0.2
Y42.596F1000
Y42.599Z-0.1
G0Z10
X-52Y-43.873
G1Z-0.1F500
Y-43.797Z-0.16
Y-43.796Z-0.2
Y43.796F1000
Y43.799Z-0.1
G0Z10
X-51Y-44.994
G1Z-0.1F500
Y-44.991Z-0.2
Y44.996F1000
Y44.999Z-0.1
G0Z10
X-50Y-46.073
G1Z-0.1F500
Y-45.997Z-0.16
Y-45.996Z-0.2
Y45.996F1000
Y45.999Z-0.1
G0Z10
X-49Y-47.194
G1Z-0.1F500
Y-47.191Z-0.2
Y47.196F1000
Y47.199Z-0.1
G0Z10
X-48Y-48.194
G1Z-0.1F500
Y-48.191Z-0.2
Y48.196F1000
Y48.199Z-0.1
G0Z10
X-47Y-49.194
G1Z-0.1F500
Y-49.191Z-0.2
Y49.196F1000
Y49.199Z-0.1
G0Z10
X-46Y-50.073
G1Z-0.1F500
Y-49.997Z-0.161
Y-49.996Z-0.2
Y49.996F1000
Y49.999Z-0.1
G0Z10
X-45Y-50.994
G1Z-0.1F500
Y-50.991Z-0.2
Y50.996F1000
Y50.999Z-0.1
G0Z10
X-44Y-51.873
G1Z-0.1F500
Y-51.797Z-0.161
Y-51.796Z-0.2
Y51.796F1000
Y51.799Z-0.1
G0Z10
X-43Y-52.794
G1Z-0.1F500
Y-52.791Z-0.2
Y52.796F1000
Y52.799Z-0.1
G0Z10
X-42Y-53.474
G1Z-0.1F500
Y-53.397Z-0.161
Y-53.396Z-0.2
Y53.396F1000
Y53.399Z-0.1
G0Z10
X-41Y-54.274
G1Z-0.1F500
Y-54.197Z-0.161
Y-54.196Z-0.2
Y54.196F1000
Y54.199Z-0.1
G0Z10
X-40Y-55.074
G1Z-0.1F500
Y-54.997Z-0.161
Y-54.996Z-0.2
Y54.996F1000
Y54.999Z-0.1
G0Z10
X-39Y-55.794
G1Z-0.1F500
Y-55.791Z-0.2
Y55.796F1000
Y55.799Z-0.1
G0Z10
X-38Y-56.474
G1Z-0.1F500
Y-56.397Z-0.162
Y-56.396Z-0.2
Y56.396F1000
Y56.399Z-0.1
G0Z10
X-37Y-57.194
G1Z-0.1F500
Y-57.191Z-0.2
Y57.196F1000
Y57.199Z-0.1
G0Z10
X-36Y-57.794
G1Z-0.1F500
Y-57.791Z-0.2
Y57.796F1000
Y57.799Z-0.1
G0Z10
X-35Y-58.394
G1Z-0.1F500
Y-58.391Z-0.2
Y58.396F1000
Y58.399Z-0.1
G0Z10
X-34Y-58.994
G1Z-0.1F500
Y-58.991Z-0.2
Y58.996F1000
Y58.999Z-0.1
G0Z10
X-33Y-59.594
G1Z-0.1F500
Y-59.591Z-0.2
Y59.596F1000
Y59.599Z-0.1
G0Z10
X-32Y-60.194
G1Z-0.1F500
Y-60.191Z-0.2
Y60.196F1000
Y60.199Z-0.1
G0Z10
X-31Y-60.674
G1Z-0.1F500
Y-60.597Z-0.162
Y-60.596Z-0.2
Y60.596F1000
Y60.599Z-0.1
G0Z10
X-30Y-61.194
G1Z-0.1F500
Y-61.191Z-0.2
Y61.196F1000
Y61.199Z-0.1
G0Z10
X-29Y-61.674
G1Z-0.1F500
Y-61.597Z-0.162
Y-61.596Z-0.2
Y61.596F1000
Y61.599Z-0.1
G0Z10
X-28Y-62.194
G1Z-0.1F500
Y-62.191Z-0.2
Y62.196F1000
Y62.199Z-0.1
G0Z10
X-27Y-62.594
G1Z-0.1F500
Y-62.591Z-0.2
Y62.596F1000
Y62.599Z-0.1
G0Z10
X-26Y-63.074
G1Z-0.1F500
Y-62.997Z-0.161
Y-62.996Z-0.2
Y62.996F1000
Y62.999Z-0.1
G0Z10
X-25Y-63.473
G1Z-0.1F500
Y-63.397Z-0.161
Y-63.396Z-0.2
Y63.396F1000
Y63.399Z-0.1
G0Z10
X-24Y-63.873
G1Z-0.1F500
Y-63.797Z-0.16
Y-63.796Z-0.2
Y63.796F1000
Y63.799Z-0.1
G0Z10
X-23Y-64.194
G1Z-0.1F500
Y-64.191Z-0.2
Y64.196F1000
Y64.199Z-0.1
G0Z10
X-22Y-64.594
G1Z-0.1F500
Y-64.591Z-0.2
Y64.596F1000
Y64.599Z-0.1
G0Z10
X-21Y-64.872
G1Z-0.1F500
Y-64.797Z-0.16
Y-64.796Z-0.2
Y64.796F1000
Y64.799Z-0.1
G0Z10
X-20Y-65.272
G1Z-0.1F500
Y-65.197Z-0.159
Y-65.196Z-0.2
Y65.196F1000
Y65.199Z-0.1
G0Z10
X-19Y-65.594
G1Z-0.1F500
Y-65.591Z-0.2
Y65.596F1000
Y65.599Z-0.1
G0Z10
X-18Y-65.871
G1Z-0.1F500
Y-65.797Z-0.158
Y-65.796Z-0.2
Y65.796F1000
Y65.799Z-0.1
G0Z10
X-17Y-66.194
G1Z-0.1F500
Y-66.191Z-0.2
Y66.196F1000
Y66.199Z-0.1
G0Z10
X-16Y-66.394
G1Z-0.1F500
Y-66.391Z-0.2
Y66.396F1000
Y66.399Z-0.1
G0Z10
X-15Y-66.67
G1Z-0.1F500
Y-66.597Z-0.157
Y-66.596Z-0.2
Y66.596F1000
Y66.599Z-0.1
G0Z10
X-14Y-66.87
G1Z-0.1F500
Y-66.797Z-0.157
Y-66.796Z-0.2
Y66.796F1000
Y66.799Z-0.1
G0Z10
X-13Y-67.071
G1Z-0.1F500
Y-66.997Z-0.157
Y-66.996Z-0.2
Y66.996F1000
Y66.999Z-0.1
G0Z10
X-12Y-67.27
G1Z-0.1F500
Y-67.197Z-0.157
Y-67.196Z-0.2
Y67.196F1000
Y67.199Z-0.1
G0Z10
X-11Y-67.47
G1Z-0.1F500
Y-67.397Z-0.156
Y-67.396Z-0.2
Y67.396F1000
Y67.399Z-0.1
G0Z10
X-10Y-67.67
G1Z-0.1F500
Y-67.597Z-0.156
Y-67.596Z-0.2
Y67.596F1000
Y67.599Z-0.1
G0Z10
X-9Y-67.869
G1Z-0.1F500
Y-67.797Z-0.156
Y-67.796Z-0.2
Y67.796F1000
Y67.799Z-0.1
G0Z10
X-8Y-67.994
G1Z-0.1F500
Y-67.991Z-0.2
Y67.996F1000
Y67.999Z-0.1
G0Z10
X-7Y-68.069
G1Z-0.1F500
Y-67.997Z-0.156
Y-67.996Z-0.2
Y67.996F1000
Y67.999Z-0.1
G0Z10
X-6Y-68.194
G1Z-0.1F500
Y-68.191Z-0.2
Y68.196F1000
Y68.199Z-0.1
G0Z10
X-5Y-68.269
G1Z-0.1F500
Y-68.197Z-0.156
Y-68.196Z-0.2
Y68.196F1000
Y68.199Z-0.1
G0Z10
X-4Y-68.394
G1Z-0.1F500
Y-68.391Z-0.2
Y68.396F1000
Y68.399Z-0.1
G0Z10
X-3Y-68.469
G1Z-0.1F500
Y-68.397Z-0.155
Y-68.396Z-0.2
Y68.396F1000
Y68.399Z-0.1
G0Z10
X-2Y-68.594
G1Z-0.1F500
Y-68.591Z-0.2
Y68.596F1000
Y68.599Z-0.1
G0Z10
X-1Y-68.594
G1Z-0.1F500
Y-68.591Z-0.2
Y68.596F1000
Y68.599Z-0.1
G0Z10
X0Y-68.594
G1Z-0.1F500
Y-68.591Z-0.2
Y68.596F1000
Y68.599Z-0.1
G0Z10
X1Y-68.594
G1Z-0.1F500
Y-68.591Z-0.2
Y68.596F1000
Y68.599Z-0.1
G0Z10
X2Y-68.594
G1Z-0.1F500
Y-68.591Z-0.2
Y68.596F1000
Y68.599Z-0.1
G0Z10
X3Y-68.469
G1Z-0.1F500
Y-68.397Z-0.155
Y-68.396Z-0.2
Y68.396F1000
Y68.399Z-0.1
G0Z10
X4Y-68.394
G1Z-0.1F500
Y-68.391Z-0.2
Y68.396F1000
Y68.399Z-0.1
G0Z10
X5Y-68.269
G1Z-0.1F500
Y-68.197Z-0.155
Y-68.196Z-0.2
Y68.196F1000
Y68.199Z-0.1
G0Z10
X6Y-68.194
G1Z-0.1F500
Y-68.191Z-0.2
Y68.196F1000
Y68.199Z-0.1
G0Z10
X7Y-68.069
G1Z-0.1F500
Y-67.997Z-0.156
Y-67.996Z-0.2
Y67.996F1000
Y67.999Z-0.1
G0Z10
X8Y-67.994
G1Z-0.1F500
Y-67.991Z-0.2
Y67.996F1000
Y67.999Z-0.1
G0Z10
X9Y-67.869
G1Z-0.1F500
Y-67.797Z-0.156
Y-67.796Z-0.2
Y67.796F1000
Y67.799Z-0.1
G0Z10
X10Y-67.67
G1Z-0.1F500
Y-67.597Z-0.156
Y-67.596Z-0.2
Y67.596F1000
Y67.599Z-0.1
G0Z10
X11Y-67.47
G1Z-0.1F500
Y-67.397Z-0.156
Y-67.396Z-0.2
Y67.396F1000
Y67.399Z-0.1
G0Z10
X12Y-67.27
G1Z-0.1F500
Y-67.197Z-0.156
Y-67.196Z-0.2
Y67.196F1000
Y67.199Z-0.1
G0Z10
X13Y-67.07
G1Z-0.1F500
Y-66.997Z-0.157
Y-66.996Z-0.2
Y66.996F1000
Y66.999Z-0.1
G0Z10
X14Y-66.87
G1Z-0.1F500
Y-66.797Z-0.157
Y-66.796Z-0.2
Y66.796F1000
Y66.799Z-0.1
G0Z10
X15Y-66.67
G1Z-0.1F500
Y-66.597Z-0.157
Y-66.596Z-0.2
Y66.596F1000
Y66.599Z-0.1
G0Z10
X16Y-66.394
G1Z-0.1F500
Y-66.391Z-0.2
Y66.396F1000
Y66.399Z-0.1
G0Z10
X17Y-66.194
G1Z-0.1F500
Y-66.191Z-0.2
Y66.196F1000
Y66.199Z-0.1
G0Z10
X18Y-65.871
G1Z-0.1F500
Y-65.797Z-0.158
Y-65.796Z-0.2
Y65.796F1000
Y65.799Z-0.1
G0Z10
X19Y-65.594
G1Z-0.1F500
Y-65.591Z-0.2
Y65.596F1000
Y65.599Z-0.1
G0Z10
X20Y-65.272
G1Z-0.1F500
Y-65.197Z-0.159
Y-65.196Z-0.2
Y65.196F1000
Y65.199Z-0.1
G0Z10
X21Y-64.872
G1Z-0.1F500
Y-64.797Z-0.159
Y-64.796Z-0.2
Y64.796F1000
Y64.799Z-0.1
G0Z10
X22Y-64.594
G1Z-0.1F500
Y-64.591Z-0.2
Y64.596F1000
Y64.599Z-0.1
G0Z10
X23Y-64.194
G1Z-0.1F500
Y-64.191Z-0.2
Y64.196F1000
Y64.199Z-0.1
G0Z10
X24Y-63.873
G1Z-0.1F500
Y-63.797Z-0.16
Y-63.796Z-0.2
Y63.796F1000
Y63.799Z-0.1
G0Z10
X25Y-63.473
G1Z-0.1F500
Y-63.397Z-0.161
Y-63.396Z-0.2
Y63.396F1000
Y63.399Z-0.1
G0Z10
X26Y-63.074
G1Z-0.1F500
Y-62.997Z-0.161
Y-62.996Z-0.2
Y62.996F1000
Y62.999Z-0.1
G0Z10
X27Y-62.594
G1Z-0.1F500
Y-62.591Z-0.2
Y62.596F1000
Y62.599Z-0.1
G0Z10
X28Y-62.194
G1Z-0.1F500
Y-62.191Z-0.2
Y62.196F1000
Y62.199Z-0.1
G0Z10
X29Y-61.674
G1Z-0.1F500
Y-61.597Z-0.162
Y-61.596Z-0.2
Y61.596F1000
Y61.599Z-0.1
G0Z10
X30Y-61.194
G1Z-0.1F500
Y-61.191Z-0.2
Y61.196F1000
Y61.199Z-0.1
G0Z10
X31Y-60.674
G1Z-0.1F500
Y-60.597Z-0.162
Y-60.596Z-0.2
Y60.596F1000
Y60.599Z-0.1
G0Z10
X32Y-60.194
G1Z-0.1F500
Y-60.191Z-0.2
Y60.196F1000
Y60.199Z-0.1
G0Z10
X33Y-59.594
G1Z-0.1F500
Y-59.591Z-0.2
Y59.596F1000
Y59.599Z-0.1
G0Z10
X34Y-58.994
G1Z-0.1F500
Y-58.991Z-0.2
Y58.996F1000
Y58.999Z-0.1
G0Z10
X35Y-58.394
G1Z-0.1F500
Y-58.391Z-0.2
Y58.396F1000
Y58.399Z-0.1
G0Z10
X36Y-57.794
G1Z-0.1F500
Y-57.791Z-0.2
Y57.796F1000
Y57.799Z-0.1
G0Z10
X37Y-57.194
G1Z-0.1F500
Y-57.191Z-0.2
Y57.196F1000
Y57.199Z-0.1
G0Z10
X38Y-56.474
G1Z-0.1F500
Y-56.397Z-0.161
Y-56.396Z-0.2
Y56.396F1000
Y56.399Z-0.1
G0Z10
X39Y-55.794
G1Z-0.1F500
Y-55.791Z-0.2
Y55.796F1000
Y55.799Z-0.1
G0Z10
X40Y-55.073
G1Z-0.1F500
Y-54.997Z-0.161
Y-54.996Z-0.2
Y54.996F1000
Y54.999Z-0.1
G0Z10
X41Y-54.273
G1Z-0.1F500
Y-54.197Z-0.161
Y-54.196Z-0.2
Y54.196F1000
Y54.199Z-0.1
G0Z10
X42Y-53.473
G1Z-0.1F500
Y-53.397Z-0.161
Y-53.396Z-0.2
Y53.396F1000
Y53.399Z-0.1
G0Z10
X43Y-52.794
G1Z-0.1F500
Y-52.791Z-0.2
Y52.796F1000
Y52.799Z-0.1
G0Z10
X44Y-51.873
G1Z-0.1F500
Y-51.797Z-0.161
Y-51.796Z-0.2
Y51.796F1000
Y51.799Z-0.1
G0Z10
X45Y-50.994
G1Z-0.1F500
Y-50.991Z-0.2
Y50.996F1000
Y50.999Z-0.1
G0Z10
X46Y-50.073
G1Z-0.1F500
Y-49.997Z-0.16
Y-49.996Z-0.2
Y49.996F1000
Y49.999Z-0.1
G0Z10
X47Y-49.194
G1Z-0.1F500
Y-49.191Z-0.2
Y49.196F1000
Y49.199Z-0.1
G0Z10
X48Y-48.194
G1Z-0.1F500
Y-48.191Z-0.2
Y48.196F1000
Y48.199Z-0.1
G0Z10
X49Y-47.194
G1Z-0.1F500
Y-47.191Z-0.2
Y47.196F1000
Y47.199Z-0.1
G0Z10
X50Y-46.073
G1Z-0.1F500
Y-45.997Z-0.16
Y-45.996Z-0.2
Y45.996F1000
Y45.999Z-0.1
G0Z10
X51Y-44.994
G1Z-0.1F500
Y-44.991Z-0.2
Y44.996F1000
Y44.999Z-0.1
G0Z10
X52Y-43.872
G1Z-0.1F500
Y-43.797Z-0.16
Y-43.796Z-0.2
Y43.796F1000
Y43.799Z-0.1
G0Z10
X53Y-42.672
G1Z-0.1F500
Y-42.597Z-0.16
Y-42.596Z-0.2
Y42.596F1000
Y42.599Z-0.1
G0Z10
X54Y-41.394
G1Z-0.1F500
Y-41.391Z-0.2
Y41.396F1000
Y41.399Z-0.1
G0Z10
X55Y-40.072
G1Z-0.1F500
Y-39.997Z-0.159
Y-39.996Z-0.2
Y39.996F1000
Y39.999Z-0.1
G0Z10
X56Y-38.672
G1Z-0.1F500
Y-38.597Z-0.159
Y-38.596Z-0.2
Y38.596F1000
Y38.599Z-0.1
G0Z10
X57Y-37.194
G1Z-0.1F500
Y-37.191Z-0.2
Y37.196F1000
Y37.199Z-0.1
G0Z10
X58Y-35.594
G1Z-0.1F500
Y-35.591Z-0.2
Y35.596F1000
Y35.599Z-0.1
G0Z10
X59Y-33.994
G1Z-0.1F500
Y-33.991Z-0.2
Y33.996F1000
Y33.999Z-0.1
G0Z10
X60Y-32.194
G1Z-0.1F500
Y-32.191Z-0.2
Y32.196F1000
Y32.199Z-0.1
G0Z10
X61Y-30.271
G1Z-0.1F500
Y-30.197Z-0.158
Y-30.196Z-0.2
Y30.196F1000
Y30.199Z-0.1
G0Z10
X62Y-28.271
G1Z-0.1F500
Y-28.197Z-0.158
Y-28.196Z-0.2
Y28.196F1000
Y28.199Z-0.1
G0Z10
X63Y-26.071
G1Z-0.1F500
Y-25.997Z-0.158
Y-25.996Z-0.2
Y25.996F1000
Y25.999Z-0.1
G0Z10
X64Y-23.471
G1Z-0.1F500
Y-23.397Z-0.157
Y-23.396Z-0.2
Y23.396F1000
Y23.399Z-0.1
G0Z10
X65Y-20.67
G1Z-0.1F500
Y-20.597Z-0.157
Y-20.596Z-0.2
Y20.596F1000
Y20.599Z-0.1
G0Z10
X66Y-17.47
G1Z-0.1F500
Y-17.397Z-0.157
Y-17.396Z-0.2
Y17.396F1000
Y17.399Z-0.1
G0Z10
X67Y-13.394
G1Z-0.1F500
Y-13.391Z-0.2
Y13.396F1000
Y13.399Z-0.1
G0Z10
X68Y-7.594
G1Z-0.1F500
Y-7.591Z-0.2
Y7.596F1000
Y7.599Z-0.1
G0Z10
X-68Y-7.591
G1Z-0.2F500
Y-7.589Z-0.3
Y7.593F1000
Y7.596Z-0.2
G0Z10
X-67Y-13.391
G1Z-0.2F500
Y-13.389Z-0.3
Y13.393F1000
Y13.396Z-0.2
G0Z10
X-66Y-17.396
G1Z-0.2F500
Y-17.393Z-0.3
Y17.393F1000
Y17.396Z-0.2
G0Z10
X-65Y-20.596
G1Z-0.2F500
Y-20.593Z-0.3
Y20.593F1000
Y20.596Z-0.2
G0Z10
X-64Y-23.396
G1Z-0.2F500
Y-23.393Z-0.3
Y23.393F1000
Y23.396Z-0.2
G0Z10
X-63Y-25.996
G1Z-0.2F500
Y-25.993Z-0.3
Y25.993F1000
Y25.996Z-0.2
G0Z10
X-62Y-28.196
G1Z-0.2F500
Y-28.193Z-0.3
Y28.193F1000
Y28.196Z-0.2
G0Z10
X-61Y-30.196
G1Z-0.2F500
Y-30.193Z-0.3
Y30.193F1000
Y30.196Z-0.2
G0Z10
X-60Y-32.191
G1Z-0.2F500
Y-32.189Z-0.3
Y32.193F1000
Y32.196Z-0.2
G0Z10
X-59Y-33.991
G1Z-0.2F500
Y-33.989Z-0.3
Y33.993F1000
Y33.996Z-0.2
G0Z10
X-58Y-35.591
G1Z-0.2F500
Y-35.589Z-0.3
Y35.593F1000
Y35.596Z-0.2
G0Z10
X-57Y-37.191
G1Z-0.2F500
Y-37.189Z-0.3
Y37.193F1000
Y37.196Z-0.2
G0Z10
X-56Y-38.596
G1Z-0.2F500
Y-38.593Z-0.3
Y38.593F1000
Y38.596Z-0.2
G0Z10
X-55Y-39.996
G1Z-0.2F500
Y-39.993Z-0.3
Y39.993F1000
Y39.996Z-0.2
G0Z10
X-54Y-41.391
G1Z-0.2F500
Y-41.389Z-0.3
Y41.393F1000
Y41.396Z-0.2
G0Z10
X-53Y-42.596
G1Z-0.2F500
Y-42.593Z-0.3
Y42.593F1000
Y42.596Z-0.2
G0Z10
X-52Y-43.796
G1Z-0.2F500
Y-43.793Z-0.3
Y43.793F1000
Y43.796Z-0.2
G0Z10
X-51Y-44.991
G1Z-0.2F500
Y-44.989Z-0.3
Y44.993F1000
Y44.996Z-0.2
G0Z10
X-50Y-45.996
G1Z-0.2F500
Y-45.993Z-0.3
Y45.993F1000
Y45.996Z-0.2
G0Z10
X-49Y-47.191
G1Z-0.2F500
Y-47.189Z-0.3
Y47.193F1000
Y47.196Z-0.2
G0Z10
X-48Y-48.191
G1Z-0.2F500
Y-48.189Z-0.3
Y48.193F1000
Y48.196Z-0.2
G0Z10
X-47Y-49.191
G1Z-0.2F500
Y-49.189Z-0.3
Y49.193F1000
Y49.196Z-0.2
G0Z10
X-46Y-49.996
G1Z-0.2F500
Y-49.993Z-0.3
Y49.993F1000
Y49.996Z-0.2
G0Z10
X-45Y-50.991
G1Z-0.2F500
Y-50.989Z-0.3
Y50.993F1000
Y50.996Z-0.2
G0Z10
X-44Y-51.796
G1Z-0.2F500
Y-51.793Z-0.3
Y51.793F1000
Y51.796Z-0.2
G0Z10
X-43Y-52.791
G1Z-0.2F500
Y-52.789Z-0.3
Y52.793F1000
Y52.796Z-0.2
G0Z10
X-42Y-53.396
G1Z-0.2F500
Y-53.393Z-0.3
Y53.393F1000
Y53.396Z-0.2
G0Z10
X-41Y-54.196
G1Z-0.2F500
Y-54.193Z-0.3
Y54.193F1000
Y54.196Z-0.2
G0Z10
X-40Y-54.996
G1Z-0.2F500
Y-54.993Z-0.3
Y54.993F1000
Y54.996Z-0.2
G0Z10
X-39Y-55.791
G1Z-0.2F500
Y-55.789Z-0.3
Y55.793F1000
Y55.796Z-0.2
G0Z10
X-38Y-56.396
G1Z-0.2F500
Y-56.393Z-0.3
Y56.393F1000
Y56.396Z-0.2
G0Z10
X-37Y-57.191
G1Z-0.2F500
Y-57.188Z-0.3
Y57.193F1000
Y57.196Z-0.2
G0Z10
X-36Y-57.791
G1Z-0.2F500
Y-57.788Z-0.3
Y57.793F1000
Y57.796Z-0.2
G0Z10
X-35Y-58.391
G1Z-0.2F500
Y-58.388Z-0.3
Y58.393F1000
Y58.396Z-0.2
G0Z10
X-34Y-58.991
G1Z-0.2F500
Y-58.988Z-0.3
Y58.993F1000
Y58.996Z-0.2
G0Z10
X-33Y-59.591
G1Z-0.2F500
Y-59.588Z-0.3
Y59.593F1000
Y59.596Z-0.2
G0Z10
X-32Y-60.191
G1Z-0.2F500
Y-60.188Z-0.3
Y60.193F1000
Y60.196Z-0.2
G0Z10
X-31Y-60.596
G1Z-0.2F500
Y-60.593Z-0.3
Y60.593F1000
Y60.596Z-0.2
G0Z10
X-30Y-61.191
G1Z-0.2F500
Y-61.188Z-0.3
Y61.193F1000
Y61.196Z-0.2
G0Z10
X-29Y-61.596
G1Z-0.2F500
Y-61.593Z-0.3
Y61.593F1000
Y61.596Z-0.2
G0Z10
X-28Y-62.191
G1Z-0.2F500
Y-62.188Z-0.3
Y62.193F1000
Y62.196Z-0.2
G0Z10
X-27Y-62.591
G1Z-0.2F500
Y-62.588Z-0.3
Y62.593F1000
Y62.596Z-0.2
G0Z10
X-26Y-62.996
G1Z-0.2F500
Y-62.993Z-0.3
Y62.993F1000
Y62.996Z-0.2
G0Z10
X-25Y-63.396
G1Z-0.2F500
Y-63.393Z-0.3
Y63.393F1000
Y63.396Z-0.2
G0Z10
X-24Y-63.796
G1Z-0.2F500
Y-63.793Z-0.3
Y63.793F1000
Y63.796Z-0.2
G0Z10
X-23Y-64.191
G1Z-0.2F500
Y-64.189Z-0.3
Y64.193F1000
Y64.196Z-0.2
G0Z10
X-22Y-64.591
G1Z-0.2F500
Y-64.589Z-0.3
Y64.593F1000
Y64.596Z-0.2
G0Z10
X-21Y-64.796
G1Z-0.2F500
Y-64.793Z-0.3
Y64.793F1000
Y64.796Z-0.2
G0Z10
X-20Y-65.196
G1Z-0.2F500
Y-65.193Z-0.3
Y65.193F1000
Y65.196Z-0.2
G0Z10
X-19Y-65.591
G1Z-0.2F500
Y-65.589Z-0.3
Y65.593F1000
Y65.596Z-0.2
G0Z10
X-18Y-65.796
G1Z-0.2F500
Y-65.793Z-0.3
Y65.793F1000
Y65.796Z-0.2
G0Z10
X-17Y-66.191
G1Z-0.2F500
Y-66.189Z-0.3
Y66.193F1000
Y66.196Z-0.2
G0Z10
X-16Y-66.391
G1Z-0.2F500
Y-66.389Z-0.3
Y66.393F1000
Y66.396Z-0.2
G0Z10
X-15Y-66.596
G1Z-0.2F500
Y-66.593Z-0.3
Y66.593F1000
Y66.596Z-0.2
G0Z10
X-14Y-66.796
G1Z-0.2F500
Y-66.793Z-0.3
Y66.793F1000
Y66.796Z-0.2
G0Z10
X-13Y-66.996
G1Z-0.2F500
Y-66.993Z-0.3
Y66.993F1000
Y66.996Z-0.2
G0Z10
X-12Y-67.196
G1Z-0.2F500
Y-67.193Z-0.3
Y67.193F1000
Y67.196Z-0.2
G0Z10
X-11Y-67.396
G1Z-0.2F500
Y-67.393Z-0.3
Y67.393F1000
Y67.396Z-0.2
G0Z10
X-10Y-67.596
G1Z-0.2F500
Y-67.593Z-0.3
Y67.593F1000
Y67.596Z-0.2
G0Z10
X-9Y-67.796
G1Z-0.2F500
Y-67.793Z-0.3
Y67.793F1000
Y67.796Z-0.2
G0Z10
X-8Y-67.991
G1Z-0.2F500
Y-67.989Z-0.3
Y67.993F1000
Y67.996Z-0.2
G0Z10
X-7Y-67.996
G1Z-0.2F500
Y-67.993Z-0.3
Y67.993F1000
Y67.996Z-0.2
G0Z10
X-6Y-68.191
G1Z-0.2F500
Y-68.189Z-0.3
Y68.193F1000
Y68.196Z-0.2
G0Z10
X-5Y-68.196
G1Z-0.2F500
Y-68.193Z-0.3
Y68.193F1000
Y68.196Z-0.2
G0Z10
X-4Y-68.391
G1Z-0.2F500
Y-68.389Z-0.3
Y68.393F1000
Y68.396Z-0.2
G0Z10
X-3Y-68.396
G1Z-0.2F500
Y-68.393Z-0.3
Y68.393F1000
Y68.396Z-0.2
G0Z10
X-2Y-68.591
G1Z-0.2F500
Y-68.589Z-0.3
Y68.593F1000
Y68.596Z-0.2
G0Z10
X-1Y-68.591
G1Z-0.2F500
Y-68.589Z-0.3
Y68.593F1000
Y68.596Z-0.2
G0Z10
X0Y-68.591
G1Z-0.2F500
Y-68.589Z-0.3
Y68.593F1000
Y68.596Z-0.2
G0Z10
X1Y-68.591
G1Z-0.2F500
Y-68.589Z-0.3
Y68.593F1000
Y68.596Z-0.2
G0Z10
X2Y-68.591
G1Z-0.2F500
Y-68.589Z-0.3
Y68.593F1000
Y68.596Z-0.2
G0Z10
X3Y-68.396
G1Z-0.2F500
Y-68.393Z-0.3
Y68.393F1000
Y68.396Z-0.2
G0Z10
X4Y-68.391
G1Z-0.2F500
Y-68.389Z-0.3
Y68.393F1000
Y68.396Z-0.2
G0Z10
X5Y-68.196
G1Z-0.2F500
Y-68.193Z-0.3
Y68.193F1000
Y68.196Z-0.2
G0Z10
X6Y-68.191
G1Z-0.2F500
Y-68.189Z-0.3
Y68.193F1000
Y68.196Z-0.2
G0Z10
X7Y-67.996
G1Z-0.2F500
Y-67.993Z-0.3
Y67.993F1000
Y67.996Z-0.2
G0Z10
X8Y-67.991
G1Z-0.2F500
Y-67.989Z-0.3
Y67.993F1000
Y67.996Z-0.2
G0Z10
X9Y-67.796
G1Z-0.2F500
Y-67.793Z-0.3
Y67.793F1000
Y67.796Z-0.2
G0Z10
X10Y-67.596
G1Z-0.2F500
Y-67.593Z-0.3
Y67.593F1000
Y67.596Z-0.2
G0Z10
X11Y-67.396
G1Z-0.2F500
Y-67.393Z-0.3
Y67.393F1000
Y67.396Z-0.2
G0Z10
X12Y-67.196
G1Z-0.2F500
Y-67.193Z-0.3
Y67.193F1000
Y67.196Z-0.2
G0Z10
X13Y-66.996
G1Z-0.2F500
Y-66.993Z-0.3
Y66.993F1000
Y66.996Z-0.2
G0Z10
X14Y-66.796
G1Z-0.2F500
Y-66.793Z-0.3
Y66.793F1000
Y66.796Z-0.2
G0Z10
X15Y-66.596
G1Z-0.2F500
Y-66.593Z-0.3
Y66.593F1000
Y66.596Z-0.2
G0Z10
X16Y-66.391
G1Z-0.2F500
Y-66.389Z-0.3
Y66.393F1000
Y66.396Z-0.2
G0Z10
X17Y-66.191
G1Z-0.2F500
Y-66.189Z-0.3
Y66.193F1000
Y66.196Z-0.2
G0Z10
X18Y-65.796
G1Z-0.2F500
Y-65.793Z-0.3
Y65.793F1000
Y65.796Z-0.2
G0Z10
X19Y-65.591
G1Z-0.2F500
Y-65.589Z-0.3
Y65.593F1000
Y65.596Z-0.2
G0Z10
X20Y-65.196
G1Z-0.2F500
Y-65.193Z-0.3
Y65.193F1000
Y65.196Z-0.2
G0Z10
X21Y-64.796
G1Z-0.2F500
Y-64.793Z-0.3
Y64.793F1000
Y64.796Z-0.2
G0Z10
X22Y-64.591
G1Z-0.2F500
Y-64.589Z-0.3
Y64.593F1000
Y64.596Z-0.2
G0Z10
X23Y-64.191
G1Z-0.2F500
Y-64.189Z-0.3
Y64.193F1000
Y64.196Z-0.2
G0Z10
X24Y-63.796
G1Z-0.2F500
Y-63.793Z-0.3
Y63.793F1000
Y63.796Z-0.2
G0Z10
X25Y-63.396
G1Z-0.2F500
Y-63.393Z-0.3
Y63.393F1000
Y63.396Z-0.2
G0Z10
X26Y-62.996
G1Z-0.2F500
Y-62.993Z-0.3
Y62.993F1000
Y62.996Z-0.2
G0Z10
X27Y-62.591
G1Z-0.2F500
Y-62.588Z-0.3
Y62.593F1000
Y62.596Z-0.2
G0Z10
X28Y-62.191
G1Z-0.2F500
Y-62.188Z-0.3
Y62.193F1000
Y62.196Z-0.2
G0Z10
X29Y-61.596
G1Z-0.2F500
Y-61.593Z-0.3
Y61.593F1000
Y61.596Z-0.2
G0Z10
X30Y-61.191
G1Z-0.2F500
Y-61.188Z-0.3
Y61.193F1000
Y61.196Z-0.2
G0Z10
X31Y-60.596
G1Z-0.2F500
Y-60.593Z-0.3
Y60.593F1000
Y60.596Z-0.2
G0Z10
X32Y-60.191
G1Z-0.2F500
Y-60.188Z-0.3
Y60.193F1000
Y60.196Z-0.2
G0Z10
X33Y-59.591
G1Z-0.2F500
Y-59.588Z-0.3
Y59.593F1000
Y59.596Z-0.2
G0Z10
X34Y-58.991
G1Z-0.2F500
Y-58.988Z-0.3
Y58.993F1000
Y58.996Z-0.2
G0Z10
X35Y-58.391
G1Z-0.2F500
Y-58.388Z-0.3
Y58.393F1000
Y58.396Z-0.2
G0Z10
X36Y-57.791
G1Z-0.2F500
Y-57.788Z-0.3
Y57.793F1000
Y57.796Z-0.2
G0Z10
X37Y-57.191
G1Z-0.2F500
Y-57.188Z-0.3
Y57.193F1000
Y57.196Z-0.2
G0Z10
X38Y-56.396
G1Z-0.2F500
Y-56.393Z-0.3
Y56.393F1000
Y56.396Z-0.2
G0Z10
X39Y-55.791
G1Z-0.2F500
Y-55.789Z-0.3
Y55.793F1000
Y55.796Z-0.2
G0Z10
X40Y-54.996
G1Z-0.2F500
Y-54.993Z-0.3
Y54.993F1000
Y54.996Z-0.2
G0Z10
X41Y-54.196
G1Z-0.2F500
Y-54.193Z-0.3
Y54.193F1000
Y54.196Z-0.2
G0Z10
X42Y-53.396
G1Z-0.2F500
Y-53.393Z-0.3
Y53.393F1000
Y53.396Z-0.2
G0Z10
X43Y-52.791
G1Z-0.2F500
Y-52.789Z-0.3
Y52.793F1000
Y52.796Z-0.2
G0Z10
X44Y-51.796
G1Z-0.2F500
Y-51.793Z-0.3
Y51.793F1000
Y51.796Z-0.2
G0Z10
X45Y-50.991
G1Z-0.2F500
Y-50.989Z-0.3
Y50.993F1000
Y50.996Z-0.2
G0Z10
X46Y-49.996
G1Z-0.2F500
Y-49.993Z-0.3
Y49.993F1000
Y49.996Z-0.2
G0Z10
X47Y-49.191
G1Z-0.2F500
Y-49.189Z-0.3
Y49.193F1000
Y49.196Z-0.2
G0Z10
X48Y-48.191
G1Z-0.2F500
Y-48.189Z-0.3
Y48.193F1000
Y48.196Z-0.2
G0Z10
X49Y-47.191
G1Z-0.2F500
Y-47.189Z-0.3
Y47.193F1000
Y47.196Z-0.2
G0Z10
X50Y-45.996
G1Z-0.2F500
Y-45.993Z-0.3
Y45.993F1000
Y45.996Z-0.2
G0Z10
X51Y-44.991
G1Z-0.2F500
Y-44.989Z-0.3
Y44.993F1000
Y44.996Z-0.2
G0Z10
X52Y-43.796
G1Z-0.2F500
Y-43.793Z-0.3
Y43.793F1000
Y43.796Z-0.2
G0Z10
X53Y-42.596
G1Z-0.2F500
Y-42.593Z-0.3
Y42.593F1000
Y42.596Z-0.2
G0Z10
X54Y-41.391
G1Z-0.2F500
Y-41.389Z-0.3
Y41.393F1000
Y41.396Z-0.2
G0Z10
X55Y-39.996
G1Z-0.2F500
Y-39.993Z-0.3
Y39.993F1000
Y39.996Z-0.2
G0Z10
X56Y-38.596
G1Z-0.2F500
Y-38.593Z-0.3
Y38.593F1000
Y38.596Z-0.2
G0Z10
X57Y-37.191
G1Z-0.2F500
Y-37.189Z-0.3
Y37.193F1000
Y37.196Z-0.2
G0Z10
X58Y-35.591
G1Z-0.2F500
Y-35.589Z-0.3
Y35.593F1000
Y35.596Z-0.2
G0Z10
X59Y-33.991
G1Z-0.2F500
Y-33.989Z-0.3
Y33.993F1000
Y33.996Z-0.2
G0Z10
X60Y-32.191
G1Z-0.2F500
Y-32.189Z-0.3
Y32.193F1000
Y32.196Z-0.2
G0Z10
X61Y-30.196
G1Z-0.2F500
Y-30.193Z-0.3
Y30.193F1000
Y30.196Z-0.2
G0Z10
X62Y-28.196
G1Z-0.2F500
Y-28.193Z-0.3
Y28.193F1000
Y28.196Z-0.2
G0Z10
X63Y-25.996
G1Z-0.2F500
Y-25.993Z-0.3
Y25.993F1000
Y25.996Z-0.2
G0Z10
X64Y-23.396
G1Z-0.2F500
Y-23.393Z-0.3
Y23.393F1000
Y23.396Z-0.2
G0Z10
X65Y-20.596
G1Z-0.2F500
Y-20.593Z-0.3
Y20.593F1000
Y20.596Z-0.2
G0Z10
X66Y-17.396
G1Z-0.2F500
Y-17.393Z-0.3
Y17.393F1000
Y17.396Z-0.2
G0Z10
X67Y-13.391
G1Z-0.2F500
Y-13.389Z-0.3
Y13.393F1000
Y13.396Z-0.2
G0Z10
X68Y-7.591
G1Z-0.2F500
Y-7.589Z-0.3
Y7.593F1000
Y7.596Z-0.2
G0Z10
X-68Y-7.589
G1Z-0.3F500
Y-7.586Z-0.4
Y7.59F1000
Y7.593Z-0.3
G0Z10
X-67Y-13.389
G1Z-0.3F500
Y-13.386Z-0.4
Y13.39F1000
Y13.393Z-0.3
G0Z10
X-66Y-17.393
G1Z-0.3F500
Y-17.39Z-0.4
Y17.39F1000
Y17.393Z-0.3
G0Z10
X-65Y-20.593
G1Z-0.3F500
Y-20.59Z-0.4
Y20.59F1000
Y20.593Z-0.3
G0Z10
X-64Y-23.393
G1Z-0.3F500
Y-23.39Z-0.4
Y23.39F1000
Y23.393Z-0.3
G0Z10
X-63Y-25.993
G1Z-0.3F500
Y-25.99Z-0.4
Y25.99F1000
Y25.993Z-0.3
G0Z10
X-62Y-28.193
G1Z-0.3F500
Y-28.19Z-0.4
Y28.19F1000
Y28.193Z-0.3
G0Z10
X-61Y-30.193
G1Z-0.3F500
Y-30.19Z-0.4
Y30.19F1000
Y30.193Z-0.3
G0Z10
X-60Y-32.189
G1Z-0.3F500
Y-32.186Z-0.4
Y32.19F1000
Y32.193Z-0.3
G0Z10
X-59Y-33.989
G1Z-0.3F500
Y-33.986Z-0.4
Y33.99F1000
Y33.993Z-0.3
G0Z10
X-58Y-35.589
G1Z-0.3F500
Y-35.586Z-0.4
Y35.59F1000
Y35.593Z-0.3
G0Z10
X-57Y-37.189
G1Z-0.3F500
Y-37.186Z-0.4
Y37.19F1000
Y37.193Z-0.3
G0Z10
X-56Y-38.593
G1Z-0.3F500
Y-38.59Z-0.4
Y38.59F1000
Y38.593Z-0.3
G0Z10
X-55Y-39.993
G1Z-0.3F500
Y-39.99Z-0.4
Y39.99F1000
Y39.993Z-0.3
G0Z10
X-54Y-41.389
G1Z-0.3F500
Y-41.386Z-0.4
Y41.39F1000
Y41.393Z-0.3
G0Z10
X-53Y-42.593
G1Z-0.3F500
Y-42.59Z-0.4
Y42.59F1000
Y42.593Z-0.3
G0Z10
X-52Y-43.793
G1Z-0.3F500
Y-43.79Z-0.4
Y43.79F1000
Y43.793Z-0.3
G0Z10
X-51Y-44.989
G1Z-0.3F500
Y-44.986Z-0.4
Y44.99F1000
Y44.993Z-0.3
G0Z10
X-50Y-45.993
G1Z-0.3F500
Y-45.99Z-0.4
Y45.99F1000
Y45.993Z-0.3
G0Z10
X-49Y-47.189
G1Z-0.3F500
Y-47.186Z-0.4
Y47.19F1000
Y47.193Z-0.3
G0Z10
X-48Y-48.189
G1Z-0.3F500
Y-48.186Z-0.4
Y48.19F1000
Y48.193Z-0.3
G0Z10
X-47Y-49.189
G1Z-0.3F500
Y-49.186Z-0.4
Y49.19F1000
Y49.193Z-0.3
G0Z10
X-46Y-49.993
G1Z-0.3F500
Y-49.99Z-0.4
Y49.99F1000
Y49.993Z-0.3
G0Z10
X-45Y-50.989
G1Z-0.3F500
Y-50.986Z-0.4
Y50.99F1000
Y50.993Z-0.3
G0Z10
X-44Y-51.793
G1Z-0.3F500
Y-51.79Z-0.4
Y51.79F1000
Y51.793Z-0.3
G0Z10
X-43Y-52.789
G1Z-0.3F500
Y-52.786Z-0.4
Y52.79F1000
Y52.793Z-0.3
G0Z10
X-42Y-53.393
G1Z-0.3F500
Y-53.39Z-0.4
Y53.39F1000
Y53.393Z-0.3
G0Z10
X-41Y-54.193
G1Z-0.3F500
Y-54.19Z-0.4
Y54.19F1000
Y54.193Z-0.3
G0Z10
X-40Y-54.993
G1Z-0.3F500
Y-54.99Z-0.4
Y54.99F1000
Y54.993Z-0.3
G0Z10
X-39Y-55.789
G1Z-0.3F500
Y-55.786Z-0.4
Y55.79F1000
Y55.793Z-0.3
G0Z10
X-38Y-56.393
G1Z-0.3F500
Y-56.39Z-0.4
Y56.39F1000
Y56.393Z-0.3
G0Z10
X-37Y-57.188
G1Z-0.3F500
Y-57.186Z-0.4
Y57.19F1000
Y57.193Z-0.3
G0Z10
X-36Y-57.788
G1Z-0.3F500
Y-57.786Z-0.4
Y57.79F1000
Y57.793Z-0.3
G0Z10
X-35Y-58.388
G1Z-0.3F500
Y-58.386Z-0.4
Y58.39F1000
Y58.393Z-0.3
G0Z10
X-34Y-58.988
G1Z-0.3F500
Y-58.986Z-0.4
Y58.99F1000
Y58.993Z-0.3
G0Z10
X-33Y-59.588
G1Z-0.3F500
Y-59.586Z-0.4
Y59.59F1000
Y59.593Z-0.3
G0Z10
X-32Y-60.188
G1Z-0.3F500
Y-60.186Z-0.4
Y60.19F1000
Y60.193Z-0.3
G0Z10
X-31Y-60.593
G1Z-0.3F500
Y-60.59Z-0.4
Y60.59F1000
Y60.593Z-0.3
G0Z10
X-30Y-61.188
G1Z-0.3F500
Y-61.186Z-0.4
Y61.19F1000
Y61.193Z-0.3
G0Z10
X-29Y-61.593
G1Z-0.3F500
Y-61.59Z-0.4
Y61.59F1000
Y61.593Z-0.3
G0Z10
X-28Y-62.188
G1Z-0.3F500
Y-62.186Z-0.4
Y62.19F1000
Y62.193Z-0.3
G0Z10
X-27Y-62.588
G1Z-0.3F500
Y-62.586Z-0.4
Y62.59F1000
Y62.593Z-0.3
G0Z10
X-26Y-62.993
G1Z-0.3F500
Y-62.99Z-0.4
Y62.99F1000
Y62.993Z-0.3
G0Z10
X-25Y-63.393
G1Z-0.3F500
Y-63.39Z-0.4
Y63.39F1000
Y63.393Z-0.3
G0Z10
X-24Y-63.793
G1Z-0.3F500
Y-63.79Z-0.4
Y63.79F1000
Y63.793Z-0.3
G0Z10
X-23Y-64.189
G1Z-0.3F500
Y-64.186Z-0.4
Y64.19F1000
Y64.193Z-0.3
G0Z10
X-22Y-64.589
G1Z-0.3F500
Y-64.586Z-0.4
Y64.59F1000
Y64.593Z-0.3
G0Z10
X-21Y-64.793
G1Z-0.3F500
Y-64.79Z-0.4
Y64.79F1000
Y64.793Z-0.3
G0Z10
X-20Y-65.193
G1Z-0.3F500
Y-65.19Z-0.4
Y65.19F1000
Y65.193Z-0.3
G0Z10
X-19Y-65.589
G1Z-0.3F500
Y-65.586Z-0.4
Y65.59F1000
Y65.593Z-0.3
G0Z10
X-18Y-65.793
G1Z-0.3F500
Y-65.79Z-0.4
Y65.79F1000
Y65.793Z-0.3
G0Z10
X-17Y-66.189
G1Z-0.3F500
Y-66.186Z-0.4
Y66.19F1000
Y66.193Z-0.3
G0Z10
X-16Y-66.389
G1Z-0.3F500
Y-66.386Z-0.4
Y66.39F1000
Y66.393Z-0.3
G0Z10
X-15Y-66.593
G1Z-0.3F500
Y-66.59Z-0.4
Y66.59F1000
Y66.593Z-0.3
G0Z10
X-14Y-66.793
G1Z-0.3F500
Y-66.79Z-0.4
Y66.79F1000
Y66.793Z-0.3
G0Z10
X-13Y-66.993
G1Z-0.3F500
Y-66.99Z-0.4
Y66.99F1000
Y66.993Z-0.3
G0Z10
X-12Y-67.193
G1Z-0.3F500
Y-67.19Z-0.4
Y67.19F1000
Y67.193Z-0.3
G0Z10
X-11Y-67.393
G1Z-0.3F500
Y-67.39Z-0.4
Y67.39F1000
Y67.393Z-0.3
G0Z10
X-10Y-67.593
G1Z-0.3F500
Y-67.59Z-0.4
Y67.59F1000
Y67.593Z-0.3
G0Z10
X-9Y-67.793
G1Z-0.3F500
Y-67.79Z-0.4
Y67.79F1000
Y67.793Z-0.3
G0Z10
X-8Y-67.989
G1Z-0.3F500
Y-67.986Z-0.4
Y67.99F1000
Y67.993Z-0.3
G0Z10
X-7Y-67.993
G1Z-0.3F500
Y-67.99Z-0.4
Y67.99F1000
Y67.993Z-0.3
G0Z10
X-6Y-68.189
G1Z-0.3F500
Y-68.186Z-0.4
Y68.19F1000
Y68.193Z-0.3
G0Z10
X-5Y-68.193
G1Z-0.3F500
Y-68.19Z-0.4
Y68.19F1000
Y68.193Z-0.3
G0Z10
X-4Y-68.389
G1Z-0.3F500
Y-68.386Z-0.4
Y68.39F1000
Y68.393Z-0.3
G0Z10
X-3Y-68.393
G1Z-0.3F500
Y-68.39Z-0.4
Y68.39F1000
Y68.393Z-0.3
G0Z10
X-2Y-68.589
G1Z-0.3F500
Y-68.586Z-0.4
Y68.59F1000
Y68.593Z-0.3
G0Z10
X-1Y-68.589
G1Z-0.3F500
Y-68.586Z-0.4
Y68.59F1000
Y68.593Z-0.3
G0Z10
X0Y-68.589
G1Z-0.3F500
Y-68.586Z-0.4
Y68.59F1000
Y68.593Z-0.3
G0Z10
X1Y-68.589
G1Z-0.3F500
Y-68.586Z-0.4
Y68.59F1000
Y68.593Z-0.3
G0Z10
X2Y-68.589
G1Z-0.3F500
Y-68.586Z-0.4
Y68.59F1000
Y68.593Z-0.3
G0Z10
X3Y-68.393
G1Z-0.3F500
Y-68.39Z-0.4
Y68.39F1000
Y68.393Z-0.3
G0Z10
X4Y-68.389
G1Z-0.3F500
Y-68.386Z-0.4
Y68.39F1000
Y68.393Z-0.3
G0Z10
X5Y-68.193
G1Z-0.3F500
Y-68.19Z-0.4
Y68.19F1000
Y68.193Z-0.3
G0Z10
X6Y-68.189
G1Z-0.3F500
Y-68.186Z-0.4
Y68.19F1000
Y68.193Z-0.3
G0Z10
X7Y-67.993
G1Z-0.3F500
Y-67.99Z-0.4
Y67.99F1000
Y67.993Z-0.3
G0Z10
X8Y-67.989
G1Z-0.3F500
Y-67.986Z-0.4
Y67.99F1000
Y67.993Z-0.3
G0Z10
X9Y-67.793
G1Z-0.3F500
Y-67.79Z-0.4
Y67.79F1000
Y67.793Z-0.3
G0Z10
X10Y-67.593
G1Z-0.3F500
Y-67.59Z-0.4
Y67.59F1000
Y67.593Z-0.3
G0Z10
X11Y-67.393
G1Z-0.3F500
Y-67.39Z-0.4
Y67.39F1000
Y67.393Z-0.3
G0Z10
X12Y-67.193
G1Z-0.3F500
Y-67.19Z-0.4
Y67.19F1000
Y67.193Z-0.3
G0Z10
X13Y-66.993
G1Z-0.3F500
Y-66.99Z-0.4
Y66.99F1000
Y66.993Z-0.3
G0Z10
X14Y-66.793
G1Z-0.3F500
Y-66.79Z-0.4
Y66.79F1000
Y66.793Z-0.3
G0Z10
X15Y-66.593
G1Z-0.3F500
Y-66.59Z-0.4
Y66.59F1000
Y66.593Z-0.3
G0Z10
X16Y-66.389
G1Z-0.3F500
Y-66.386Z-0.4
Y66.39F1000
Y66.393Z-0.3
G0Z10
X17Y-66.189
G1Z-0.3F500
Y-66.186Z-0.4
Y66.19F1000
Y66.193Z-0.3
G0Z10
X18Y-65.793
G1Z-0.3F500
Y-65.79Z-0.4
Y65.79F1000
Y65.793Z-0.3
G0Z10
X19Y-65.589
G1Z-0.3F500
Y-65.586Z-0.4
Y65.59F1000
Y65.593Z-0.3
G0Z10
X20Y-65.193
G1Z-0.3F500
Y-65.19Z-0.4
Y65.19F1000
Y65.193Z-0.3
G0Z10
X21Y-64.793
G1Z-0.3F500
Y-64.79Z-0.4
Y64.79F1000
Y64.793Z-0.3
G0Z10
X22Y-64.589
G1Z-0.3F500
Y-64.586Z-0.4
Y64.59F1000
Y64.593Z-0.3
G0Z10
X23Y-64.189
G1Z-0.3F500
Y-64.186Z-0.4
Y64.19F1000
Y64.193Z-0.3
G0Z10
X24Y-63.793
G1Z-0.3F500
Y-63.79Z-0.4
Y63.79F1000
Y63.793Z-0.3
G0Z10
X25Y-63.393
G1Z-0.3F500
Y-63.39Z-0.4
Y63.39F1000
Y63.393Z-0.3
G0Z10
X26Y-62.993
G1Z-0.3F500
Y-62.99Z-0.4
Y62.99F1000
Y62.993Z-0.3
G0Z10
X27Y-62.588
G1Z-0.3F500
Y-62.586Z-0.4
Y62.59F1000
Y62.593Z-0.3
G0Z10
X28Y-62.188
G1Z-0.3F500
Y-62.186Z-0.4
Y62.19F1000
Y62.193Z-0.3
G0Z10
X29Y-61.593
G1Z-0.3F500
Y-61.59Z-0.4
Y61.59F1000
Y61.593Z-0.3
G0Z10
X30Y-61.188
G1Z-0.3F500
Y-61.186Z-0.4
Y61.19F1000
Y61.193Z-0.3
G0Z10
X31Y-60.593
G1Z-0.3F500
Y-60.59Z-0.4
Y60.59F1000
Y60.593Z-0.3
G0Z10
X32Y-60.188
G1Z-0.3F500
Y-60.186Z-0.4
Y60.19F1000
Y60.193Z-0.3
G0Z10
X33Y-59.588
G1Z-0.3F500
Y-59.586Z-0.4
Y59.59F1000
Y59.593Z-0.3
G0Z10
X34Y-58.988
G1Z-0.3F500
Y-58.986Z-0.4
Y58.99F1000
Y58.993Z-0.3
G0Z10
X35Y-58.388
G1Z-0.3F500
Y-58.386Z-0.4
Y58.39F1000
Y58.393Z-0.3
G0Z10
X36Y-57.788
G1Z-0.3F500
Y-57.786Z-0.4
Y57.79F1000
Y57.793Z-0.3
G0Z10
X37Y-57.188
G1Z-0.3F500
Y-57.186Z-0.4
Y57.19F1000
Y57.193Z-0.3
G0Z10
X38Y-56.393
G1Z-0.3F500
Y-56.39Z-0.4
Y56.39F1000
Y56.393Z-0.3
G0Z10
X39Y-55.789
G1Z-0.3F500
Y-55.786Z-0.4
Y55.79F1000
Y55.793Z-0.3
G0Z10
X40Y-54.993
G1Z-0.3F500
Y-54.99Z-0.4
Y54.99F1000
Y54.993Z-0.3
G0Z10
X41Y-54.193
G1Z-0.3F500
Y-54.19Z-0.4
Y54.19F1000
Y54.193Z-0.3
G0Z10
X42Y-53.393
G1Z-0.3F500
Y-53.39Z-0.4
Y53.39F1000
Y53.393Z-0.3
G0Z10
X43Y-52.789
G1Z-0.3F500
Y-52.786Z-0.4
Y52.79F1000
Y52.793Z-0.3
G0Z10
X44Y-51.793
G1Z-0.3F500
Y-51.79Z-0.4
Y51.79F1000
Y51.793Z-0.3
G0Z10
X45Y-50.989
G1Z-0.3F500
Y-50.986Z-0.4
Y50.99F1000
Y50.993Z-0.3
G0Z10
X46Y-49.993
G1Z-0.3F500
Y-49.99Z-0.4
Y49.99F1000
Y49.993Z-0.3
G0Z10
X47Y-49.189
G1Z-0.3F500
Y-49.186Z-0.4
Y49.19F1000
Y49.193Z-0.3
G0Z10
X48Y-48.189
G1Z-0.3F500
Y-48.186Z-0.4
Y48.19F1000
Y48.193Z-0.3
G0Z10
X49Y-47.189
G1Z-0.3F500
Y-47.186Z-0.4
Y47.19F1000
Y47.193Z-0.3
G0Z10
X50Y-45.993
G1Z-0.3F500
Y-45.99Z-0.4
Y45.99F1000
Y45.993Z-0.3
G0Z10
X51Y-44.989
G1Z-0.3F500
Y-44.986Z-0.4
Y44.99F1000
Y44.993Z-0.3
G0Z10
X52Y-43.793
G1Z-0.3F500
Y-43.79Z-0.4
Y43.79F1000
Y43.793Z-0.3
G0Z10
X53Y-42.593
G1Z-0.3F500
Y-42.59Z-0.4
Y42.59F1000
Y42.593Z-0.3
G0Z10
X54Y-41.389
G1Z-0.3F500
Y-41.386Z-0.4
Y41.39F1000
Y41.393Z-0.3
G0Z10
X55Y-39.993
G1Z-0.3F500
Y-39.99Z-0.4
Y39.99F1000
Y39.993Z-0.3
G0Z10
X56Y-38.593
G1Z-0.3F500
Y-38.59Z-0.4
Y38.59F1000
Y38.593Z-0.3
G0Z10
X57Y-37.189
G1Z-0.3F500
Y-37.186Z-0.4
Y37.19F1000
Y37.193Z-0.3
G0Z10
X58Y-35.589
G1Z-0.3F500
Y-35.586Z-0.4
Y35.59F1000
Y35.593Z-0.3
G0Z10
X59Y-33.989
G1Z-0.3F500
Y-33.986Z-0.4
Y33.99F1000
Y33.993Z-0.3
G0Z10
X60Y-32.189
G1Z-0.3F500
Y-32.186Z-0.4
Y32.19F1000
Y32.193Z-0.3
G0Z10
X61Y-30.193
G1Z-0.3F500
Y-30.19Z-0.4
Y30.19F1000
Y30.193Z-0.3
G0Z10
X62Y-28.193
G1Z-0.3F500
Y-28.19Z-0.4
Y28.19F1000
Y28.193Z-0.3
G0Z10
X63Y-25.993
G1Z-0.3F500
Y-25.99Z-0.4
Y25.99F1000
Y25.993Z-0.3
G0Z10
X64Y-23.393
G1Z-0.3F500
Y-23.39Z-0.4
Y23.39F1000
Y23.393Z-0.3
G0Z10
X65Y-20.593
G1Z-0.3F500
Y-20.59Z-0.4
Y20.59F1000
Y20.593Z-0.3
G0Z10
X66Y-17.393
G1Z-0.3F500
Y-17.39Z-0.4
Y17.39F1000
Y17.393Z-0.3
G0Z10
X67Y-13.389
G1Z-0.3F500
Y-13.386Z-0.4
Y13.39F1000
Y13.393Z-0.3
G0Z10
X68Y-7.589
G1Z-0.3F500
Y-7.586Z-0.4
Y7.59F1000
Y7.593Z-0.3
G0Z10
X-68Y-7.586
G1Z-0.4F500
Y-7.583Z-0.5
Y7.587F1000
Y7.59Z-0.4
G0Z10
X-67Y-13.386
G1Z-0.4F500
Y-13.383Z-0.5
Y13.387F1000
Y13.39Z-0.4
G0Z10
X-66Y-17.39
G1Z-0.4F500
Y-17.387Z-0.5
Y17.387F1000
Y17.39Z-0.4
G0Z10
X-65Y-20.59
G1Z-0.4F500
Y-20.587Z-0.5
Y20.587F1000
Y20.59Z-0.4
G0Z10
X-64Y-23.39
G1Z-0.4F500
Y-23.387Z-0.5
Y23.387F1000
Y23.39Z-0.4
G0Z10
X-63Y-25.99
G1Z-0.4F500
Y-25.987Z-0.5
Y25.987F1000
Y25.99Z-0.4
G0Z10
X-62Y-28.19
G1Z-0.4F500
Y-28.187Z-0.5
Y28.187F1000
Y28.19Z-0.4
G0Z10
X-61Y-30.19
G1Z-0.4F500
Y-30.187Z-0.5
Y30.187F1000
Y30.19Z-0.4
G0Z10
X-60Y-32.186
G1Z-0.4F500
Y-32.183Z-0.5
Y32.187F1000
Y32.19Z-0.4
G0Z10
X-59Y-33.986
G1Z-0.4F500
Y-33.983Z-0.5
Y33.987F1000
Y33.99Z-0.4
G0Z10
X-58Y-35.586
G1Z-0.4F500
Y-35.583Z-0.5
Y35.587F1000
Y35.59Z-0.4
G0Z10
X-57Y-37.186
G1Z-0.4F500
Y-37.183Z-0.5
Y37.187F1000
Y37.19Z-0.4
G0Z10
X-56Y-38.59
G1Z-0.4F500
Y-38.587Z-0.5
Y38.587F1000
Y38.59Z-0.4
G0Z10
X-55Y-39.99
G1Z-0.4F500
Y-39.987Z-0.5
Y39.987F1000
Y39.99Z-0.4
G0Z10
X-54Y-41.386
G1Z-0.4F500
Y-41.383Z-0.5
Y41.387F1000
Y41.39Z-0.4
G0Z10
X-53Y-42.59
G1Z-0.4F500
Y-42.587Z-0.5
Y42.587F1000
Y42.59Z-0.4
G0Z10
X-52Y-43.79
G1Z-0.4F500
Y-43.787Z-0.5
Y43.787F1000
Y43.79Z-0.4
G0Z10
X-51Y-44.986
G1Z-0.4F500
Y-44.983Z-0.5
Y44.987F1000
Y44.99Z-0.4
G0Z10
X-50Y-45.99
G1Z-0.4F500
Y-45.987Z-0.5
Y45.987F1000
Y45.99Z-0.4
G0Z10
X-49Y-47.186
G1Z-0.4F500
Y-47.183Z-0.5
Y47.187F1000
Y47.19Z-0.4
G0Z10
X-48Y-48.186
G1Z-0.4F500
Y-48.183Z-0.5
Y48.187F1000
Y48.19Z-0.4
G0Z10
X-47Y-49.186
G1Z-0.4F500
Y-49.183Z-0.5
Y49.187F1000
Y49.19Z-0.4
G0Z10
X-46Y-49.99
G1Z-0.4F500
Y-49.987Z-0.5
Y49.987F1000
Y49.99Z-0.4
G0Z10
X-45Y-50.986
G1Z-0.4F500
Y-50.983Z-0.5
Y50.987F1000
Y50.99Z-0.4
G0Z10
X-44Y-51.79
G1Z-0.4F500
Y-51.787Z-0.5
Y51.787F1000
Y51.79Z-0.4
G0Z10
X-43Y-52.786
G1Z-0.4F500
Y-52.783Z-0.5
Y52.787F1000
Y52.79Z-0.4
G0Z10
X-42Y-53.39
G1Z-0.4F500
Y-53.387Z-0.5
Y53.387F1000
Y53.39Z-0.4
G0Z10
X-41Y-54.19
G1Z-0.4F500
Y-54.187Z-0.5
Y54.187F1000
Y54.19Z-0.4
G0Z10
X-40Y-54.99
G1Z-0.4F500
Y-54.987Z-0.5
Y54.987F1000
Y54.99Z-0.4
G0Z10
X-39Y-55.786
G1Z-0.4F500
Y-55.783Z-0.5
Y55.787F1000
Y55.79Z-0.4
G0Z10
X-38Y-56.39
G1Z-0.4F500
Y-56.387Z-0.5
Y56.387F1000
Y56.39Z-0.4
G0Z10
X-37Y-57.186
G1Z-0.4F500
Y-57.183Z-0.5
Y57.187F1000
Y57.19Z-0.4
G0Z10
X-36Y-57.786
G1Z-0.4F500
Y-57.783Z-0.5
Y57.787F1000
Y57.79Z-0.4
G0Z10
X-35Y-58.386
G1Z-0.4F500
Y-58.383Z-0.5
Y58.387F1000
Y58.39Z-0.4
G0Z10
X-34Y-58.986
G1Z-0.4F500
Y-58.983Z-0.5
Y58.987F1000
Y58.99Z-0.4
G0Z10
X-33Y-59.586
G1Z-0.4F500
Y-59.583Z-0.5
Y59.587F1000
Y59.59Z-0.4
G0Z10
X-32Y-60.186
G1Z-0.4F500
Y-60.183Z-0.5
Y60.187F1000
Y60.19Z-0.4
G0Z10
X-31Y-60.59
G1Z-0.4F500
Y-60.587Z-0.5
Y60.587F1000
Y60.59Z-0.4
G0Z10
X-30Y-61.186
G1Z-0.4F500
Y-61.183Z-0.5
Y61.187F1000
Y61.19Z-0.4
G0Z10
X-29Y-61.59
G1Z-0.4F500
Y-61.587Z-0.5
Y61.587F1000
Y61.59Z-0.4
G0Z10
X-28Y-62.186
G1Z-0.4F500
Y-62.183Z-0.5
Y62.187F1000
Y62.19Z-0.4
G0Z10
X-27Y-62.586
G1Z-0.4F500
Y-62.583Z-0.5
Y62.587F1000
Y62.59Z-0.4
G0Z10
X-26Y-62.99
G1Z-0.4F500
Y-62.987Z-0.5
Y62.987F1000
Y62.99Z-0.4
G0Z10
X-25Y-63.39
G1Z-0.4F500
Y-63.387Z-0.5
Y63.387F1000
Y63.39Z-0.4
G0Z10
X-24Y-63.79
G1Z-0.4F500
Y-63.787Z-0.5
Y63.787F1000
Y63.79Z-0.4
G0Z10
X-23Y-64.186
G1Z-0.4F500
Y-64.183Z-0.5
Y64.187F1000
Y64.19Z-0.4
G0Z10
X-22Y-64.586
G1Z-0.4F500
Y-64.583Z-0.5
Y64.587F1000
Y64.59Z-0.4
G0Z10
X-21Y-64.79
G1Z-0.4F500
Y-64.787Z-0.5
Y64.787F1000
Y64.79Z-0.4
G0Z10
X-20Y-65.19
G1Z-0.4F500
Y-65.187Z-0.5
Y65.187F1000
Y65.19Z-0.4
G0Z10
X-19Y-65.586
G1Z-0.4F500
Y-65.583Z-0.5
Y65.587F1000
Y65.59Z-0.4
G0Z10
X-18Y-65.79
G1Z-0.4F500
Y-65.787Z-0.5
Y65.787F1000
Y65.79Z-0.4
G0Z10
X-17Y-66.186
G1Z-0.4F500
Y-66.183Z-0.5
Y66.187F1000
Y66.19Z-0.4
G0Z10
X-16Y-66.386
G1Z-0.4F500
Y-66.383Z-0.5
Y66.387F1000
Y66.39Z-0.4
G0Z10
X-15Y-66.59
G1Z-0.4F500
Y-66.587Z-0.5
Y66.587F1000
Y66.59Z-0.4
G0Z10
X-14Y-66.79
G1Z-0.4F500
Y-66.787Z-0.5
Y66.787F1000
Y66.79Z-0.4
G0Z10
X-13Y-66.99
G1Z-0.4F500
Y-66.987Z-0.5
Y66.987F1000
Y66.99Z-0.4
G0Z10
X-12Y-67.19
G1Z-0.4F500
Y-67.187Z-0.5
Y67.187F1000
Y67.19Z-0.4
G0Z10
X-11Y-67.39
G1Z-0.4F500
Y-67.387Z-0.5
Y67.387F1000
Y67.39Z-0.4
G0Z10
X-10Y-67.59
G1Z-0.4F500
Y-67.587Z-0.5
Y67.587F1000
Y67.59Z-0.4
G0Z10
X-9Y-67.79
G1Z-0.4F500
Y-67.787Z-0.5
Y67.787F1000
Y67.79Z-0.4
G0Z10
X-8Y-67.986
G1Z-0.4F500
Y-67.983Z-0.5
Y67.987F1000
Y67.99Z-0.4
G0Z10
X-7Y-67.99
G1Z-0.4F500
Y-67.987Z-0.5
Y67.987F1000
Y67.99Z-0.4
G0Z10
X-6Y-68.186
G1Z-0.4F500
Y-68.183Z-0.5
Y68.187F1000
Y68.19Z-0.4
G0Z10
X-5Y-68.19
G1Z-0.4F500
Y-68.187Z-0.5
Y68.187F1000
Y68.19Z-0.4
G0Z10
X-4Y-68.386
G1Z-0.4F500
Y-68.383Z-0.5
Y68.387F1000
Y68.39Z-0.4
G0Z10
X-3Y-68.39
G1Z-0.4F500
Y-68.387Z-0.5
Y68.387F1000
Y68.39Z-0.4
G0Z10
X-2Y-68.586
G1Z-0.4F500
Y-68.583Z-0.5
Y68.587F1000
Y68.59Z-0.4
G0Z10
X-1Y-68.586
G1Z-0.4F500
Y-68.583Z-0.5
Y68.587F1000
Y68.59Z-0.4
G0Z10
X0Y-68.586
G1Z-0.4F500
Y-68.583Z-0.5
Y68.587F1000
Y68.59Z-0.4
G0Z10
X1Y-68.586
G1Z-0.4F500
Y-68.583Z-0.5
Y68.587F1000
Y68.59Z-0.4
G0Z10
X2Y-68.586
G1Z-0.4F500
Y-68.583Z-0.5
Y68.587F1000
Y68.59Z-0.4
G0Z10
X3Y-68.39
G1Z-0.4F500
Y-68.387Z-0.5
Y68.387F1000
Y68.39Z-0.4
G0Z10
X4Y-68.386
G1Z-0.4F500
Y-68.383Z-0.5
Y68.387F1000
Y68.39Z-0.4
G0Z10
X5Y-68.19
G1Z-0.4F500
Y-68.187Z-0.5
Y68.187F1000
Y68.19Z-0.4
G0Z10
X6Y-68.186
G1Z-0.4F500
Y-68.183Z-0.5
Y68.187F1000
Y68.19Z-0.4
G0Z10
X7Y-67.99
G1Z-0.4F500
Y-67.987Z-0.5
Y67.987F1000
Y67.99Z-0.4
G0Z10
X8Y-67.986
G1Z-0.4F500
Y-67.983Z-0.5
Y67.987F1000
Y67.99Z-0.4
G0Z10
X9Y-67.79
G1Z-0.4F500
Y-67.787Z-0.5
Y67.787F1000
Y67.79Z-0.4
G0Z10
X10Y-67.59
G1Z-0.4F500
Y-67.587Z-0.5
Y67.587F1000
Y67.59Z-0.4
G0Z10
X11Y-67.39
G1Z-0.4F500
Y-67.387Z-0.5
Y67.387F1000
Y67.39Z-0.4
G0Z10
X12Y-67.19
G1Z-0.4F500
Y-67.187Z-0.5
Y67.187F1000
Y67.19Z-0.4
G0Z10
X13Y-66.99
G1Z-0.4F500
Y-66.987Z-0.5
Y66.987F1000
Y66.99Z-0.4
G0Z10
X14Y-66.79
G1Z-0.4F500
Y-66.787Z-0.5
Y66.787F1000
Y66.79Z-0.4
G0Z10
X15Y-66.59
G1Z-0.4F500
Y-66.587Z-0.5
Y66.587F1000
Y66.59Z-0.4
G0Z10
X16Y-66.386
G1Z-0.4F500
Y-66.383Z-0.5
Y66.387F1000
Y66.39Z-0.4
G0Z10
X17Y-66.186
G1Z-0.4F500
Y-66.183Z-0.5
Y66.187F1000
Y66.19Z-0.4
G0Z10
X18Y-65.79
G1Z-0.4F500
Y-65.787Z-0.5
Y65.787F1000
Y65.79Z-0.4
G0Z10
X19Y-65.586
G1Z-0.4F500
Y-65.583Z-0.5
Y65.587F1000
Y65.59Z-0.4
G0Z10
X20Y-65.19
G1Z-0.4F500
Y-65.187Z-0.5
Y65.187F1000
Y65.19Z-0.4
G0Z10
X21Y-64.79
G1Z-0.4F500
Y-64.787Z-0.5
Y64.787F1000
Y64.79Z-0.4
G0Z10
X22Y-64.586
G1Z-0.4F500
Y-64.583Z-0.5
Y64.587F1000
Y64.59Z-0.4
G0Z10
X23Y-64.186
G1Z-0.4F500
Y-64.183Z-0.5
Y64.187F1000
Y64.19Z-0.4
G0Z10
X24Y-63.79
G1Z-0.4F500
Y-63.787Z-0.5
Y63.787F1000
Y63.79Z-0.4
G0Z10
X25Y-63.39
G1Z-0.4F500
Y-63.387Z-0.5
Y63.387F1000
Y63.39Z-0.4
G0Z10
X26Y-62.99
G1Z-0.4F500
Y-62.987Z-0.5
Y62.987F1000
Y62.99Z-0.4
G0Z10
X27Y-62.586
G1Z-0.4F500
Y-62.583Z-0.5
Y62.587F1000
Y62.59Z-0.4
G0Z10
X28Y-62.186
G1Z-0.4F500
Y-62.183Z-0.5
Y62.187F1000
Y62.19Z-0.4
G0Z10
X29Y-61.59
G1Z-0.4F500
Y-61.587Z-0.5
Y61.587F1000
Y61.59Z-0.4
G0Z10
X30Y-61.186
G1Z-0.4F500
Y-61.183Z-0.5
Y61.187F1000
Y61.19Z-0.4
G0Z10
X31Y-60.59
G1Z-0.4F500
Y-60.587Z-0.5
Y60.587F1000
Y60.59Z-0.4
G0Z10
X32Y-60.186
G1Z-0.4F500
Y-60.183Z-0.5
Y60.187F1000
Y60.19Z-0.4
G0Z10
X33Y-59.586
G1Z-0.4F500
Y-59.583Z-0.5
Y59.587F1000
Y59.59Z-0.4
G0Z10
X34Y-58.986
G1Z-0.4F500
Y-58.983Z-0.5
Y58.987F1000
Y58.99Z-0.4
G0Z10
X35Y-58.386
G1Z-0.4F500
Y-58.383Z-0.5
Y58.387F1000
Y58.39Z-0.4
G0Z10
X36Y-57.786
G1Z-0.4F500
Y-57.783Z-0.5
Y57.787F1000
Y57.79Z-0.4
G0Z10
X37Y-57.186
G1Z-0.4F500
Y-57.183Z-0.5
Y57.187F1000
Y57.19Z-0.4
G0Z10
X38Y-56.39
G1Z-0.4F500
Y-56.387Z-0.5
Y56.387F1000
Y56.39Z-0.4
G0Z10
X39Y-55.786
G1Z-0.4F500
Y-55.783Z-0.5
Y55.787F1000
Y55.79Z-0.4
G0Z10
X40Y-54.99
G1Z-0.4F500
Y-54.987Z-0.5
Y54.987F1000
Y54.99Z-0.4
G0Z10
X41Y-54.19
G1Z-0.4F500
Y-54.187Z-0.5
Y54.187F1000
Y54.19Z-0.4
G0Z10
X42Y-53.39
G1Z-0.4F500
Y-53.387Z-0.5
Y53.387F1000
Y53.39Z-0.4
G0Z10
X43Y-52.786
G1Z-0.4F500
Y-52.783Z-0.5
Y52.787F1000
Y52.79Z-0.4
G0Z10
X44Y-51.79
G1Z-0.4F500
Y-51.787Z-0.5
Y51.787F1000
Y51.79Z-0.4
G0Z10
X45Y-50.986
G1Z-0.4F500
Y-50.983Z-0.5
Y50.987F1000
Y50.99Z-0.4
G0Z10
X46Y-49.99
G1Z-0.4F500
Y-49.987Z-0.5
Y49.987F1000
Y49.99Z-0.4
G0Z10
X47Y-49.186
G1Z-0.4F500
Y-49.183Z-0.5
Y49.187F1000
Y49.19Z-0.4
G0Z10
X48Y-48.186
G1Z-0.4F500
Y-48.183Z-0.5
Y48.187F1000
Y48.19Z-0.4
G0Z10
X49Y-47.186
G1Z-0.4F500
Y-47.183Z-0.5
Y47.187F1000
Y47.19Z-0.4
G0Z10
X50Y-45.99
G1Z-0.4F500
Y-45.987Z-0.5
Y45.987F1000
Y45.99Z-0.4
G0Z10
X51Y-44.986
G1Z-0.4F500
Y-44.983Z-0.5
Y44.987F1000
Y44.99Z-0.4
G0Z10
X52Y-43.79
G1Z-0.4F500
Y-43.787Z-0.5
Y43.787F1000
Y43.79Z-0.4
G0Z10
X53Y-42.59
G1Z-0.4F500
Y-42.587Z-0.5
Y42.587F1000
Y42.59Z-0.4
G0Z10
X54Y-41.386
G1Z-0.4F500
Y-41.383Z-0.5
Y41.387F1000
Y41.39Z-0.4
G0Z10
X55Y-39.99
G1Z-0.4F500
Y-39.987Z-0.5
Y39.987F1000
Y39.99Z-0.4
G0Z10
X56Y-38.59
G1Z-0.4F500
Y-38.587Z-0.5
Y38.587F1000
Y38.59Z-0.4
G0Z10
X57Y-37.186
G1Z-0.4F500
Y-37.183Z-0.5
Y37.187F1000
Y37.19Z-0.4
G0Z10
X58Y-35.586
G1Z-0.4F500
Y-35.583Z-0.5
Y35.587F1000
Y35.59Z-0.4
G0Z10
X59Y-33.986
G1Z-0.4F500
Y-33.983Z-0.5
Y33.987F1000
Y33.99Z-0.4
G0Z10
X60Y-32.186
G1Z-0.4F500
Y-32.183Z-0.5
Y32.187F1000
Y32.19Z-0.4
G0Z10
X61Y-30.19
G1Z-0.4F500
Y-30.187Z-0.5
Y30.187F1000
Y30.19Z-0.4
G0Z10
X62Y-28.19
G1Z-0.4F500
Y-28.187Z-0.5
Y28.187F1000
Y28.19Z-0.4
G0Z10
X63Y-25.99
G1Z-0.4F500
Y-25.987Z-0.5
Y25.987F1000
Y25.99Z-0.4
G0Z10
X64Y-23.39
G1Z-0.4F500
Y-23.387Z-0.5
Y23.387F1000
Y23.39Z-0.4
G0Z10
X65Y-20.59
G1Z-0.4F500
Y-20.587Z-0.5
Y20.587F1000
Y20.59Z-0.4
G0Z10
X66Y-17.39
G1Z-0.4F500
Y-17.387Z-0.5
Y17.387F1000
Y17.39Z-0.4
G0Z10
X67Y-13.386
G1Z-0.4F500
Y-13.383Z-0.5
Y13.387F1000
Y13.39Z-0.4
G0Z10
X68Y-7.586
G1Z-0.4F500
Y-7.583Z-0.5
Y7.587F1000
Y7.59Z-0.4
G0Z10
X-68Y-7.583
G1Z-0.5F500
Y-7.58Z-0.6
Y7.584F1000
Y7.587Z-0.5
G0Z10
X-67Y-13.383
G1Z-0.5F500
Y-13.38Z-0.6
Y13.384F1000
Y13.387Z-0.5
G0Z10
X-66Y-17.387
G1Z-0.5F500
Y-17.384Z-0.6
Y17.384F1000
Y17.387Z-0.5
G0Z10
X-65Y-20.587
G1Z-0.5F500
Y-20.584Z-0.6
Y20.584F1000
Y20.587Z-0.5
G0Z10
X-64Y-23.387
G1Z-0.5F500
Y-23.384Z-0.6
Y23.384F1000
Y23.387Z-0.5
G0Z10
X-63Y-25.987
G1Z-0.5F500
Y-25.984Z-0.6
Y25.984F1000
Y25.987Z-0.5
G0Z10
X-62Y-28.187
G1Z-0.5F500
Y-28.184Z-0.6
Y28.184F1000
Y28.187Z-0.5
G0Z10
X-61Y-30.187
G1Z-0.5F500
Y-30.184Z-0.6
Y30.184F1000
Y30.187Z-0.5
G0Z10
X-60Y-32.183
G1Z-0.5F500
Y-32.18Z-0.6
Y32.184F1000
Y32.187Z-0.5
G0Z10
X-59Y-33.983
G1Z-0.5F500
Y-33.98Z-0.6
Y33.984F1000
Y33.987Z-0.5
G0Z10
X-58Y-35.583
G1Z-0.5F500
Y-35.58Z-0.6
Y35.584F1000
Y35.587Z-0.5
G0Z10
X-57Y-37.183
G1Z-0.5F500
Y-37.18Z-0.6
Y37.184F1000
Y37.187Z-0.5
G0Z10
X-56Y-38.587
G1Z-0.5F500
Y-38.584Z-0.6
Y38.584F1000
Y38.587Z-0.5
G0Z10
X-55Y-39.987
G1Z-0.5F500
Y-39.984Z-0.6
Y39.984F1000
Y39.987Z-0.5
G0Z10
X-54Y-41.383
G1Z-0.5F500
Y-41.38Z-0.6
Y41.384F1000
Y41.387Z-0.5
G0Z10
X-53Y-42.587
G1Z-0.5F500
Y-42.584Z-0.6
Y42.584F1000
Y42.587Z-0.5
G0Z10
X-52Y-43.787
G1Z-0.5F500
Y-43.784Z-0.6
Y43.784F1000
Y43.787Z-0.5
G0Z10
X-51Y-44.983
G1Z-0.5F500
Y-44.98Z-0.6
Y44.984F1000
Y44.987Z-0.5
G0Z10
X-50Y-45.987
G1Z-0.5F500
Y-45.984Z-0.6
Y45.984F1000
Y45.987Z-0.5
G0Z10
X-49Y-47.183
G1Z-0.5F500
Y-47.18Z-0.6
Y47.184F1000
Y47.187Z-0.5
G0Z10
X-48Y-48.183
G1Z-0.5F500
Y-48.18Z-0.6
Y48.184F1000
Y48.187Z-0.5
G0Z10
X-47Y-49.183
G1Z-0.5F500
Y-49.18Z-0.6
Y49.184F1000
Y49.187Z-0.5
G0Z10
X-46Y-49.987
G1Z-0.5F500
Y-49.984Z-0.6
Y49.984F1000
Y49.987Z-0.5
G0Z10
X-45Y-50.983
G1Z-0.5F500
Y-50.98Z-0.6
Y50.984F1000
Y50.987Z-0.5
G0Z10
X-44Y-51.787
G1Z-0.5F500
Y-51.784Z-0.6
Y51.784F1000
Y51.787Z-0.5
G0Z10
X-43Y-52.783
G1Z-0.5F500
Y-52.78Z-0.6
Y52.784F1000
Y52.787Z-0.5
G0Z10
X-42Y-53.387
G1Z-0.5F500
Y-53.384Z-0.6
Y53.384F1000
Y53.387Z-0.5
G0Z10
X-41Y-54.187
G1Z-0.5F500
Y-54.184Z-0.6
Y54.184F1000
Y54.187Z-0.5
G0Z10
X-40Y-54.987
G1Z-0.5F500
Y-54.984Z-0.6
Y54.984Z-0.599F1000
Y54.987Z-0.5
G0Z10
X-39Y-55.783
G1Z-0.5F500
Y-55.78Z-0.6
Y55.784F1000
Y55.787Z-0.5
G0Z10
X-38Y-56.387
G1Z-0.5F500
Y-56.384Z-0.6
Y56.384F1000
Y56.387Z-0.5
G0Z10
X-37Y-57.183
G1Z-0.5F500
Y-57.18Z-0.6
Y57.184F1000
Y57.187Z-0.5
G0Z10
X-36Y-57.783
G1Z-0.5F500
Y-57.78Z-0.6
Y57.784F1000
Y57.787Z-0.5
G0Z10
X-35Y-58.383
G1Z-0.5F500
Y-58.38Z-0.6
Y58.384F1000
Y58.387Z-0.5
G0Z10
X-34Y-58.983
G1Z-0.5F500
Y-58.98Z-0.6
Y58.984F1000
Y58.987Z-0.5
G0Z10
X-33Y-59.583
G1Z-0.5F500
Y-59.58Z-0.6
Y59.584F1000
Y59.587Z-0.5
G0Z10
X-32Y-60.183
G1Z-0.5F500
Y-60.18Z-0.6
Y60.184F1000
Y60.187Z-0.5
G0Z10
X-31Y-60.587
G1Z-0.5F500
Y-60.584Z-0.6
Y60.584F1000
Y60.587Z-0.5
G0Z10
X-30Y-61.183
G1Z-0.5F500
Y-61.18Z-0.6
Y61.184F1000
Y61.187Z-0.5
G0Z10
X-29Y-61.587
G1Z-0.5F500
Y-61.584Z-0.6
Y61.584F1000
Y61.587Z-0.5
G0Z10
X-28Y-62.183
G1Z-0.5F500
Y-62.18Z-0.6
Y62.184F1000
Y62.187Z-0.5
G0Z10
X-27Y-62.583
G1Z-0.5F500
Y-62.58Z-0.6
Y62.584F1000
Y62.587Z-0.5
G0Z10
X-26Y-62.987
G1Z-0.5F500
Y-62.984Z-0.6
Y62.984F1000
Y62.987Z-0.5
G0Z10
X-25Y-63.387
G1Z-0.5F500
Y-63.384Z-0.6
Y63.384F1000
Y63.387Z-0.5
G0Z10
X-24Y-63.787
G1Z-0.5F500
Y-63.784Z-0.6
Y63.784F1000
Y63.787Z-0.5
G0Z10
X-23Y-64.183
G1Z-0.5F500
Y-64.18Z-0.6
Y64.184F1000
Y64.187Z-0.5
G0Z10
X-22Y-64.583
G1Z-0.5F500
Y-64.58Z-0.6
Y64.584F1000
Y64.587Z-0.5
G0Z10
X-21Y-64.787
G1Z-0.5F500
Y-64.784Z-0.6
Y64.784F1000
Y64.787Z-0.5
G0Z10
X-20Y-65.187
G1Z-0.5F500
Y-65.184Z-0.6
Y65.184F1000
Y65.187Z-0.5
G0Z10
X-19Y-65.583
G1Z-0.5F500
Y-65.58Z-0.6
Y65.584F1000
Y65.587Z-0.5
G0Z10
X-18Y-65.787
G1Z-0.5F500
Y-65.784Z-0.6
Y65.784F1000
Y65.787Z-0.5
G0Z10
X-17Y-66.183
G1Z-0.5F500
Y-66.18Z-0.6
Y66.184F1000
Y66.187Z-0.5
G0Z10
X-16Y-66.383
G1Z-0.5F500
Y-66.38Z-0.6
Y66.384F1000
Y66.387Z-0.5
G0Z10
X-15Y-66.587
G1Z-0.5F500
Y-66.584Z-0.6
Y66.584F1000
Y66.587Z-0.5
G0Z10
X-14Y-66.787
G1Z-0.5F500
Y-66.784Z-0.6
Y66.784F1000
Y66.787Z-0.5
G0Z10
X-13Y-66.987
G1Z-0.5F500
Y-66.984Z-0.6
Y66.984F1000
Y66.987Z-0.5
G0Z10
X-12Y-67.187
G1Z-0.5F500
Y-67.184Z-0.6
Y67.184F1000
Y67.187Z-0.5
G0Z10
X-11Y-67.387
G1Z-0.5F500
Y-67.384Z-0.6
Y67.384F1000
Y67.387Z-0.5
G0Z10
X-10Y-67.587
G1Z-0.5F500
Y-67.584Z-0.6
Y67.584F1000
Y67.587Z-0.5
G0Z10
X-9Y-67.787
G1Z-0.5F500
Y-67.784Z-0.6
Y67.784F1000
Y67.787Z-0.5
G0Z10
X-8Y-67.983
G1Z-0.5F500
Y-67.98Z-0.6
Y67.984F1000
Y67.987Z-0.5
G0Z10
X-7Y-67.987
G1Z-0.5F500
Y-67.984Z-0.6
Y67.984F1000
Y67.987Z-0.5
G0Z10
X-6Y-68.183
G1Z-0.5F500
Y-68.18Z-0.6
Y68.184F1000
Y68.187Z-0.5
G0Z10
X-5Y-68.187
G1Z-0.5F500
Y-68.184Z-0.6
Y68.184F1000
Y68.187Z-0.5
G0Z10
X-4Y-68.383
G1Z-0.5F500
Y-68.38Z-0.6
Y68.384F1000
Y68.387Z-0.5
G0Z10
X-3Y-68.387
G1Z-0.5F500
Y-68.384Z-0.6
Y68.384F1000
Y68.387Z-0.5
G0Z10
X-2Y-68.583
G1Z-0.5F500
Y-68.58Z-0.6
Y68.584F1000
Y68.587Z-0.5
G0Z10
X-1Y-68.583
G1Z-0.5F500
Y-68.58Z-0.6
Y68.584F1000
Y68.587Z-0.5
G0Z10
X0Y-68.583
G1Z-0.5F500
Y-68.58Z-0.6
Y68.584F1000
Y68.587Z-0.5
G0Z10
X1Y-68.583
G1Z-0.5F500
Y-68.58Z-0.6
Y68.584F1000
Y68.587Z-0.5
G0Z10
X2Y-68.583
G1Z-0.5F500
Y-68.58Z-0.6
Y68.584F1000
Y68.587Z-0.5
G0Z10
X3Y-68.387
G1Z-0.5F500
Y-68.384Z-0.6
Y68.384F1000
Y68.387Z-0.5
G0Z10
X4Y-68.383
G1Z-0.5F500
Y-68.38Z-0.6
Y68.384F1000
Y68.387Z-0.5
G0Z10
X5Y-68.187
G1Z-0.5F500
Y-68.184Z-0.6
Y68.184F1000
Y68.187Z-0.5
G0Z10
X6Y-68.183
G1Z-0.5F500
Y-68.18Z-0.6
Y68.184F1000
Y68.187Z-0.5
G0Z10
X7Y-67.987
G1Z-0.5F500
Y-67.984Z-0.6
Y67.984F1000
Y67.987Z-0.5
G0Z10
X8Y-67.983
G1Z-0.5F500
Y-67.98Z-0.6
Y67.984F1000
Y67.987Z-0.5
G0Z10
X9Y-67.787
G1Z-0.5F500
Y-67.784Z-0.6
Y67.784F1000
Y67.787Z-0.5
G0Z10
X10Y-67.587
G1Z-0.5F500
Y-67.584Z-0.6
Y67.584F1000
Y67.587Z-0.5
G0Z10
X11Y-67.387
G1Z-0.5F500
Y-67.384Z-0.6
Y67.384F1000
Y67.387Z-0.5
G0Z10
X12Y-67.187
G1Z-0.5F500
Y-67.184Z-0.6
Y67.184F1000
Y67.187Z-0.5
G0Z10
X13Y-66.987
G1Z-0.5F500
Y-66.984Z-0.6
Y66.984F1000
Y66.987Z-0.5
G0Z10
X14Y-66.787
G1Z-0.5F500
Y-66.784Z-0.6
Y66.784F1000
Y66.787Z-0.5
G0Z10
X15Y-66.587
G1Z-0.5F500
Y-66.584Z-0.6
Y66.584F1000
Y66.587Z-0.5
G0Z10
X16Y-66.383
G1Z-0.5F500
Y-66.38Z-0.6
Y66.384F1000
Y66.387Z-0.5
G0Z10
X17Y-66.183
G1Z-0.5F500
Y-66.18Z-0.6
Y66.184F1000
Y66.187Z-0.5
G0Z10
X18Y-65.787
G1Z-0.5F500
Y-65.784Z-0.6
Y65.784F1000
Y65.787Z-0.5
G0Z10
X19Y-65.583
G1Z-0.5F500
Y-65.58Z-0.6
Y65.584F1000
Y65.587Z-0.5
G0Z10
X20Y-65.187
G1Z-0.5F500
Y-65.184Z-0.6
Y65.184F1000
Y65.187Z-0.5
G0Z10
X21Y-64.787
G1Z-0.5F500
Y-64.784Z-0.6
Y64.784F1000
Y64.787Z-0.5
G0Z10
X22Y-64.583
G1Z-0.5F500
Y-64.58Z-0.6
Y64.584F1000
Y64.587Z-0.5
G0Z10
X23Y-64.183
G1Z-0.5F500
Y-64.18Z-0.6
Y64.184F1000
Y64.187Z-0.5
G0Z10
X24Y-63.787
G1Z-0.5F500
Y-63.784Z-0.6
Y63.784F1000
Y63.787Z-0.5
G0Z10
X25Y-63.387
G1Z-0.5F500
Y-63.384Z-0.6
Y63.384F1000
Y63.387Z-0.5
G0Z10
X26Y-62.987
G1Z-0.5F500
Y-62.984Z-0.6
Y62.984F1000
Y62.987Z-0.5
G0Z10
X27Y-62.583
G1Z-0.5F500
Y-62.58Z-0.6
Y62.584F1000
Y62.587Z-0.5
G0Z10
X28Y-62.183
G1Z-0.5F500
Y-62.18Z-0.6
Y62.184F1000
Y62.187Z-0.5
G0Z10
X29Y-61.587
G1Z-0.5F500
Y-61.584Z-0.6
Y61.584F1000
Y61.587Z-0.5
G0Z10
X30Y-61.183
G1Z-0.5F500
Y-61.18Z-0.6
Y61.184F1000
Y61.187Z-0.5
G0Z10
X31Y-60.587
G1Z-0.5F500
Y-60.584Z-0.6
Y60.584F1000
Y60.587Z-0.5
G0Z10
X32Y-60.183
G1Z-0.5F500
Y-60.18Z-0.6
Y60.184F1000
Y60.187Z-0.5
G0Z10
X33Y-59.583
G1Z-0.5F500
Y-59.58Z-0.6
Y59.584F1000
Y59.587Z-0.5
G0Z10
X34Y-58.983
G1Z-0.5F500
Y-58.98Z-0.6
Y58.984F1000
Y58.987Z-0.5
G0Z10
X35Y-58.383
G1Z-0.5F500
Y-58.38Z-0.6
Y58.384F1000
Y58.387Z-0.5
G0Z10
X36Y-57.783
G1Z-0.5F500
Y-57.78Z-0.6
Y57.784F1000
Y57.787Z-0.5
G0Z10
X37Y-57.183
G1Z-0.5F500
Y-57.18Z-0.6
Y57.184F1000
Y57.187Z-0.5
G0Z10
X38Y-56.387
G1Z-0.5F500
Y-56.384Z-0.6
Y56.384F1000
Y56.387Z-0.5
G0Z10
X39Y-55.783
G1Z-0.5F500
Y-55.78Z-0.6
Y55.784F1000
Y55.787Z-0.5
G0Z10
X40Y-54.987
G1Z-0.5F500
Y-54.984Z-0.6
Y54.984F1000
Y54.987Z-0.5
G0Z10
X41Y-54.187
G1Z-0.5F500
Y-54.184Z-0.6
Y54.184F1000
Y54.187Z-0.5
G0Z10
X42Y-53.387
G1Z-0.5F500
Y-53.384Z-0.6
Y53.384F1000
Y53.387Z-0.5
G0Z10
X43Y-52.783
G1Z-0.5F500
Y-52.78Z-0.6
Y52.784F1000
Y52.787Z-0.5
G0Z10
X44Y-51.787
G1Z-0.5F500
Y-51.784Z-0.6
Y51.784F1000
Y51.787Z-0.5
G0Z10
X45Y-50.983
G1Z-0.5F500
Y-50.98Z-0.6
Y50.984F1000
Y50.987Z-0.5
G0Z10
X46Y-49.987
G1Z-0.5F500
Y-49.984Z-0.6
Y49.984F1000
Y49.987Z-0.5
G0Z10
X47Y-49.183
G1Z-0.5F500
Y-49.18Z-0.6
Y49.184F1000
Y49.187Z-0.5
G0Z10
X48Y-48.183
G1Z-0.5F500
Y-48.18Z-0.6
Y48.184F1000
Y48.187Z-0.5
G0Z10
X49Y-47.183
G1Z-0.5F500
Y-47.18Z-0.6
Y47.184F1000
Y47.187Z-0.5
G0Z10
X50Y-45.987
G1Z-0.5F500
Y-45.984Z-0.6
Y45.984F1000
Y45.987Z-0.5
G0Z10
X51Y-44.983
G1Z-0.5F500
Y-44.98Z-0.6
Y44.984F1000
Y44.987Z-0.5
G0Z10
X52Y-43.787
G1Z-0.5F500
Y-43.784Z-0.6
Y43.784F1000
Y43.787Z-0.5
G0Z10
X53Y-42.587
G1Z-0.5F500
Y-42.584Z-0.6
Y42.584F1000
Y42.587Z-0.5
G0Z10
X54Y-41.383
G1Z-0.5F500
Y-41.38Z-0.6
Y41.384F1000
Y41.387Z-0.5
G0Z10
X55Y-39.987
G1Z-0.5F500
Y-39.984Z-0.6
Y39.984F1000
Y39.987Z-0.5
G0Z10
X56Y-38.587
G1Z-0.5F500
Y-38.584Z-0.6
Y38.584F1000
Y38.587Z-0.5
G0Z10
X57Y-37.183
G1Z-0.5F500
Y-37.18Z-0.6
Y37.184F1000
Y37.187Z-0.5
G0Z10
X58Y-35.583
G1Z-0.5F500
Y-35.58Z-0.6
Y35.584F1000
Y35.587Z-0.5
G0Z10
X59Y-33.983
G1Z-0.5F500
Y-33.98Z-0.6
Y33.984F1000
Y33.987Z-0.5
G0Z10
X60Y-32.183
G1Z-0.5F500
Y-32.18Z-0.6
Y32.184F1000
Y32.187Z-0.5
G0Z10
X61Y-30.187
G1Z-0.5F500
Y-30.184Z-0.6
Y30.184F1000
Y30.187Z-0.5
G0Z10
X62Y-28.187
G1Z-0.5F500
Y-28.184Z-0.6
Y28.184F1000
Y28.187Z-0.5
G0Z10
X63Y-25.987
G1Z-0.5F500
Y-25.984Z-0.6
Y25.984F1000
Y25.987Z-0.5
G0Z10
X64Y-23.387
G1Z-0.5F500
Y-23.384Z-0.6
Y23.384F1000
Y23.387Z-0.5
G0Z10
X65Y-20.587
G1Z-0.5F500
Y-20.584Z-0.6
Y20.584F1000
Y20.587Z-0.5
G0Z10
X66Y-17.387
G1Z-0.5F500
Y-17.384Z-0.6
Y17.384F1000
Y17.387Z-0.5
G0Z10
X67Y-13.383
G1Z-0.5F500
Y-13.38Z-0.6
Y13.384F1000
Y13.387Z-0.5
G0Z10
X68Y-7.583
G1Z-0.5F500
Y-7.58Z-0.6
Y7.584F1000
Y7.587Z-0.5
G0Z10
X-68Y-7.58
G1Z-0.6F500
Y-7.577Z-0.7
Y7.581F1000
Y7.584Z-0.6
G0Z10
X-67Y-13.38
G1Z-0.6F500
Y-13.377Z-0.7
Y13.381F1000
Y13.384Z-0.6
G0Z10
X-66Y-17.384
G1Z-0.6F500
Y-17.381Z-0.7
Y17.382F1000
Y17.384Z-0.6
G0Z10
X-65Y-20.584
G1Z-0.6F500
Y-20.581Z-0.7
Y20.581F1000
Y20.584Z-0.6
G0Z10
X-64Y-23.384
G1Z-0.6F500
Y-23.381Z-0.7
Y23.381F1000
Y23.384Z-0.6
G0Z10
X-63Y-25.984
G1Z-0.6F500
Y-25.981Z-0.7
Y25.981F1000
Y25.984Z-0.6
G0Z10
X-62Y-28.184
G1Z-0.6F500
Y-28.181Z-0.7
Y28.181F1000
Y28.184Z-0.6
G0Z10
X-61Y-30.184
G1Z-0.6F500
Y-30.181Z-0.7
Y30.181F1000
Y30.184Z-0.6
G0Z10
X-60Y-32.18
G1Z-0.6F500
Y-32.177Z-0.7
Y32.181F1000
Y32.184Z-0.6
G0Z10
X-59Y-33.98
G1Z-0.6F500
Y-33.977Z-0.7
Y33.981F1000
Y33.984Z-0.6
G0Z10
X-58Y-35.58
G1Z-0.6F500
Y-35.577Z-0.7
Y35.581F1000
Y35.584Z-0.6
G0Z10
X-57Y-37.18
G1Z-0.6F500
Y-37.177Z-0.7
Y37.181F1000
Y37.184Z-0.6
G0Z10
X-56Y-38.584
G1Z-0.6F500
Y-38.581Z-0.7
Y38.581F1000
Y38.584Z-0.6
G0Z10
X-55Y-39.984
G1Z-0.6F500
Y-39.981Z-0.7
Y39.981F1000
Y39.984Z-0.6
G0Z10
X-54Y-41.38
G1Z-0.6F500
Y-41.377Z-0.7
Y41.381F1000
Y41.384Z-0.6
G0Z10
X-53Y-42.584
G1Z-0.6F500
Y-42.581Z-0.7
Y42.581F1000
Y42.584Z-0.6
G0Z10
X-52Y-43.784
G1Z-0.6F500
Y-43.781Z-0.7
Y43.781F1000
Y43.784Z-0.6
G0Z10
X-51Y-44.98
G1Z-0.6F500
Y-44.977Z-0.7
Y44.981F1000
Y44.984Z-0.6
G0Z10
X-50Y-45.984
G1Z-0.6F500
Y-45.981Z-0.7
Y45.981F1000
Y45.984Z-0.6
G0Z10
X-49Y-47.18
G1Z-0.6F500
Y-47.177Z-0.7
Y47.181F1000
Y47.184Z-0.6
G0Z10
X-48Y-48.18
G1Z-0.6F500
Y-48.177Z-0.7
Y48.181F1000
Y48.184Z-0.6
G0Z10
X-47Y-49.18
G1Z-0.6F500
Y-49.177Z-0.7
Y49.181F1000
Y49.184Z-0.6
G0Z10
X-46Y-49.984
G1Z-0.6F500
Y-49.981Z-0.7
Y49.981F1000
Y49.984Z-0.6
G0Z10
X-45Y-50.98
G1Z-0.6F500
Y-50.977Z-0.7
Y50.981F1000
Y50.984Z-0.6
G0Z10
X-44Y-51.784
G1Z-0.6F500
Y-51.781Z-0.7
Y51.781F1000
Y51.784Z-0.6
G0Z10
X-43Y-52.78
G1Z-0.6F500
Y-52.777Z-0.7
Y52.781F1000
Y52.784Z-0.6
G0Z10
X-42Y-53.384
G1Z-0.6F500
Y-53.381Z-0.7
Y53.381F1000
Y53.384Z-0.6
G0Z10
X-41Y-54.184
G1Z-0.6F500
Y-54.181Z-0.7
Y54.181F1000
Y54.184Z-0.6
G0Z10
X-40Y-54.984
G1Z-0.6F500
Y-54.981Z-0.7
Y54.981F1000
Y54.984Z-0.599
G0Z10
X-39Y-55.78
G1Z-0.6F500
Y-55.777Z-0.7
Y55.781F1000
Y55.784Z-0.6
G0Z10
X-38Y-56.384
G1Z-0.6F500
Y-56.381Z-0.7
Y56.381F1000
Y56.384Z-0.6
G0Z10
X-37Y-57.18
G1Z-0.6F500
Y-57.177Z-0.7
Y57.181F1000
Y57.184Z-0.6
G0Z10
X-36Y-57.78
G1Z-0.6F500
Y-57.777Z-0.7
Y57.781F1000
Y57.784Z-0.6
G0Z10
X-35Y-58.38
G1Z-0.6F500
Y-58.377Z-0.7
Y58.381F1000
Y58.384Z-0.6
G0Z10
X-34Y-58.98
G1Z-0.6F500
Y-58.977Z-0.7
Y58.981F1000
Y58.984Z-0.6
G0Z10
X-33Y-59.58
G1Z-0.6F500
Y-59.577Z-0.7
Y59.581F1000
Y59.584Z-0.6
G0Z10
X-32Y-60.18
G1Z-0.6F500
Y-60.177Z-0.7
Y60.181F1000
Y60.184Z-0.6
G0Z10
X-31Y-60.584
G1Z-0.6F500
Y-60.581Z-0.7
Y60.581F1000
Y60.584Z-0.6
G0Z10
X-30Y-61.18
G1Z-0.6F500
Y-61.177Z-0.7
Y61.181F1000
Y61.184Z-0.6
G0Z10
X-29Y-61.584
G1Z-0.6F500
Y-61.581Z-0.7
Y61.581F1000
Y61.584Z-0.6
G0Z10
X-28Y-62.18
G1Z-0.6F500
Y-62.177Z-0.7
Y62.181F1000
Y62.184Z-0.6
G0Z10
X-27Y-62.58
G1Z-0.6F500
Y-62.577Z-0.7
Y62.581F1000
Y62.584Z-0.6
G0Z10
X-26Y-62.984
G1Z-0.6F500
Y-62.981Z-0.7
Y62.981F1000
Y62.984Z-0.6
G0Z10
X-25Y-63.384
G1Z-0.6F500
Y-63.381Z-0.7
Y63.381F1000
Y63.384Z-0.6
G0Z10
X-24Y-63.784
G1Z-0.6F500
Y-63.781Z-0.7
Y63.781F1000
Y63.784Z-0.6
G0Z10
X-23Y-64.18
G1Z-0.6F500
Y-64.177Z-0.7
Y64.181F1000
Y64.184Z-0.6
G0Z10
X-22Y-64.58
G1Z-0.6F500
Y-64.577Z-0.7
Y64.581F1000
Y64.584Z-0.6
G0Z10
X-21Y-64.784
G1Z-0.6F500
Y-64.781Z-0.7
Y64.781F1000
Y64.784Z-0.6
G0Z10
X-20Y-65.184
G1Z-0.6F500
Y-65.181Z-0.7
Y65.181F1000
Y65.184Z-0.6
G0Z10
X-19Y-65.58
G1Z-0.6F500
Y-65.577Z-0.7
Y65.581F1000
Y65.584Z-0.6
G0Z10
X-18Y-65.784
G1Z-0.6F500
Y-65.781Z-0.7
Y65.781F1000
Y65.784Z-0.6
G0Z10
X-17Y-66.18
G1Z-0.6F500
Y-66.177Z-0.7
Y66.181F1000
Y66.184Z-0.6
G0Z10
X-16Y-66.38
G1Z-0.6F500
Y-66.377Z-0.7
Y66.381F1000
Y66.384Z-0.6
G0Z10
X-15Y-66.584
G1Z-0.6F500
Y-66.581Z-0.7
Y66.581F1000
Y66.584Z-0.6
G0Z10
X-14Y-66.784
G1Z-0.6F500
Y-66.781Z-0.7
Y66.781F1000
Y66.784Z-0.6
G0Z10
X-13Y-66.984
G1Z-0.6F500
Y-66.981Z-0.7
Y66.981F1000
Y66.984Z-0.6
G0Z10
X-12Y-67.184
G1Z-0.6F500
Y-67.181Z-0.7
Y67.182F1000
Y67.184Z-0.6
G0Z10
X-11Y-67.384
G1Z-0.6F500
Y-67.381Z-0.7
Y67.381F1000
Y67.384Z-0.6
G0Z10
X-10Y-67.584
G1Z-0.6F500
Y-67.581Z-0.7
Y67.581F1000
Y67.584Z-0.6
G0Z10
X-9Y-67.784
G1Z-0.6F500
Y-67.781Z-0.7
Y67.781F1000
Y67.784Z-0.6
G0Z10
X-8Y-67.98
G1Z-0.6F500
Y-67.977Z-0.7
Y67.981F1000
Y67.984Z-0.6
G0Z10
X-7Y-67.984
G1Z-0.6F500
Y-67.981Z-0.7
Y67.981F1000
Y67.984Z-0.6
G0Z10
X-6Y-68.18
G1Z-0.6F500
Y-68.177Z-0.7
Y68.181F1000
Y68.184Z-0.6
G0Z10
X-5Y-68.184
G1Z-0.6F500
Y-68.181Z-0.7
Y68.182F1000
Y68.184Z-0.6
G0Z10
X-4Y-68.38
G1Z-0.6F500
Y-68.377Z-0.7
Y68.381F1000
Y68.384Z-0.6
G0Z10
X-3Y-68.384
G1Z-0.6F500
Y-68.381Z-0.7
Y68.382F1000
Y68.384Z-0.6
G0Z10
X-2Y-68.58
G1Z-0.6F500
Y-68.577Z-0.7
Y68.581F1000
Y68.584Z-0.6
G0Z10
X-1Y-68.58
G1Z-0.6F500
Y-68.577Z-0.7
Y68.581F1000
Y68.584Z-0.6
G0Z10
X0Y-68.58
G1Z-0.6F500
Y-68.577Z-0.7
Y68.581F1000
Y68.584Z-0.6
G0Z10
X1Y-68.58
G1Z-0.6F500
Y-68.577Z-0.7
Y68.581F1000
Y68.584Z-0.6
G0Z10
X2Y-68.58
G1Z-0.6F500
Y-68.577Z-0.7
Y68.581F1000
Y68.584Z-0.6
G0Z10
X3Y-68.384
G1Z-0.6F500
Y-68.381Z-0.7
Y68.382F1000
Y68.384Z-0.6
G0Z10
X4Y-68.38
G1Z-0.6F500
Y-68.377Z-0.7
Y68.381F1000
Y68.384Z-0.6
G0Z10
X5Y-68.184
G1Z-0.6F500
Y-68.181Z-0.7
Y68.181F1000
Y68.184Z-0.6
G0Z10
X6Y-68.18
G1Z-0.6F500
Y-68.177Z-0.7
Y68.181F1000
Y68.184Z-0.6
G0Z10
X7Y-67.984
G1Z-0.6F500
Y-67.981Z-0.7
Y67.981F1000
Y67.984Z-0.6
G0Z10
X8Y-67.98
G1Z-0.6F500
Y-67.977Z-0.7
Y67.981F1000
Y67.984Z-0.6
G0Z10
X9Y-67.784
G1Z-0.6F500
Y-67.781Z-0.7
Y67.781F1000
Y67.784Z-0.6
G0Z10
X10Y-67.584
G1Z-0.6F500
Y-67.581Z-0.7
Y67.581F1000
Y67.584Z-0.6
G0Z10
X11Y-67.384
G1Z-0.6F500
Y-67.381Z-0.7
Y67.381F1000
Y67.384Z-0.6
G0Z10
X12Y-67.184
G1Z-0.6F500
Y-67.181Z-0.7
Y67.181F1000
Y67.184Z-0.6
G0Z10
X13Y-66.984
G1Z-0.6F500
Y-66.981Z-0.7
Y66.981F1000
Y66.984Z-0.6
G0Z10
X14Y-66.784
G1Z-0.6F500
Y-66.781Z-0.7
Y66.781F1000
Y66.784Z-0.6
G0Z10
X15Y-66.584
G1Z-0.6F500
Y-66.581Z-0.7
Y66.581F1000
Y66.584Z-0.6
G0Z10
X16Y-66.38
G1Z-0.6F500
Y-66.377Z-0.7
Y66.381F1000
Y66.384Z-0.6
G0Z10
X17Y-66.18
G1Z-0.6F500
Y-66.177Z-0.7
Y66.181F1000
Y66.184Z-0.6
G0Z10
X18Y-65.784
G1Z-0.6F500
Y-65.781Z-0.7
Y65.781F1000
Y65.784Z-0.6
G0Z10
X19Y-65.58
G1Z-0.6F500
Y-65.577Z-0.7
Y65.581F1000
Y65.584Z-0.6
G0Z10
X20Y-65.184
G1Z-0.6F500
Y-65.181Z-0.7
Y65.181F1000
Y65.184Z-0.6
G0Z10
X21Y-64.784
G1Z-0.6F500
Y-64.781Z-0.7
Y64.781F1000
Y64.784Z-0.6
G0Z10
X22Y-64.58
G1Z-0.6F500
Y-64.577Z-0.7
Y64.581F1000
Y64.584Z-0.6
G0Z10
X23Y-64.18
G1Z-0.6F500
Y-64.177Z-0.7
Y64.181F1000
Y64.184Z-0.6
G0Z10
X24Y-63.784
G1Z-0.6F500
Y-63.781Z-0.7
Y63.781F1000
Y63.784Z-0.6
G0Z10
X25Y-63.384
G1Z-0.6F500
Y-63.381Z-0.7
Y63.381F1000
Y63.384Z-0.6
G0Z10
X26Y-62.984
G1Z-0.6F500
Y-62.981Z-0.7
Y62.981F1000
Y62.984Z-0.6
G0Z10
X27Y-62.58
G1Z-0.6F500
Y-62.577Z-0.7
Y62.581F1000
Y62.584Z-0.6
G0Z10
X28Y-62.18
G1Z-0.6F500
Y-62.177Z-0.7
Y62.181F1000
Y62.184Z-0.6
G0Z10
X29Y-61.584
G1Z-0.6F500
Y-61.581Z-0.7
Y61.581F1000
Y61.584Z-0.6
G0Z10
X30Y-61.18
G1Z-0.6F500
Y-61.177Z-0.7
Y61.181F1000
Y61.184Z-0.6
G0Z10
X31Y-60.584
G1Z-0.6F500
Y-60.581Z-0.7
Y60.581F1000
Y60.584Z-0.6
G0Z10
X32Y-60.18
G1Z-0.6F500
Y-60.177Z-0.7
Y60.181F1000
Y60.184Z-0.6
G0Z10
X33Y-59.58
G1Z-0.6F500
Y-59.577Z-0.7
Y59.581F1000
Y59.584Z-0.6
G0Z10
X34Y-58.98
G1Z-0.6F500
Y-58.977Z-0.7
Y58.981F1000
Y58.984Z-0.6
G0Z10
X35Y-58.38
G1Z-0.6F500
Y-58.377Z-0.7
Y58.381F1000
Y58.384Z-0.6
G0Z10
X36Y-57.78
G1Z-0.6F500
Y-57.777Z-0.7
Y57.781F1000
Y57.784Z-0.6
G0Z10
X37Y-57.18
G1Z-0.6F500
Y-57.177Z-0.7
Y57.181F1000
Y57.184Z-0.6
G0Z10
X38Y-56.384
G1Z-0.6F500
Y-56.381Z-0.7
Y56.381F1000
Y56.384Z-0.6
G0Z10
X39Y-55.78
G1Z-0.6F500
Y-55.777Z-0.7
Y55.781F1000
Y55.784Z-0.6
G0Z10
X40Y-54.984
G1Z-0.6F500
Y-54.981Z-0.7
Y54.981F1000
Y54.984Z-0.6
G0Z10
X41Y-54.184
G1Z-0.6F500
Y-54.181Z-0.7
Y54.181F1000
Y54.184Z-0.6
G0Z10
X42Y-53.384
G1Z-0.6F500
Y-53.381Z-0.7
Y53.381F1000
Y53.384Z-0.6
G0Z10
X43Y-52.78
G1Z-0.6F500
Y-52.777Z-0.7
Y52.781F1000
Y52.784Z-0.6
G0Z10
X44Y-51.784
G1Z-0.6F500
Y-51.781Z-0.7
Y51.781F1000
Y51.784Z-0.6
G0Z10
X45Y-50.98
G1Z-0.6F500
Y-50.977Z-0.7
Y50.981F1000
Y50.984Z-0.6
G0Z10
X46Y-49.984
G1Z-0.6F500
Y-49.981Z-0.7
Y49.981F1000
Y49.984Z-0.6
G0Z10
X47Y-49.18
G1Z-0.6F500
Y-49.177Z-0.7
Y49.181F1000
Y49.184Z-0.6
G0Z10
X48Y-48.18
G1Z-0.6F500
Y-48.177Z-0.7
Y48.181F1000
Y48.184Z-0.6
G0Z10
X49Y-47.18
G1Z-0.6F500
Y-47.177Z-0.7
Y47.181F1000
Y47.184Z-0.6
G0Z10
X50Y-45.984
G1Z-0.6F500
Y-45.981Z-0.7
Y45.981F1000
Y45.984Z-0.6
G0Z10
X51Y-44.98
G1Z-0.6F500
Y-44.977Z-0.7
Y44.981F1000
Y44.984Z-0.6
G0Z10
X52Y-43.784
G1Z-0.6F500
Y-43.781Z-0.7
Y43.781F1000
Y43.784Z-0.6
G0Z10
X53Y-42.584
G1Z-0.6F500
Y-42.581Z-0.7
Y42.581F1000
Y42.584Z-0.6
G0Z10
X54Y-41.38
G1Z-0.6F500
Y-41.377Z-0.7
Y41.381F1000
Y41.384Z-0.6
G0Z10
X55Y-39.984
G1Z-0.6F500
Y-39.981Z-0.7
Y39.981F1000
Y39.984Z-0.6
G0Z10
X56Y-38.584
G1Z-0.6F500
Y-38.581Z-0.7
Y38.581F1000
Y38.584Z-0.6
G0Z10
X57Y-37.18
G1Z-0.6F500
Y-37.177Z-0.7
Y37.181F1000
Y37.184Z-0.6
G0Z10
X58Y-35.58
G1Z-0.6F500
Y-35.577Z-0.7
Y35.581F1000
Y35.584Z-0.6
G0Z10
X59Y-33.98
G1Z-0.6F500
Y-33.977Z-0.7
Y33.981F1000
Y33.984Z-0.6
G0Z10
X60Y-32.18
G1Z-0.6F500
Y-32.177Z-0.7
Y32.181F1000
Y32.184Z-0.6
G0Z10
X61Y-30.184
G1Z-0.6F500
Y-30.181Z-0.7
Y30.181F1000
Y30.184Z-0.6
G0Z10
X62Y-28.184
G1Z-0.6F500
Y-28.181Z-0.7
Y28.181F1000
Y28.184Z-0.6
G0Z10
X63Y-25.984
G1Z-0.6F500
Y-25.981Z-0.7
Y25.981F1000
Y25.984Z-0.6
G0Z10
X64Y-23.384
G1Z-0.6F500
Y-23.381Z-0.7
Y23.381F1000
Y23.384Z-0.6
G0Z10
X65Y-20.584
G1Z-0.6F500
Y-20.581Z-0.7
Y20.581F1000
Y20.584Z-0.6
G0Z10
X66Y-17.384
G1Z-0.6F500
Y-17.381Z-0.7
Y17.381F1000
Y17.384Z-0.6
G0Z10
X67Y-13.38
G1Z-0.6F500
Y-13.377Z-0.7
Y13.381F1000
Y13.384Z-0.6
G0Z10
X68Y-7.58
G1Z-0.6F500
Y-7.577Z-0.7
Y7.581F1000
Y7.584Z-0.6
G0Z10
X-68Y-7.577
G1Z-0.7F500
Y-7.574Z-0.8
Y7.578F1000
Y7.581Z-0.7
G0Z10
X-67Y-13.377
G1Z-0.7F500
Y-13.374Z-0.8
Y13.378F1000
Y13.381Z-0.7
G0Z10
X-66Y-17.381
G1Z-0.7F500
Y-17.378Z-0.8
Y17.379F1000
Y17.382Z-0.7
G0Z10
X-65Y-20.581
G1Z-0.7F500
Y-20.578Z-0.8
Y20.579F1000
Y20.581Z-0.7
G0Z10
X-64Y-23.381
G1Z-0.7F500
Y-23.378Z-0.8
Y23.379F1000
Y23.381Z-0.7
G0Z10
X-63Y-25.981
G1Z-0.7F500
Y-25.978Z-0.8
Y25.979F1000
Y25.981Z-0.7
G0Z10
X-62Y-28.181
G1Z-0.7F500
Y-28.178Z-0.8
Y28.179F1000
Y28.181Z-0.7
G0Z10
X-61Y-30.181
G1Z-0.7F500
Y-30.178Z-0.8
Y30.179F1000
Y30.181Z-0.7
G0Z10
X-60Y-32.177
G1Z-0.7F500
Y-32.174Z-0.8
Y32.178F1000
Y32.181Z-0.7
G0Z10
X-59Y-33.977
G1Z-0.7F500
Y-33.974Z-0.8
Y33.978F1000
Y33.981Z-0.7
G0Z10
X-58Y-35.577
G1Z-0.7F500
Y-35.574Z-0.8
Y35.578F1000
Y35.581Z-0.7
G0Z10
X-57Y-37.177
G1Z-0.7F500
Y-37.174Z-0.8
Y37.178F1000
Y37.181Z-0.7
G0Z10
X-56Y-38.581
G1Z-0.7F500
Y-38.578Z-0.8
Y38.579F1000
Y38.581Z-0.7
G0Z10
X-55Y-39.981
G1Z-0.7F500
Y-39.978Z-0.8
Y39.979F1000
Y39.981Z-0.7
G0Z10
X-54Y-41.377
G1Z-0.7F500
Y-41.374Z-0.8
Y41.378F1000
Y41.381Z-0.7
G0Z10
X-53Y-42.581
G1Z-0.7F500
Y-42.578Z-0.8
Y42.579F1000
Y42.581Z-0.7
G0Z10
X-52Y-43.781
G1Z-0.7F500
Y-43.778Z-0.8
Y43.779F1000
Y43.781Z-0.7
G0Z10
X-51Y-44.977
G1Z-0.7F500
Y-44.974Z-0.8
Y44.978F1000
Y44.981Z-0.7
G0Z10
X-50Y-45.981
G1Z-0.7F500
Y-45.978Z-0.8
Y45.979F1000
Y45.981Z-0.7
G0Z10
X-49Y-47.177
G1Z-0.7F500
Y-47.174Z-0.8
Y47.178F1000
Y47.181Z-0.7
G0Z10
X-48Y-48.177
G1Z-0.7F500
Y-48.174Z-0.8
Y48.178F1000
Y48.181Z-0.7
G0Z10
X-47Y-49.177
G1Z-0.7F500
Y-49.174Z-0.8
Y49.178F1000
Y49.181Z-0.7
G0Z10
X-46Y-49.981
G1Z-0.7F500
Y-49.978Z-0.8
Y49.979F1000
Y49.981Z-0.7
G0Z10
X-45Y-50.977
G1Z-0.7F500
Y-50.974Z-0.8
Y50.978F1000
Y50.981Z-0.7
G0Z10
X-44Y-51.781
G1Z-0.7F500
Y-51.778Z-0.8
Y51.779F1000
Y51.781Z-0.7
G0Z10
X-43Y-52.777
G1Z-0.7F500
Y-52.774Z-0.8
Y52.778F1000
Y52.781Z-0.7
G0Z10
X-42Y-53.381
G1Z-0.7F500
Y-53.378Z-0.8
Y53.379F1000
Y53.381Z-0.7
G0Z10
X-41Y-54.181
G1Z-0.7F500
Y-54.178Z-0.8
Y54.179F1000
Y54.181Z-0.7
G0Z10
X-40Y-54.981
G1Z-0.7F500
Y-54.978Z-0.8
Y54.979F1000
Y54.981Z-0.7
G0Z10
X-39Y-55.777
G1Z-0.7F500
Y-55.774Z-0.8
Y55.778F1000
Y55.781Z-0.7
G0Z10
X-38Y-56.381
G1Z-0.7F500
Y-56.378Z-0.8
Y56.379F1000
Y56.381Z-0.7
G0Z10
X-37Y-57.177
G1Z-0.7F500
Y-57.174Z-0.8
Y57.178F1000
Y57.181Z-0.7
G0Z10
X-36Y-57.777
G1Z-0.7F500
Y-57.774Z-0.8
Y57.778F1000
Y57.781Z-0.7
G0Z10
X-35Y-58.377
G1Z-0.7F500
Y-58.374Z-0.8
Y58.378F1000
Y58.381Z-0.7
G0Z10
X-34Y-58.977
G1Z-0.7F500
Y-58.974Z-0.8
Y58.978F1000
Y58.981Z-0.7
G0Z10
X-33Y-59.577
G1Z-0.7F500
Y-59.574Z-0.8
Y59.578F1000
Y59.581Z-0.7
G0Z10
X-32Y-60.177
G1Z-0.7F500
Y-60.174Z-0.8
Y60.178F1000
Y60.181Z-0.7
G0Z10
X-31Y-60.581
G1Z-0.7F500
Y-60.578Z-0.8
Y60.579F1000
Y60.581Z-0.7
G0Z10
X-30Y-61.177
G1Z-0.7F500
Y-61.174Z-0.8
Y61.178F1000
Y61.181Z-0.7
G0Z10
X-29Y-61.581
G1Z-0.7F500
Y-61.578Z-0.8
Y61.579F1000
Y61.581Z-0.7
G0Z10
X-28Y-62.177
G1Z-0.7F500
Y-62.174Z-0.8
Y62.178F1000
Y62.181Z-0.7
G0Z10
X-27Y-62.577
G1Z-0.7F500
Y-62.574Z-0.8
Y62.578F1000
Y62.581Z-0.7
G0Z10
X-26Y-62.981
G1Z-0.7F500
Y-62.978Z-0.8
Y62.979F1000
Y62.981Z-0.7
G0Z10
X-25Y-63.381
G1Z-0.7F500
Y-63.378Z-0.8
Y63.379F1000
Y63.381Z-0.7
G0Z10
X-24Y-63.781
G1Z-0.7F500
Y-63.778Z-0.8
Y63.779F1000
Y63.781Z-0.7
G0Z10
X-23Y-64.177
G1Z-0.7F500
Y-64.174Z-0.8
Y64.178F1000
Y64.181Z-0.7
G0Z10
X-22Y-64.577
G1Z-0.7F500
Y-64.574Z-0.8
Y64.578F1000
Y64.581Z-0.7
G0Z10
X-21Y-64.781
G1Z-0.7F500
Y-64.778Z-0.8
Y64.779F1000
Y64.781Z-0.7
G0Z10
X-20Y-65.181
G1Z-0.7F500
Y-65.178Z-0.8
Y65.179F1000
Y65.181Z-0.7
G0Z10
X-19Y-65.577
G1Z-0.7F500
Y-65.574Z-0.8
Y65.578F1000
Y65.581Z-0.7
G0Z10
X-18Y-65.781
G1Z-0.7F500
Y-65.778Z-0.8
Y65.779F1000
Y65.781Z-0.7
G0Z10
X-17Y-66.177
G1Z-0.7F500
Y-66.174Z-0.8
Y66.178F1000
Y66.181Z-0.7
G0Z10
X-16Y-66.377
G1Z-0.7F500
Y-66.374Z-0.8
Y66.378F1000
Y66.381Z-0.7
G0Z10
X-15Y-66.581
G1Z-0.7F500
Y-66.578Z-0.8
Y66.579F1000
Y66.581Z-0.7
G0Z10
X-14Y-66.781
G1Z-0.7F500
Y-66.778Z-0.8
Y66.779F1000
Y66.781Z-0.7
G0Z10
X-13Y-66.981
G1Z-0.7F500
Y-66.978Z-0.8
Y66.979F1000
Y66.981Z-0.7
G0Z10
X-12Y-67.181
G1Z-0.7F500
Y-67.178Z-0.8
Y67.179F1000
Y67.182Z-0.7
G0Z10
X-11Y-67.381
G1Z-0.7F500
Y-67.378Z-0.8
Y67.379F1000
Y67.381Z-0.7
G0Z10
X-10Y-67.581
G1Z-0.7F500
Y-67.578Z-0.8
Y67.579F1000
Y67.581Z-0.7
G0Z10
X-9Y-67.781
G1Z-0.7F500
Y-67.778Z-0.8
Y67.779F1000
Y67.781Z-0.7
G0Z10
X-8Y-67.977
G1Z-0.7F500
Y-67.974Z-0.8
Y67.978F1000
Y67.981Z-0.7
G0Z10
X-7Y-67.981
G1Z-0.7F500
Y-67.978Z-0.8
Y67.979F1000
Y67.981Z-0.7
G0Z10
X-6Y-68.177
G1Z-0.7F500
Y-68.174Z-0.8
Y68.178F1000
Y68.181Z-0.7
G0Z10
X-5Y-68.181
G1Z-0.7F500
Y-68.178Z-0.8
Y68.179F1000
Y68.182Z-0.7
G0Z10
X-4Y-68.377
G1Z-0.7F500
Y-68.374Z-0.8
Y68.378F1000
Y68.381Z-0.7
G0Z10
X-3Y-68.381
G1Z-0.7F500
Y-68.378Z-0.8
Y68.379F1000
Y68.382Z-0.7
G0Z10
X-2Y-68.577
G1Z-0.7F500
Y-68.574Z-0.8
Y68.578F1000
Y68.581Z-0.7
G0Z10
X-1Y-68.577
G1Z-0.7F500
Y-68.574Z-0.8
Y68.578F1000
Y68.581Z-0.7
G0Z10
X0Y-68.577
G1Z-0.7F500
Y-68.574Z-0.8
Y68.578F1000
Y68.581Z-0.7
G0Z10
X1Y-68.577
G1Z-0.7F500
Y-68.574Z-0.8
Y68.578F1000
Y68.581Z-0.7
G0Z10
X2Y-68.577
G1Z-0.7F500
Y-68.574Z-0.8
Y68.578F1000
Y68.581Z-0.7
G0Z10
X3Y-68.381
G1Z-0.7F500
Y-68.378Z-0.8
Y68.379F1000
Y68.382Z-0.7
G0Z10
X4Y-68.377
G1Z-0.7F500
Y-68.374Z-0.8
Y68.378F1000
Y68.381Z-0.7
G0Z10
X5Y-68.181
G1Z-0.7F500
Y-68.178Z-0.8
Y68.179F1000
Y68.181Z-0.7
G0Z10
X6Y-68.177
G1Z-0.7F500
Y-68.174Z-0.8
Y68.178F1000
Y68.181Z-0.7
G0Z10
X7Y-67.981
G1Z-0.7F500
Y-67.978Z-0.8
Y67.979F1000
Y67.981Z-0.7
G0Z10
X8Y-67.977
G1Z-0.7F500
Y-67.974Z-0.8
Y67.978F1000
Y67.981Z-0.7
G0Z10
X9Y-67.781
G1Z-0.7F500
Y-67.778Z-0.8
Y67.779F1000
Y67.781Z-0.7
G0Z10
X10Y-67.581
G1Z-0.7F500
Y-67.578Z-0.8
Y67.579F1000
Y67.581Z-0.7
G0Z10
X11Y-67.381
G1Z-0.7F500
Y-67.378Z-0.8
Y67.379F1000
Y67.381Z-0.7
G0Z10
X12Y-67.181
G1Z-0.7F500
Y-67.178Z-0.8
Y67.179F1000
Y67.181Z-0.7
G0Z10
X13Y-66.981
G1Z-0.7F500
Y-66.978Z-0.8
Y66.979F1000
Y66.981Z-0.7
G0Z10
X14Y-66.781
G1Z-0.7F500
Y-66.778Z-0.8
Y66.779F1000
Y66.781Z-0.7
G0Z10
X15Y-66.581
G1Z-0.7F500
Y-66.578Z-0.8
Y66.579F1000
Y66.581Z-0.7
G0Z10
X16Y-66.377
G1Z-0.7F500
Y-66.374Z-0.8
Y66.378F1000
Y66.381Z-0.7
G0Z10
X17Y-66.177
G1Z-0.7F500
Y-66.174Z-0.8
Y66.178F1000
Y66.181Z-0.7
G0Z10
X18Y-65.781
G1Z-0.7F500
Y-65.778Z-0.8
Y65.779F1000
Y65.781Z-0.7
G0Z10
X19Y-65.577
G1Z-0.7F500
Y-65.574Z-0.8
Y65.578F1000
Y65.581Z-0.7
G0Z10
X20Y-65.181
G1Z-0.7F500
Y-65.178Z-0.8
Y65.179F1000
Y65.181Z-0.7
G0Z10
X21Y-64.781
G1Z-0.7F500
Y-64.778Z-0.8
Y64.779F1000
Y64.781Z-0.7
G0Z10
X22Y-64.577
G1Z-0.7F500
Y-64.574Z-0.8
Y64.578F1000
Y64.581Z-0.7
G0Z10
X23Y-64.177
G1Z-0.7F500
Y-64.174Z-0.8
Y64.178F1000
Y64.181Z-0.7
G0Z10
X24Y-63.781
G1Z-0.7F500
Y-63.778Z-0.8
Y63.779F1000
Y63.781Z-0.7
G0Z10
X25Y-63.381
G1Z-0.7F500
Y-63.378Z-0.8
Y63.379F1000
Y63.381Z-0.7
G0Z10
X26Y-62.981
G1Z-0.7F500
Y-62.978Z-0.8
Y62.979F1000
Y62.981Z-0.7
G0Z10
X27Y-62.577
G1Z-0.7F500
Y-62.574Z-0.8
Y62.578F1000
Y62.581Z-0.7
G0Z10
X28Y-62.177
G1Z-0.7F500
Y-62.174Z-0.8
Y62.178F1000
Y62.181Z-0.7
G0Z10
X29Y-61.581
G1Z-0.7F500
Y-61.578Z-0.8
Y61.579F1000
Y61.581Z-0.7
G0Z10
X30Y-61.177
G1Z-0.7F500
Y-61.174Z-0.8
Y61.178F1000
Y61.181Z-0.7
G0Z10
X31Y-60.581
G1Z-0.7F500
Y-60.578Z-0.8
Y60.579F1000
Y60.581Z-0.7
G0Z10
X32Y-60.177
G1Z-0.7F500
Y-60.174Z-0.8
Y60.178F1000
Y60.181Z-0.7
G0Z10
X33Y-59.577
G1Z-0.7F500
Y-59.574Z-0.8
Y59.578F1000
Y59.581Z-0.7
G0Z10
X34Y-58.977
G1Z-0.7F500
Y-58.974Z-0.8
Y58.978F1000
Y58.981Z-0.7
G0Z10
X35Y-58.377
G1Z-0.7F500
Y-58.374Z-0.8
Y58.378F1000
Y58.381Z-0.7
G0Z10
X36Y-57.777
G1Z-0.7F500
Y-57.774Z-0.8
Y57.778F1000
Y57.781Z-0.7
G0Z10
X37Y-57.177
G1Z-0.7F500
Y-57.174Z-0.8
Y57.178F1000
Y57.181Z-0.7
G0Z10
X38Y-56.381
G1Z-0.7F500
Y-56.378Z-0.8
Y56.379F1000
Y56.381Z-0.7
G0Z10
X39Y-55.777
G1Z-0.7F500
Y-55.774Z-0.8
Y55.778F1000
Y55.781Z-0.7
G0Z10
X40Y-54.981
G1Z-0.7F500
Y-54.978Z-0.8
Y54.979F1000
Y54.981Z-0.7
G0Z10
X41Y-54.181
G1Z-0.7F500
Y-54.178Z-0.8
Y54.179F1000
Y54.181Z-0.7
G0Z10
X42Y-53.381
G1Z-0.7F500
Y-53.378Z-0.8
Y53.379F1000
Y53.381Z-0.7
G0Z10
X43Y-52.777
G1Z-0.7F500
Y-52.774Z-0.8
Y52.778F1000
Y52.781Z-0.7
G0Z10
X44Y-51.781
G1Z-0.7F500
Y-51.778Z-0.8
Y51.779F1000
Y51.781Z-0.7
G0Z10
X45Y-50.977
G1Z-0.7F500
Y-50.974Z-0.8
Y50.978F1000
Y50.981Z-0.7
G0Z10
X46Y-49.981
G1Z-0.7F500
Y-49.978Z-0.8
Y49.979F1000
Y49.981Z-0.7
G0Z10
X47Y-49.177
G1Z-0.7F500
Y-49.174Z-0.8
Y49.178F1000
Y49.181Z-0.7
G0Z10
X48Y-48.177
G1Z-0.7F500
Y-48.174Z-0.8
Y48.178F1000
Y48.181Z-0.7
G0Z10
X49Y-47.177
G1Z-0.7F500
Y-47.174Z-0.8
Y47.178F1000
Y47.181Z-0.7
G0Z10
X50Y-45.981
G1Z-0.7F500
Y-45.978Z-0.8
Y45.979F1000
Y45.981Z-0.7
G0Z10
X51Y-44.977
G1Z-0.7F500
Y-44.974Z-0.8
Y44.978F1000
Y44.981Z-0.7
G0Z10
X52Y-43.781
G1Z-0.7F500
Y-43.778Z-0.8
Y43.779F1000
Y43.781Z-0.7
G0Z10
X53Y-42.581
G1Z-0.7F500
Y-42.578Z-0.8
Y42.579F1000
Y42.581Z-0.7
G0Z10
X54Y-41.377
G1Z-0.7F500
Y-41.374Z-0.8
Y41.378F1000
Y41.381Z-0.7
G0Z10
X55Y-39.981
G1Z-0.7F500
Y-39.978Z-0.8
Y39.979F1000
Y39.981Z-0.7
G0Z10
X56Y-38.581
G1Z-0.7F500
Y-38.578Z-0.8
Y38.579F1000
Y38.581Z-0.7
G0Z10
X57Y-37.177
G1Z-0.7F500
Y-37.174Z-0.8
Y37.178F1000
Y37.181Z-0.7
G0Z10
X58Y-35.577
G1Z-0.7F500
Y-35.574Z-0.8
Y35.578F1000
Y35.581Z-0.7
G0Z10
X59Y-33.977
G1Z-0.7F500
Y-33.974Z-0.8
Y33.978F1000
Y33.981Z-0.7
G0Z10
X60Y-32.177
G1Z-0.7F500
Y-32.174Z-0.8
Y32.178F1000
Y32.181Z-0.7
G0Z10
X61Y-30.181
G1Z-0.7F500
Y-30.178Z-0.8
Y30.179F1000
Y30.181Z-0.7
G0Z10
X62Y-28.181
G1Z-0.7F500
Y-28.178Z-0.8
Y28.179F1000
Y28.181Z-0.7
G0Z10
X63Y-25.981
G1Z-0.7F500
Y-25.978Z-0.8
Y25.979F1000
Y25.981Z-0.7
G0Z10
X64Y-23.381
G1Z-0.7F500
Y-23.378Z-0.8
Y23.379F1000
Y23.381Z-0.7
G0Z10
X65Y-20.581
G1Z-0.7F500
Y-20.578Z-0.8
Y20.579F1000
Y20.581Z-0.7
G0Z10
X66Y-17.381
G1Z-0.7F500
Y-17.378Z-0.8
Y17.379F1000
Y17.381Z-0.7
G0Z10
X67Y-13.377
G1Z-0.7F500
Y-13.374Z-0.8
Y13.378F1000
Y13.381Z-0.7
G0Z10
X68Y-7.577
G1Z-0.7F500
Y-7.574Z-0.8
Y7.578F1000
Y7.581Z-0.7
G0Z10
X-68Y-7.574
G1Z-0.8F500
Y-7.571Z-0.9
Y7.575F1000
Y7.578Z-0.8
G0Z10
X-67Y-13.374
G1Z-0.8F500
Y-13.371Z-0.9
Y13.375F1000
Y13.378Z-0.8
G0Z10
X-66Y-17.378
G1Z-0.8F500
Y-17.375Z-0.9
Y17.376F1000
Y17.379Z-0.8
G0Z10
X-65Y-20.578
G1Z-0.8F500
Y-20.575Z-0.9
Y20.576F1000
Y20.579Z-0.8
G0Z10
X-64Y-23.378
G1Z-0.8F500
Y-23.375Z-0.9
Y23.376F1000
Y23.379Z-0.8
G0Z10
X-63Y-25.978
G1Z-0.8F500
Y-25.975Z-0.9
Y25.976F1000
Y25.979Z-0.8
G0Z10
X-62Y-28.178
G1Z-0.8F500
Y-28.175Z-0.9
Y28.176F1000
Y28.179Z-0.8
G0Z10
X-61Y-30.178
G1Z-0.8F500
Y-30.175Z-0.9
Y30.176F1000
Y30.179Z-0.8
G0Z10
X-60Y-32.174
G1Z-0.8F500
Y-32.171Z-0.9
Y32.175F1000
Y32.178Z-0.8
G0Z10
X-59Y-33.974
G1Z-0.8F500
Y-33.971Z-0.9
Y33.975F1000
Y33.978Z-0.8
G0Z10
X-58Y-35.574
G1Z-0.8F500
Y-35.571Z-0.9
Y35.575F1000
Y35.578Z-0.8
G0Z10
X-57Y-37.174
G1Z-0.8F500
Y-37.171Z-0.9
Y37.175F1000
Y37.178Z-0.8
G0Z10
X-56Y-38.578
G1Z-0.8F500
Y-38.575Z-0.9
Y38.576F1000
Y38.579Z-0.8
G0Z10
X-55Y-39.978
G1Z-0.8F500
Y-39.975Z-0.9
Y39.976F1000
Y39.979Z-0.8
G0Z10
X-54Y-41.374
G1Z-0.8F500
Y-41.371Z-0.9
Y41.375F1000
Y41.378Z-0.8
G0Z10
X-53Y-42.578
G1Z-0.8F500
Y-42.575Z-0.9
Y42.576F1000
Y42.579Z-0.8
G0Z10
X-52Y-43.778
G1Z-0.8F500
Y-43.775Z-0.9
Y43.776F1000
Y43.779Z-0.8
G0Z10
X-51Y-44.974
G1Z-0.8F500
Y-44.971Z-0.9
Y44.975F1000
Y44.978Z-0.8
G0Z10
X-50Y-45.978
G1Z-0.8F500
Y-45.975Z-0.9
Y45.976F1000
Y45.979Z-0.8
G0Z10
X-49Y-47.174
G1Z-0.8F500
Y-47.171Z-0.9
Y47.175F1000
Y47.178Z-0.8
G0Z10
X-48Y-48.174
G1Z-0.8F500
Y-48.171Z-0.9
Y48.175F1000
Y48.178Z-0.8
G0Z10
X-47Y-49.174
G1Z-0.8F500
Y-49.171Z-0.9
Y49.175F1000
Y49.178Z-0.8
G0Z10
X-46Y-49.978
G1Z-0.8F500
Y-49.975Z-0.9
Y49.976F1000
Y49.979Z-0.8
G0Z10
X-45Y-50.974
G1Z-0.8F500
Y-50.971Z-0.9
Y50.975F1000
Y50.978Z-0.8
G0Z10
X-44Y-51.778
G1Z-0.8F500
Y-51.775Z-0.9
Y51.776F1000
Y51.779Z-0.8
G0Z10
X-43Y-52.774
G1Z-0.8F500
Y-52.771Z-0.9
Y52.775F1000
Y52.778Z-0.8
G0Z10
X-42Y-53.378
G1Z-0.8F500
Y-53.375Z-0.9
Y53.376F1000
Y53.379Z-0.8
G0Z10
X-41Y-54.178
G1Z-0.8F500
Y-54.175Z-0.9
Y54.176F1000
Y54.179Z-0.8
G0Z10
X-40Y-54.978
G1Z-0.8F500
Y-54.975Z-0.9
Y54.976F1000
Y54.979Z-0.8
G0Z10
X-39Y-55.774
G1Z-0.8F500
Y-55.771Z-0.9
Y55.775F1000
Y55.778Z-0.8
G0Z10
X-38Y-56.378
G1Z-0.8F500
Y-56.375Z-0.9
Y56.376F1000
Y56.379Z-0.8
G0Z10
X-37Y-57.174
G1Z-0.8F500
Y-57.171Z-0.9
Y57.175F1000
Y57.178Z-0.8
G0Z10
X-36Y-57.774
G1Z-0.8F500
Y-57.771Z-0.9
Y57.775F1000
Y57.778Z-0.8
G0Z10
X-35Y-58.374
G1Z-0.8F500
Y-58.371Z-0.9
Y58.375F1000
Y58.378Z-0.8
G0Z10
X-34Y-58.974
G1Z-0.8F500
Y-58.971Z-0.9
Y58.975F1000
Y58.978Z-0.8
G0Z10
X-33Y-59.574
G1Z-0.8F500
Y-59.571Z-0.9
Y59.575F1000
Y59.578Z-0.8
G0Z10
X-32Y-60.174
G1Z-0.8F500
Y-60.171Z-0.9
Y60.175F1000
Y60.178Z-0.8
G0Z10
X-31Y-60.578
G1Z-0.8F500
Y-60.575Z-0.9
Y60.576F1000
Y60.579Z-0.8
G0Z10
X-30Y-61.174
G1Z-0.8F500
Y-61.171Z-0.9
Y61.175F1000
Y61.178Z-0.8
G0Z10
X-29Y-61.578
G1Z-0.8F500
Y-61.575Z-0.9
Y61.576F1000
Y61.579Z-0.8
G0Z10
X-28Y-62.174
G1Z-0.8F500
Y-62.171Z-0.9
Y62.175F1000
Y62.178Z-0.8
G0Z10
X-27Y-62.574
G1Z-0.8F500
Y-62.571Z-0.9
Y62.575F1000
Y62.578Z-0.8
G0Z10
X-26Y-62.978
G1Z-0.8F500
Y-62.975Z-0.9
Y62.976F1000
Y62.979Z-0.8
G0Z10
X-25Y-63.378
G1Z-0.8F500
Y-63.375Z-0.9
Y63.376F1000
Y63.379Z-0.8
G0Z10
X-24Y-63.778
G1Z-0.8F500
Y-63.775Z-0.9
Y63.776F1000
Y63.779Z-0.8
G0Z10
X-23Y-64.174
G1Z-0.8F500
Y-64.171Z-0.9
Y64.175F1000
Y64.178Z-0.8
G0Z10
X-22Y-64.574
G1Z-0.8F500
Y-64.571Z-0.9
Y64.575F1000
Y64.578Z-0.8
G0Z10
X-21Y-64.778
G1Z-0.8F500
Y-64.775Z-0.9
Y64.776F1000
Y64.779Z-0.8
G0Z10
X-20Y-65.178
G1Z-0.8F500
Y-65.175Z-0.9
Y65.176F1000
Y65.179Z-0.8
G0Z10
X-19Y-65.574
G1Z-0.8F500
Y-65.571Z-0.9
Y65.575F1000
Y65.578Z-0.8
G0Z10
X-18Y-65.778
G1Z-0.8F500
Y-65.775Z-0.9
Y65.776F1000
Y65.779Z-0.8
G0Z10
X-17Y-66.174
G1Z-0.8F500
Y-66.171Z-0.9
Y66.175F1000
Y66.178Z-0.8
G0Z10
X-16Y-66.374
G1Z-0.8F500
Y-66.371Z-0.9
Y66.375F1000
Y66.378Z-0.8
G0Z10
X-15Y-66.578
G1Z-0.8F500
Y-66.575Z-0.9
Y66.576F1000
Y66.579Z-0.8
G0Z10
X-14Y-66.778
G1Z-0.8F500
Y-66.775Z-0.9
Y66.776F1000
Y66.779Z-0.8
G0Z10
X-13Y-66.978
G1Z-0.8F500
Y-66.975Z-0.9
Y66.976F1000
Y66.979Z-0.8
G0Z10
X-12Y-67.178
G1Z-0.8F500
Y-67.175Z-0.9
Y67.176F1000
Y67.179Z-0.8
G0Z10
X-11Y-67.378
G1Z-0.8F500
Y-67.375Z-0.9
Y67.376F1000
Y67.379Z-0.8
G0Z10
X-10Y-67.578
G1Z-0.8F500
Y-67.575Z-0.9
Y67.576F1000
Y67.579Z-0.8
G0Z10
X-9Y-67.778
G1Z-0.8F500
Y-67.775Z-0.9
Y67.776F1000
Y67.779Z-0.8
G0Z10
X-8Y-67.974
G1Z-0.8F500
Y-67.971Z-0.9
Y67.975F1000
Y67.978Z-0.8
G0Z10
X-7Y-67.978
G1Z-0.8F500
Y-67.975Z-0.9
Y67.976F1000
Y67.979Z-0.8
G0Z10
X-6Y-68.174
G1Z-0.8F500
Y-68.171Z-0.9
Y68.175F1000
Y68.178Z-0.8
G0Z10
X-5Y-68.178
G1Z-0.8F500
Y-68.175Z-0.9
Y68.176F1000
Y68.179Z-0.8
G0Z10
X-4Y-68.374
G1Z-0.8F500
Y-68.371Z-0.9
Y68.375F1000
Y68.378Z-0.8
G0Z10
X-3Y-68.378
G1Z-0.8F500
Y-68.375Z-0.9
Y68.376F1000
Y68.379Z-0.8
G0Z10
X-2Y-68.574
G1Z-0.8F500
Y-68.571Z-0.9
Y68.575F1000
Y68.578Z-0.8
G0Z10
X-1Y-68.574
G1Z-0.8F500
Y-68.571Z-0.9
Y68.575F1000
Y68.578Z-0.8
G0Z10
X0Y-68.574
G1Z-0.8F500
Y-68.571Z-0.9
Y68.575F1000
Y68.578Z-0.8
G0Z10
X1Y-68.574
G1Z-0.8F500
Y-68.571Z-0.9
Y68.575F1000
Y68.578Z-0.8
G0Z10
X2Y-68.574
G1Z-0.8F500
Y-68.571Z-0.9
Y68.575F1000
Y68.578Z-0.8
G0Z10
X3Y-68.378
G1Z-0.8F500
Y-68.375Z-0.9
Y68.376F1000
Y68.379Z-0.8
G0Z10
X4Y-68.374
G1Z-0.8F500
Y-68.371Z-0.9
Y68.375F1000
Y68.378Z-0.8
G0Z10
X5Y-68.178
G1Z-0.8F500
Y-68.175Z-0.9
Y68.176F1000
Y68.179Z-0.8
G0Z10
X6Y-68.174
G1Z-0.8F500
Y-68.171Z-0.9
Y68.175F1000
Y68.178Z-0.8
G0Z10
X7Y-67.978
G1Z-0.8F500
Y-67.975Z-0.9
Y67.976F1000
Y67.979Z-0.8
G0Z10
X8Y-67.974
G1Z-0.8F500
Y-67.971Z-0.9
Y67.975F1000
Y67.978Z-0.8
G0Z10
X9Y-67.778
G1Z-0.8F500
Y-67.775Z-0.9
Y67.776F1000
Y67.779Z-0.8
G0Z10
X10Y-67.578
G1Z-0.8F500
Y-67.575Z-0.9
Y67.576F1000
Y67.579Z-0.8
G0Z10
X11Y-67.378
G1Z-0.8F500
Y-67.375Z-0.9
Y67.376F1000
Y67.379Z-0.8
G0Z10
X12Y-67.178
G1Z-0.8F500
Y-67.175Z-0.9
Y67.176F1000
Y67.179Z-0.8
G0Z10
X13Y-66.978
G1Z-0.8F500
Y-66.975Z-0.9
Y66.976F1000
Y66.979Z-0.8
G0Z10
X14Y-66.778
G1Z-0.8F500
Y-66.775Z-0.9
Y66.776F1000
Y66.779Z-0.8
G0Z10
X15Y-66.578
G1Z-0.8F500
Y-66.575Z-0.9
Y66.576F1000
Y66.579Z-0.8
G0Z10
X16Y-66.374
G1Z-0.8F500
Y-66.371Z-0.9
Y66.375F1000
Y66.378Z-0.8
G0Z10
X17Y-66.174
G1Z-0.8F500
Y-66.171Z-0.9
Y66.175F1000
Y66.178Z-0.8
G0Z10
X18Y-65.778
G1Z-0.8F500
Y-65.775Z-0.9
Y65.776F1000
Y65.779Z-0.8
G0Z10
X19Y-65.574
G1Z-0.8F500
Y-65.571Z-0.9
Y65.575F1000
Y65.578Z-0.8
G0Z10
X20Y-65.178
G1Z-0.8F500
Y-65.175Z-0.9
Y65.176F1000
Y65.179Z-0.8
G0Z10
X21Y-64.778
G1Z-0.8F500
Y-64.775Z-0.9
Y64.776F1000
Y64.779Z-0.8
G0Z10
X22Y-64.574
G1Z-0.8F500
Y-64.571Z-0.9
Y64.575F1000
Y64.578Z-0.8
G0Z10
X23Y-64.174
G1Z-0.8F500
Y-64.171Z-0.9
Y64.175F1000
Y64.178Z-0.8
G0Z10
X24Y-63.778
G1Z-0.8F500
Y-63.775Z-0.9
Y63.776F1000
Y63.779Z-0.8
G0Z10
X25Y-63.378
G1Z-0.8F500
Y-63.375Z-0.9
Y63.376F1000
Y63.379Z-0.8
G0Z10
X26Y-62.978
G1Z-0.8F500
Y-62.975Z-0.9
Y62.976F1000
Y62.979Z-0.8
G0Z10
X27Y-62.574
G1Z-0.8F500
Y-62.571Z-0.9
Y62.575F1000
Y62.578Z-0.8
G0Z10
X28Y-62.174
G1Z-0.8F500
Y-62.171Z-0.9
Y62.175F1000
Y62.178Z-0.8
G0Z10
X29Y-61.578
G1Z-0.8F500
Y-61.575Z-0.9
Y61.576F1000
Y61.579Z-0.8
G0Z10
X30Y-61.174
G1Z-0.8F500
Y-61.171Z-0.9
Y61.175F1000
Y61.178Z-0.8
G0Z10
X31Y-60.578
G1Z-0.8F500
Y-60.575Z-0.9
Y60.576F1000
Y60.579Z-0.8
G0Z10
X32Y-60.174
G1Z-0.8F500
Y-60.171Z-0.9
Y60.175F1000
Y60.178Z-0.8
G0Z10
X33Y-59.574
G1Z-0.8F500
Y-59.571Z-0.9
Y59.575F1000
Y59.578Z-0.8
G0Z10
X34Y-58.974
G1Z-0.8F500
Y-58.971Z-0.9
Y58.975F1000
Y58.978Z-0.8
G0Z10
X35Y-58.374
G1Z-0.8F500
Y-58.371Z-0.9
Y58.375F1000
Y58.378Z-0.8
G0Z10
X36Y-57.774
G1Z-0.8F500
Y-57.771Z-0.9
Y57.775F1000
Y57.778Z-0.8
G0Z10
X37Y-57.174
G1Z-0.8F500
Y-57.171Z-0.9
Y57.175F1000
Y57.178Z-0.8
G0Z10
X38Y-56.378
G1Z-0.8F500
Y-56.375Z-0.9
Y56.376F1000
Y56.379Z-0.8
G0Z10
X39Y-55.774
G1Z-0.8F500
Y-55.771Z-0.9
Y55.775F1000
Y55.778Z-0.8
G0Z10
X40Y-54.978
G1Z-0.8F500
Y-54.975Z-0.9
Y54.976F1000
Y54.979Z-0.8
G0Z10
X41Y-54.178
G1Z-0.8F500
Y-54.175Z-0.9
Y54.176F1000
Y54.179Z-0.8
G0Z10
X42Y-53.378
G1Z-0.8F500
Y-53.375Z-0.9
Y53.376F1000
Y53.379Z-0.8
G0Z10
X43Y-52.774
G1Z-0.8F500
Y-52.771Z-0.9
Y52.775F1000
Y52.778Z-0.8
G0Z10
X44Y-51.778
G1Z-0.8F500
Y-51.775Z-0.9
Y51.776F1000
Y51.779Z-0.8
G0Z10
X45Y-50.974
G1Z-0.8F500
Y-50.971Z-0.9
Y50.975F1000
Y50.978Z-0.8
G0Z10
X46Y-49.978
G1Z-0.8F500
Y-49.975Z-0.9
Y49.976F1000
Y49.979Z-0.8
G0Z10
X47Y-49.174
G1Z-0.8F500
Y-49.171Z-0.9
Y49.175F1000
Y49.178Z-0.8
G0Z10
X48Y-48.174
G1Z-0.8F500
Y-48.171Z-0.9
Y48.175F1000
Y48.178Z-0.8
G0Z10
X49Y-47.174
G1Z-0.8F500
Y-47.171Z-0.9
Y47.175F1000
Y47.178Z-0.8
G0Z10
X50Y-45.978
G1Z-0.8F500
Y-45.975Z-0.9
Y45.976F1000
Y45.979Z-0.8
G0Z10
X51Y-44.974
G1Z-0.8F500
Y-44.971Z-0.9
Y44.975F1000
Y44.978Z-0.8
G0Z10
X52Y-43.778
G1Z-0.8F500
Y-43.775Z-0.9
Y43.776F1000
Y43.779Z-0.8
G0Z10
X53Y-42.578
G1Z-0.8F500
Y-42.575Z-0.9
Y42.576F1000
Y42.579Z-0.8
G0Z10
X54Y-41.374
G1Z-0.8F500
Y-41.371Z-0.9
Y41.375F1000
Y41.378Z-0.8
G0Z10
X55Y-39.978
G1Z-0.8F500
Y-39.975Z-0.9
Y39.976F1000
Y39.979Z-0.8
G0Z10
X56Y-38.578
G1Z-0.8F500
Y-38.575Z-0.9
Y38.576F1000
Y38.579Z-0.8
G0Z10
X57Y-37.174
G1Z-0.8F500
Y-37.171Z-0.9
Y37.175F1000
Y37.178Z-0.8
G0Z10
X58Y-35.574
G1Z-0.8F500
Y-35.571Z-0.9
Y35.575F1000
Y35.578Z-0.8
G0Z10
X59Y-33.974
G1Z-0.8F500
Y-33.971Z-0.9
Y33.975F1000
Y33.978Z-0.8
G0Z10
X60Y-32.174
G1Z-0.8F500
Y-32.171Z-0.9
Y32.175F1000
Y32.178Z-0.8
G0Z10
X61Y-30.178
G1Z-0.8F500
Y-30.175Z-0.9
Y30.176F1000
Y30.179Z-0.8
G0Z10
X62Y-28.178
G1Z-0.8F500
Y-28.175Z-0.9
Y28.176F1000
Y28.179Z-0.8
G0Z10
X63Y-25.978
G1Z-0.8F500
Y-25.975Z-0.9
Y25.976F1000
Y25.979Z-0.8
G0Z10
X64Y-23.378
G1Z-0.8F500
Y-23.375Z-0.9
Y23.376F1000
Y23.379Z-0.8
G0Z10
X65Y-20.578
G1Z-0.8F500
Y-20.575Z-0.9
Y20.576F1000
Y20.579Z-0.8
G0Z10
X66Y-17.378
G1Z-0.8F500
Y-17.375Z-0.9
Y17.376F1000
Y17.379Z-0.8
G0Z10
X67Y-13.374
G1Z-0.8F500
Y-13.371Z-0.9
Y13.375F1000
Y13.378Z-0.8
G0Z10
X68Y-7.574
G1Z-0.8F500
Y-7.571Z-0.9
Y7.575F1000
Y7.578Z-0.8
G0Z10
X-68Y-7.571
G1Z-0.9F500
Y-7.568Z-1
Y7.572F1000
Y7.575Z-0.9
G0Z10
X-67Y-13.371
G1Z-0.9F500
Y-13.368Z-1
Y13.372F1000
Y13.375Z-0.9
G0Z10
X-66Y-17.375
G1Z-0.9F500
Y-17.372Z-1
Y17.373F1000
Y17.376Z-0.9
G0Z10
X-65Y-20.575
G1Z-0.9F500
Y-20.572Z-1
Y20.573F1000
Y20.576Z-0.9
G0Z10
X-64Y-23.375
G1Z-0.9F500
Y-23.372Z-1
Y23.373F1000
Y23.376Z-0.9
G0Z10
X-63Y-25.975
G1Z-0.9F500
Y-25.972Z-1
Y25.973F1000
Y25.976Z-0.9
G0Z10
X-62Y-28.175
G1Z-0.9F500
Y-28.172Z-1
Y28.173F1000
Y28.176Z-0.9
G0Z10
X-61Y-30.175
G1Z-0.9F500
Y-30.172Z-1
Y30.173F1000
Y30.176Z-0.9
G0Z10
X-60Y-32.171
G1Z-0.9F500
Y-32.168Z-1
Y32.172F1000
Y32.175Z-0.9
G0Z10
X-59Y-33.971
G1Z-0.9F500
Y-33.968Z-1
Y33.972F1000
Y33.975Z-0.9
G0Z10
X-58Y-35.571
G1Z-0.9F500
Y-35.568Z-1
Y35.572F1000
Y35.575Z-0.9
G0Z10
X-57Y-37.171
G1Z-0.9F500
Y-37.168Z-1
Y37.172F1000
Y37.175Z-0.9
G0Z10
X-56Y-38.575
G1Z-0.9F500
Y-38.572Z-1
Y38.573F1000
Y38.576Z-0.9
G0Z10
X-55Y-39.975
G1Z-0.9F500
Y-39.972Z-1
Y39.973F1000
Y39.976Z-0.9
G0Z10
X-54Y-41.371
G1Z-0.9F500
Y-41.368Z-1
Y41.372F1000
Y41.375Z-0.9
G0Z10
X-53Y-42.575
G1Z-0.9F500
Y-42.572Z-1
Y42.573F1000
Y42.576Z-0.9
G0Z10
X-52Y-43.775
G1Z-0.9F500
Y-43.772Z-1
Y43.773F1000
Y43.776Z-0.9
G0Z10
X-51Y-44.971
G1Z-0.9F500
Y-44.968Z-1
Y44.972F1000
Y44.975Z-0.9
G0Z10
X-50Y-45.975
G1Z-0.9F500
Y-45.972Z-1
Y45.973F1000
Y45.976Z-0.9
G0Z10
X-49Y-47.171
G1Z-0.9F500
Y-47.168Z-1
Y47.172F1000
Y47.175Z-0.9
G0Z10
X-48Y-48.171
G1Z-0.9F500
Y-48.168Z-1
Y48.172F1000
Y48.175Z-0.9
G0Z10
X-47Y-49.171
G1Z-0.9F500
Y-49.168Z-1
Y49.172F1000
Y49.175Z-0.9
G0Z10
X-46Y-49.975
G1Z-0.9F500
Y-49.972Z-1
Y49.973F1000
Y49.976Z-0.9
G0Z10
X-45Y-50.971
G1Z-0.9F500
Y-50.968Z-1
Y50.972F1000
Y50.975Z-0.9
G0Z10
X-44Y-51.775
G1Z-0.9F500
Y-51.772Z-1
Y51.773F1000
Y51.776Z-0.9
G0Z10
X-43Y-52.771
G1Z-0.9F500
Y-52.768Z-1
Y52.772F1000
Y52.775Z-0.9
G0Z10
X-42Y-53.375
G1Z-0.9F500
Y-53.372Z-1
Y53.373F1000
Y53.376Z-0.9
G0Z10
X-41Y-54.175
G1Z-0.9F500
Y-54.172Z-1
Y54.173F1000
Y54.176Z-0.9
G0Z10
X-40Y-54.975
G1Z-0.9F500
Y-54.972Z-1
Y54.973F1000
Y54.976Z-0.9
G0Z10
X-39Y-55.771
G1Z-0.9F500
Y-55.768Z-1
Y55.772F1000
Y55.775Z-0.9
G0Z10
X-38Y-56.375
G1Z-0.9F500
Y-56.372Z-1
Y56.373F1000
Y56.376Z-0.9
G0Z10
X-37Y-57.171
G1Z-0.9F500
Y-57.168Z-1
Y57.172F1000
Y57.175Z-0.9
G0Z10
X-36Y-57.771
G1Z-0.9F500
Y-57.768Z-1
Y57.772F1000
Y57.775Z-0.9
G0Z10
X-35Y-58.371
G1Z-0.9F500
Y-58.368Z-1
Y58.372F1000
Y58.375Z-0.9
G0Z10
X-34Y-58.971
G1Z-0.9F500
Y-58.968Z-1
Y58.972F1000
Y58.975Z-0.9
G0Z10
X-33Y-59.571
G1Z-0.9F500
Y-59.568Z-1
Y59.572F1000
Y59.575Z-0.9
G0Z10
X-32Y-60.171
G1Z-0.9F500
Y-60.168Z-1
Y60.172F1000
Y60.175Z-0.9
G0Z10
X-31Y-60.575
G1Z-0.9F500
Y-60.572Z-1
Y60.573F1000
Y60.576Z-0.9
G0Z10
X-30Y-61.171
G1Z-0.9F500
Y-61.168Z-1
Y61.172F1000
Y61.175Z-0.9
G0Z10
X-29Y-61.575
G1Z-0.9F500
Y-61.572Z-1
Y61.573F1000
Y61.576Z-0.9
G0Z10
X-28Y-62.171
G1Z-0.9F500
Y-62.168Z-1
Y62.172F1000
Y62.175Z-0.9
G0Z10
X-27Y-62.571
G1Z-0.9F500
Y-62.568Z-1
Y62.572F1000
Y62.575Z-0.9
G0Z10
X-26Y-62.975
G1Z-0.9F500
Y-62.972Z-1
Y62.973F1000
Y62.976Z-0.9
G0Z10
X-25Y-63.375
G1Z-0.9F500
Y-63.372Z-1
Y63.373F1000
Y63.376Z-0.9
G0Z10
X-24Y-63.775
G1Z-0.9F500
Y-63.772Z-1
Y63.773F1000
Y63.776Z-0.9
G0Z10
X-23Y-64.171
G1Z-0.9F500
Y-64.168Z-1
Y64.172F1000
Y64.175Z-0.9
G0Z10
X-22Y-64.571
G1Z-0.9F500
Y-64.568Z-1
Y64.572F1000
Y64.575Z-0.9
G0Z10
X-21Y-64.775
G1Z-0.9F500
Y-64.772Z-1
Y64.773F1000
Y64.776Z-0.9
G0Z10
X-20Y-65.175
G1Z-0.9F500
Y-65.172Z-1
Y65.173F1000
Y65.176Z-0.9
G0Z10
X-19Y-65.571
G1Z-0.9F500
Y-65.568Z-1
Y65.572F1000
Y65.575Z-0.9
G0Z10
X-18Y-65.775
G1Z-0.9F500
Y-65.772Z-1
Y65.773F1000
Y65.776Z-0.9
G0Z10
X-17Y-66.171
G1Z-0.9F500
Y-66.168Z-1
Y66.172F1000
Y66.175Z-0.9
G0Z10
X-16Y-66.371
G1Z-0.9F500
Y-66.368Z-1
Y66.372F1000
Y66.375Z-0.9
G0Z10
X-15Y-66.575
G1Z-0.9F500
Y-66.572Z-1
Y66.573F1000
Y66.576Z-0.9
G0Z10
X-14Y-66.775
G1Z-0.9F500
Y-66.772Z-1
Y66.773F1000
Y66.776Z-0.9
G0Z10
X-13Y-66.975
G1Z-0.9F500
Y-66.972Z-1
Y66.973F1000
Y66.976Z-0.9
G0Z10
X-12Y-67.175
G1Z-0.9F500
Y-67.172Z-1
Y67.173F1000
Y67.176Z-0.9
G0Z10
X-11Y-67.375
G1Z-0.9F500
Y-67.372Z-1
Y67.373F1000
Y67.376Z-0.9
G0Z10
X-10Y-67.575
G1Z-0.9F500
Y-67.572Z-1
Y67.573F1000
Y67.576Z-0.9
G0Z10
X-9Y-67.775
G1Z-0.9F500
Y-67.772Z-1
Y67.773F1000
Y67.776Z-0.9
G0Z10
X-8Y-67.971
G1Z-0.9F500
Y-67.968Z-1
Y67.972F1000
Y67.975Z-0.9
G0Z10
X-7Y-67.975
G1Z-0.9F500
Y-67.972Z-1
Y67.973F1000
Y67.976Z-0.9
G0Z10
X-6Y-68.171
G1Z-0.9F500
Y-68.168Z-1
Y68.172F1000
Y68.175Z-0.9
G0Z10
X-5Y-68.175
G1Z-0.9F500
Y-68.172Z-1
Y68.173F1000
Y68.176Z-0.9
G0Z10
X-4Y-68.371
G1Z-0.9F500
Y-68.368Z-1
Y68.372F1000
Y68.375Z-0.9
G0Z10
X-3Y-68.375
G1Z-0.9F500
Y-68.372Z-1
Y68.373F1000
Y68.376Z-0.9
G0Z10
X-2Y-68.571
G1Z-0.9F500
Y-68.568Z-1
Y68.572F1000
Y68.575Z-0.9
G0Z10
X-1Y-68.571
G1Z-0.9F500
Y-68.568Z-1
Y68.572F1000
Y68.575Z-0.9
G0Z10
X0Y-68.571
G1Z-0.9F500
Y-68.568Z-1
Y68.572F1000
Y68.575Z-0.9
G0Z10
X1Y-68.571
G1Z-0.9F500
Y-68.568Z-1
Y68.572F1000
Y68.575Z-0.9
G0Z10
X2Y-68.571
G1Z-0.9F500
Y-68.568Z-1
Y68.572F1000
Y68.575Z-0.9
G0Z10
X3Y-68.375
G1Z-0.9F500
Y-68.372Z-1
Y68.373F1000
Y68.376Z-0.9
G0Z10
X4Y-68.371
G1Z-0.9F500
Y-68.368Z-1
Y68.372F1000
Y68.375Z-0.9
G0Z10
X5Y-68.175
G1Z-0.9F500
Y-68.172Z-1
Y68.173F1000
Y68.176Z-0.9
G0Z10
X6Y-68.171
G1Z-0.9F500
Y-68.168Z-1
Y68.172F1000
Y68.175Z-0.9
G0Z10
X7Y-67.975
G1Z-0.9F500
Y-67.972Z-1
Y67.973F1000
Y67.976Z-0.9
G0Z10
X8Y-67.971
G1Z-0.9F500
Y-67.968Z-1
Y67.972F1000
Y67.975Z-0.9
G0Z10
X9Y-67.775
G1Z-0.9F500
Y-67.772Z-1
Y67.773F1000
Y67.776Z-0.9
G0Z10
X10Y-67.575
G1Z-0.9F500
Y-67.572Z-1
Y67.573F1000
Y67.576Z-0.9
G0Z10
X11Y-67.375
G1Z-0.9F500
Y-67.372Z-1
Y67.373F1000
Y67.376Z-0.9
G0Z10
X12Y-67.175
G1Z-0.9F500
Y-67.172Z-1
Y67.173F1000
Y67.176Z-0.9
G0Z10
X13Y-66.975
G1Z-0.9F500
Y-66.972Z-1
Y66.973F1000
Y66.976Z-0.9
G0Z10
X14Y-66.775
G1Z-0.9F500
Y-66.772Z-1
Y66.773F1000
Y66.776Z-0.9
G0Z10
X15Y-66.575
G1Z-0.9F500
Y-66.572Z-1
Y66.573F1000
Y66.576Z-0.9
G0Z10
X16Y-66.371
G1Z-0.9F500
Y-66.368Z-1
Y66.372F1000
Y66.375Z-0.9
G0Z10
X17Y-66.171
G1Z-0.9F500
Y-66.168Z-1
Y66.172F1000
Y66.175Z-0.9
G0Z10
X18Y-65.775
G1Z-0.9F500
Y-65.772Z-1
Y65.773F1000
Y65.776Z-0.9
G0Z10
X19Y-65.571
G1Z-0.9F500
Y-65.568Z-1
Y65.572F1000
Y65.575Z-0.9
G0Z10
X20Y-65.175
G1Z-0.9F500
Y-65.172Z-1
Y65.173F1000
Y65.176Z-0.9
G0Z10
X21Y-64.775
G1Z-0.9F500
Y-64.772Z-1
Y64.773F1000
Y64.776Z-0.9
G0Z10
X22Y-64.571
G1Z-0.9F500
Y-64.568Z-1
Y64.572F1000
Y64.575Z-0.9
G0Z10
X23Y-64.171
G1Z-0.9F500
Y-64.168Z-1
Y64.172F1000
Y64.175Z-0.9
G0Z10
X24Y-63.775
G1Z-0.9F500
Y-63.772Z-1
Y63.773F1000
Y63.776Z-0.9
G0Z10
X25Y-63.375
G1Z-0.9F500
Y-63.372Z-1
Y63.373F1000
Y63.376Z-0.9
G0Z10
X26Y-62.975
G1Z-0.9F500
Y-62.972Z-1
Y62.973F1000
Y62.976Z-0.9
G0Z10
X27Y-62.571
G1Z-0.9F500
Y-62.568Z-1
Y62.572F1000
Y62.575Z-0.9
G0Z10
X28Y-62.171
G1Z-0.9F500
Y-62.168Z-1
Y62.172F1000
Y62.175Z-0.9
G0Z10
X29Y-61.575
G1Z-0.9F500
Y-61.572Z-1
Y61.573F1000
Y61.576Z-0.9
G0Z10
X30Y-61.171
G1Z-0.9F500
Y-61.168Z-1
Y61.172F1000
Y61.175Z-0.9
G0Z10
X31Y-60.575
G1Z-0.9F500
Y-60.572Z-1
Y60.573F1000
Y60.576Z-0.9
G0Z10
X32Y-60.171
G1Z-0.9F500
Y-60.168Z-1
Y60.172F1000
Y60.175Z-0.9
G0Z10
X33Y-59.571
G1Z-0.9F500
Y-59.568Z-1
Y59.572F1000
Y59.575Z-0.9
G0Z10
X34Y-58.971
G1Z-0.9F500
Y-58.968Z-1
Y58.972F1000
Y58.975Z-0.9
G0Z10
X35Y-58.371
G1Z-0.9F500
Y-58.368Z-1
Y58.372F1000
Y58.375Z-0.9
G0Z10
X36Y-57.771
G1Z-0.9F500
